assets/luts/action-punchy.cube
TITLE "action-punchy"
LUT_3D_SIZE 17
0.000000 0.000000 0.000000
0.000000 0.000000 0.000000
0.020165 0.000000 0.000000
0.107314 0.000000 0.000000
0.194464 0.000000 0.000000
0.281614 0.000000 0.000000
0.368763 0.000000 0.000000
0.455913 0.000000 0.000000
0.543063 0.000000 0.000000
0.630212 0.000000 0.000000
0.717362 0.000000 0.000000
0.804512 0.000000 0.000000
0.891661 0.000000 0.000000
0.978811 0.000000 0.000000
1.000000 0.000000 0.000000
1.000000 0.000000 0.000000
1.000000 0.000000 0.000000
0.000000 0.000000 0.000000
0.000000 0.000000 0.000000
0.024753 0.000000 0.000000
0.111903 0.000000 0.000000
0.199052 0.000000 0.000000
0.286202 0.000000 0.000000
0.373352 0.000000 0.000000
0.460501 0.000000 0.000000
0.547651 0.000000 0.000000
0.634801 0.000000 0.000000
0.721950 0.000000 0.000000
0.809100 0.000000 0.000000
0.896250 0.000000 0.000000
0.983399 0.000000 0.000000
1.000000 0.000000 0.000000
1.000000 0.000000 0.000000
1.000000 0.000000 0.000000
0.000000 0.048782 0.000000
0.000000 0.046893 0.000000
0.029341 0.045003 0.000000
0.116491 0.043114 0.000000
0.203641 0.041225 0.000000
0.290790 0.039335 0.000000
0.377940 0.037446 0.000000
0.465090 0.035557 0.000000
0.552239 0.033667 0.000000
0.639389 0.031778 0.000000
0.726539 0.029889 0.000000
0.813688 0.028000 0.000000
0.900838 0.026110 0.000000
0.983060 0.022983 0.000000
1.000000 0.019675 0.000000
1.000000 0.016367 0.000000
1.000000 0.013060 0.000000
0.000000 0.129885 0.000000
0.000000 0.127996 0.000000
0.033930 0.126107 0.000000
0.121079 0.124217 0.000000
0.208229 0.122328 0.000000
0.295379 0.120439 0.000000
0.382528 0.118549 0.000000
0.469678 0.116660 0.000000
0.556828 0.114771 0.000000
0.643977 0.112882 0.000000
0.731127 0.110992 0.000000
0.813557 0.107917 0.000000
0.895062 0.104609 0.000000
0.976567 0.101302 0.000000
1.000000 0.097994 0.000000
1.000000 0.094686 0.000000
1.000000 0.091379 0.000000
0.000000 0.210989 0.000000
0.000000 0.209099 0.000000
0.038518 0.207210 0.000000
0.125668 0.205321 0.000000
0.212817 0.203431 0.000000
0.299967 0.201542 0.000000
0.387117 0.199653 0.000000
0.474266 0.197764 0.000000
0.561416 0.195874 0.000000
0.644054 0.192851 0.000000
0.725558 0.189543 0.000000
0.807063 0.186236 0.000000
0.888568 0.182928 0.000000
0.970073 0.179620 0.000000
1.000000 0.176313 0.000000
1.000000 0.173005 0.000000
1.000000 0.169697 0.000000
0.000000 0.292092 0.000000
0.000000 0.290203 0.000000
0.043106 0.288313 0.000000
0.130256 0.286424 0.000000
0.217406 0.284535 0.000000
0.304555 0.282646 0.000000
0.391705 0.280756 0.000000
0.474550 0.277785 0.000000
0.556055 0.274478 0.000000
0.637560 0.271170 0.000000
0.719065 0.267862 0.000000
0.800570 0.264555 0.000000
0.882074 0.261247 0.000000
0.963579 0.257939 0.000000
1.000000 0.254632 0.000000
1.000000 0.251324 0.000000
1.000000 0.248016 0.000000
0.000000 0.373195 0.000000
0.000000 0.371306 0.000000
0.047695 0.369417 0.000000
0.134844 0.367528 0.000000
0.221994 0.365638 0.000000
0.305047 0.362720 0.000000
0.386552 0.359412 0.000000
0.468057 0.356104 0.000000
0.549561 0.352796 0.000000
0.631066 0.349489 0.000000
0.712571 0.346181 0.000000
0.794076 0.342873 0.000000
0.875581 0.339566 0.000000
0.957086 0.336258 0.000000
1.000000 0.332950 0.000000
1.000000 0.329643 0.000000
1.000000 0.326335 0.000000
0.000000 0.454299 0.000000
0.000000 0.452410 0.000000
0.052283 0.450520 0.000000
0.135544 0.447654 0.000000
0.217049 0.444346 0.000000
0.298553 0.441038 0.000000
0.380058 0.437731 0.000000
0.461563 0.434423 0.000000
0.543068 0.431115 0.000000
0.624573 0.427808 0.000000
0.706077 0.424500 0.000000
0.787582 0.421192 0.000000
0.869087 0.417885 0.000000
0.950592 0.414577 0.000000
1.000000 0.411269 0.000000
1.000000 0.407961 0.000000
1.000000 0.404654 0.000000
0.000000 0.535402 0.000000
0.000000 0.532588 0.000000
0.047545 0.529280 0.000000
0.129050 0.525973 0.000000
0.210555 0.522665 0.000000
0.292060 0.519357 0.000000
0.373564 0.516049 0.000000
0.455069 0.512742 0.000000
0.536574 0.509434 0.000000
0.618079 0.506126 0.000000
0.699584 0.502819 0.000000
0.781089 0.499511 0.000000
0.862593 0.496203 0.000000
0.944098 0.492896 0.000000
1.000000 0.489588 0.000000
1.000000 0.486280 0.000000
1.000000 0.482973 0.000000
0.000000 0.614214 0.000000
0.000000 0.610907 0.000000
0.041052 0.607599 0.000000
0.122556 0.604291 0.000000
0.204061 0.600984 0.000000
0.285566 0.597676 0.000000
0.367071 0.594368 0.000000
0.448576 0.591061 0.000000
0.530080 0.587753 0.000000
0.611585 0.584445 0.000000
0.693090 0.581138 0.000000
0.774595 0.577830 0.000000
0.856100 0.574522 0.000000
0.937604 0.571214 0.000000
1.000000 0.567907 0.000000
1.000000 0.564599 0.000000
1.000000 0.561291 0.000000
0.000000 0.692533 0.000000
0.000000 0.689226 0.000000
0.034558 0.685918 0.000000
0.116063 0.682610 0.000000
0.197567 0.679302 0.000000
0.279072 0.675995 0.000000
0.360577 0.672687 0.000000
0.442082 0.669379 0.000000
0.523587 0.666072 0.000000
0.605092 0.662764 0.000000
0.686596 0.659456 0.000000
0.768101 0.656149 0.000000
0.849606 0.652841 0.000000
0.931111 0.649533 0.000000
1.000000 0.646226 0.000000
1.000000 0.642918 0.000000
1.000000 0.639610 0.000000
0.000000 0.770852 0.000000
0.000000 0.767544 0.000000
0.028064 0.764237 0.000000
0.109569 0.760929 0.000000
0.191074 0.757621 0.000000
0.272579 0.754314 0.000000
0.354083 0.751006 0.000000
0.435588 0.747698 0.000000
0.517093 0.744391 0.000000
0.598598 0.741083 0.000000
0.680103 0.737775 0.000000
0.761607 0.734467 0.000000
0.843112 0.731160 0.000000
0.924617 0.727852 0.000000
1.000000 0.724544 0.000000
1.000000 0.721237 0.000000
1.000000 0.718228 0.000000
0.000000 0.849171 0.000000
0.000000 0.845863 0.000000
0.021570 0.842555 0.000000
0.103075 0.839248 0.000000
0.184580 0.835940 0.000000
0.266085 0.832632 0.000000
0.347590 0.829325 0.000000
0.429095 0.826017 0.000000
0.510599 0.822709 0.000000
0.592104 0.819402 0.000000
0.673609 0.816094 0.000000
0.755114 0.812786 0.000000
0.836619 0.809479 0.000000
0.918123 0.806171 0.000000
1.000000 0.803082 0.000000
1.000000 0.801956 0.000000
1.000000 0.800830 0.000000
0.000000 0.927490 0.000000
0.000000 0.924182 0.000000
0.015077 0.920874 0.000000
0.096582 0.917567 0.000000
0.178086 0.914259 0.000000
0.259591 0.910951 0.000000
0.341096 0.907644 0.000000
0.422601 0.904336 0.000000
0.504106 0.901028 0.000000
0.585610 0.897720 0.000000
0.667115 0.894413 0.000000
0.748620 0.891105 0.000000
0.830425 0.887936 0.000000
0.916647 0.886810 0.000000
1.000000 0.885684 0.000000
1.000000 0.884558 0.000000
1.000000 0.883432 0.000000
0.000000 1.000000 0.000000
0.000000 1.000000 0.000000
0.008583 0.999193 0.000000
0.090088 0.995885 0.000000
0.171593 0.992578 0.000000
0.253098 0.989270 0.000000
0.334602 0.985962 0.000000
0.416107 0.982655 0.000000
0.497612 0.979347 0.000000
0.579117 0.976039 0.000000
0.660748 0.972790 0.000000
0.746970 0.971664 0.000000
0.833193 0.970538 0.000000
0.919415 0.969412 0.000000
1.000000 0.968286 0.000000
1.000000 0.967160 0.000000
1.000000 0.966034 0.000000
0.000000 1.000000 0.000000
0.000000 1.000000 0.000000
0.002089 1.000000 0.000000
0.083594 1.000000 0.000000
0.165099 1.000000 0.000000
0.246604 1.000000 0.000000
0.328109 1.000000 0.000000
0.409613 1.000000 0.000000
0.491118 1.000000 0.000000
0.577293 1.000000 0.000000
0.663516 1.000000 0.000000
0.749738 1.000000 0.000000
0.835960 1.000000 0.000000
0.922183 1.000000 0.000000
1.000000 1.000000 0.000000
1.000000 1.000000 0.000000
1.000000 1.000000 0.000000
0.000000 1.000000 0.000000
0.000000 1.000000 0.000000
0.000000 1.000000 0.000000
0.077101 1.000000 0.000000
0.158605 1.000000 0.000000
0.240110 1.000000 0.000000
0.321615 1.000000 0.000000
0.407616 1.000000 0.000000
0.493839 1.000000 0.000000
0.580061 1.000000 0.000000
0.666283 1.000000 0.000000
0.752506 1.000000 0.000000
0.838728 1.000000 0.000000
0.924951 1.000000 0.000000
1.000000 1.000000 0.000000
1.000000 1.000000 0.000000
1.000000 1.000000 0.000000
0.000000 0.000000 0.062757
0.000000 0.000000 0.053260
0.021056 0.000000 0.043763
0.108205 0.000000 0.034266
0.195355 0.000000 0.024769
0.282505 0.000000 0.015272
0.369654 0.000000 0.005775
0.456804 0.000000 0.000000
0.543954 0.000000 0.000000
0.631103 0.000000 0.000000
0.718253 0.000000 0.000000
0.805403 0.000000 0.000000
0.892552 0.000000 0.000000
0.979702 0.000000 0.000000
1.000000 0.000000 0.000000
1.000000 0.000000 0.000000
1.000000 0.000000 0.000000
0.000000 0.000000 0.044112
0.000000 0.000000 0.034615
0.025644 0.000000 0.025118
0.112794 0.000000 0.015621
0.199943 0.000000 0.006124
0.287093 0.000000 0.000000
0.374243 0.000000 0.000000
0.461392 0.000000 0.000000
0.548542 0.000000 0.000000
0.635692 0.000000 0.000000
0.722841 0.000000 0.000000
0.809991 0.000000 0.000000
0.897141 0.000000 0.000000
0.984290 0.000000 0.000000
1.000000 0.000000 0.000000
1.000000 0.000000 0.000000
1.000000 0.000000 0.000000
0.000000 0.048062 0.025468
0.000000 0.046172 0.015971
0.030232 0.044283 0.006474
0.117382 0.042394 0.000000
0.204532 0.040504 0.000000
0.291681 0.038615 0.000000
0.378831 0.036726 0.000000
0.465981 0.034836 0.000000
0.553130 0.032947 0.000000
0.640280 0.031058 0.000000
0.727430 0.029169 0.000000
0.814579 0.027279 0.000000
0.900294 0.025029 0.000000
0.981799 0.021722 0.000000
1.000000 0.018414 0.000000
1.000000 0.015106 0.000000
1.000000 0.011799 0.000000
0.000000 0.129165 0.006823
0.000000 0.127276 0.000000
0.034821 0.125386 0.000000
0.121970 0.123497 0.000000
0.209120 0.121608 0.000000
0.296270 0.119718 0.000000
0.383419 0.117829 0.000000
0.470569 0.115940 0.000000
0.557719 0.114051 0.000000
0.644869 0.112161 0.000000
0.730791 0.109964 0.000000
0.812296 0.106656 0.000000
0.893801 0.103348 0.000000
0.975305 0.100040 0.000000
1.000000 0.096733 0.000000
1.000000 0.093425 0.000000
1.000000 0.090117 0.000000
0.000000 0.210268 0.000000
0.000000 0.208379 0.000000
0.039409 0.206490 0.000000
0.126559 0.204600 0.000000
0.213708 0.202711 0.000000
0.300858 0.200822 0.000000
0.388008 0.198933 0.000000
0.475158 0.197043 0.000000
0.561288 0.194898 0.000000
0.642793 0.191590 0.000000
0.724297 0.188282 0.000000
0.805802 0.184975 0.000000
0.887307 0.181667 0.000000
0.968812 0.178359 0.000000
1.000000 0.175052 0.000000
1.000000 0.171744 0.000000
1.000000 0.168436 0.000000
0.000000 0.291372 0.000000
0.000000 0.289482 0.000000
0.043998 0.287593 0.000000
0.131147 0.285704 0.000000
0.218297 0.283815 0.000000
0.305447 0.281925 0.000000
0.391784 0.279832 0.000000
0.473289 0.276524 0.000000
0.554794 0.273217 0.000000
0.636299 0.269909 0.000000
0.717804 0.266601 0.000000
0.799308 0.263293 0.000000
0.880813 0.259986 0.000000
0.962318 0.256678 0.000000
1.000000 0.253370 0.000000
1.000000 0.250063 0.000000
1.000000 0.246755 0.000000
0.000000 0.372475 0.000000
0.000000 0.370586 0.000000
0.048586 0.368697 0.000000
0.135736 0.366807 0.000000
0.222281 0.364766 0.000000
0.303786 0.361458 0.000000
0.385291 0.358151 0.000000
0.466796 0.354843 0.000000
0.548300 0.351535 0.000000
0.629805 0.348228 0.000000
0.711310 0.344920 0.000000
0.792815 0.341612 0.000000
0.874320 0.338305 0.000000
0.955824 0.334997 0.000000
1.000000 0.331689 0.000000
1.000000 0.328382 0.000000
1.000000 0.325074 0.000000
0.000000 0.453579 0.000000
0.000000 0.451689 0.000000
0.052778 0.449700 0.000000
0.134283 0.446393 0.000000
0.215787 0.443085 0.000000
0.297292 0.439777 0.000000
0.378797 0.436470 0.000000
0.460302 0.433162 0.000000
0.541807 0.429854 0.000000
0.623311 0.426546 0.000000
0.704816 0.423239 0.000000
0.786321 0.419931 0.000000
0.867826 0.416623 0.000000
0.949331 0.413316 0.000000
1.000000 0.410008 0.000000
1.000000 0.406700 0.000000
1.000000 0.403393 0.000000
0.000000 0.534634 0.000000
0.000000 0.531327 0.000000
0.046284 0.528019 0.000000
0.127789 0.524711 0.000000
0.209294 0.521404 0.000000
0.290799 0.518096 0.000000
0.372303 0.514788 0.000000
0.453808 0.511481 0.000000
0.535313 0.508173 0.000000
0.616818 0.504865 0.000000
0.698323 0.501558 0.000000
0.779827 0.498250 0.000000
0.861332 0.494942 0.000000
0.942837 0.491635 0.000000
1.000000 0.488327 0.000000
1.000000 0.485019 0.000000
1.000000 0.481711 0.000000
0.000000 0.612953 0.000000
0.000000 0.609646 0.000000
0.039790 0.606338 0.000000
0.121295 0.603030 0.000000
0.202800 0.599723 0.000000
0.284305 0.596415 0.000000
0.365810 0.593107 0.000000
0.447314 0.589799 0.000000
0.528819 0.586492 0.000000
0.610324 0.583184 0.000000
0.691829 0.579876 0.000000
0.773334 0.576569 0.000000
0.854839 0.573261 0.000000
0.936343 0.569953 0.000000
1.000000 0.566646 0.000000
1.000000 0.563338 0.000000
1.000000 0.560030 0.000000
0.000000 0.691272 0.000000
0.000000 0.687964 0.000000
0.033297 0.684657 0.000000
0.114802 0.681349 0.000000
0.196306 0.678041 0.000000
0.277811 0.674734 0.000000
0.359316 0.671426 0.000000
0.440821 0.668118 0.000000
0.522326 0.664811 0.000000
0.603830 0.661503 0.000000
0.685335 0.658195 0.000000
0.766840 0.654888 0.000000
0.848345 0.651580 0.000000
0.929850 0.648272 0.000000
1.000000 0.644964 0.000000
1.000000 0.641657 0.000000
1.000000 0.638349 0.000000
0.000000 0.769591 0.000000
0.000000 0.766283 0.000000
0.026803 0.762976 0.000000
0.108308 0.759668 0.000000
0.189813 0.756360 0.000000
0.271317 0.753052 0.000000
0.352822 0.749745 0.000000
0.434327 0.746437 0.000000
0.515832 0.743129 0.000000
0.597337 0.739822 0.000000
0.678842 0.736514 0.000000
0.760346 0.733206 0.000000
0.841851 0.729899 0.000000
0.923356 0.726591 0.000000
1.000000 0.723283 0.000000
1.000000 0.719976 0.000000
1.000000 0.717799 0.000000
0.000000 0.847910 0.000000
0.000000 0.844602 0.000000
0.020309 0.841294 0.000000
0.101814 0.837987 0.000000
0.183319 0.834679 0.000000
0.264824 0.831371 0.000000
0.346329 0.828064 0.000000
0.427833 0.824756 0.000000
0.509338 0.821448 0.000000
0.590843 0.818141 0.000000
0.672348 0.814833 0.000000
0.753853 0.811525 0.000000
0.835357 0.808217 0.000000
0.916862 0.804910 0.000000
1.000000 0.802653 0.000000
1.000000 0.801527 0.000000
1.000000 0.800401 0.000000
0.000000 0.926229 0.000000
0.000000 0.922921 0.000000
0.013816 0.919613 0.000000
0.095320 0.916305 0.000000
0.176825 0.912998 0.000000
0.258330 0.909690 0.000000
0.339835 0.906382 0.000000
0.421340 0.903075 0.000000
0.502845 0.899767 0.000000
0.584349 0.896459 0.000000
0.665854 0.893152 0.000000
0.747359 0.889844 0.000000
0.830962 0.887507 0.000000
0.917185 0.886381 0.000000
1.000000 0.885255 0.000000
1.000000 0.884129 0.000000
1.000000 0.883003 0.000000
0.000000 1.000000 0.000000
0.000000 1.000000 0.000000
0.007322 0.997932 0.000000
0.088827 0.994624 0.000000
0.170332 0.991317 0.000000
0.251836 0.988009 0.000000
0.333341 0.984701 0.000000
0.414846 0.981394 0.000000
0.496351 0.978086 0.000000
0.577856 0.974778 0.000000
0.661285 0.972361 0.000000
0.747508 0.971235 0.000000
0.833730 0.970109 0.000000
0.919952 0.968983 0.000000
1.000000 0.967856 0.000000
1.000000 0.966730 0.000000
1.000000 0.965604 0.000000
0.000000 1.000000 0.000000
0.000000 1.000000 0.000000
0.000828 1.000000 0.000000
0.082333 1.000000 0.000000
0.163838 1.000000 0.000000
0.245343 1.000000 0.000000
0.326848 1.000000 0.000000
0.408352 1.000000 0.000000
0.491608 1.000000 0.000000
0.577831 1.000000 0.000000
0.664053 1.000000 0.000000
0.750276 1.000000 0.000000
0.836498 1.000000 0.000000
0.922720 1.000000 0.000000
1.000000 1.000000 0.000000
1.000000 1.000000 0.000000
1.000000 1.000000 0.000000
0.000000 1.000000 0.000000
0.000000 1.000000 0.000000
0.000000 1.000000 0.000000
0.075839 1.000000 0.000000
0.157344 1.000000 0.000000
0.238849 1.000000 0.000000
0.321932 1.000000 0.000000
0.408154 1.000000 0.000000
0.494376 1.000000 0.000000
0.580599 1.000000 0.000000
0.666821 1.000000 0.000000
0.753043 1.000000 0.000000
0.839266 1.000000 0.000000
0.925488 1.000000 0.000000
1.000000 1.000000 0.000000
1.000000 1.000000 0.000000
1.000000 1.000000 0.000000
0.000000 0.000000 0.143948
0.000000 0.000000 0.134451
0.021947 0.000000 0.124954
0.109096 0.000000 0.115457
0.196246 0.000000 0.105960
0.283396 0.000000 0.096463
0.370545 0.000000 0.086966
0.457695 0.000000 0.077469
0.544845 0.000000 0.067972
0.631995 0.000000 0.058475
0.719144 0.000000 0.048978
0.806294 0.000000 0.039481
0.893444 0.000000 0.029984
0.980593 0.000000 0.020487
1.000000 0.000000 0.010990
1.000000 0.000000 0.001493
1.000000 0.000000 0.000000
0.000000 0.000000 0.125304
0.000000 0.000000 0.115807
0.026535 0.000000 0.106310
0.113685 0.000000 0.096813
0.200834 0.000000 0.087316
0.287984 0.000000 0.077819
0.375134 0.000000 0.068322
0.462284 0.000000 0.058825
0.549433 0.000000 0.049328
0.636583 0.000000 0.039831
0.723733 0.000000 0.030334
0.810882 0.000000 0.020837
0.898032 0.000000 0.011340
0.985182 0.000000 0.001843
1.000000 0.000000 0.000000
1.000000 0.000000 0.000000
1.000000 0.000000 0.000000
0.000000 0.047341 0.106659
0.000000 0.045452 0.097162
0.031124 0.043563 0.087665
0.118273 0.041673 0.078168
0.205423 0.039784 0.068671
0.292573 0.037895 0.059174
0.379722 0.036005 0.049677
0.466872 0.034116 0.040180
0.554022 0.032227 0.030683
0.641171 0.030337 0.021186
0.728321 0.028448 0.011689
0.815471 0.026559 0.002192
0.899033 0.023768 0.000000
0.980538 0.020461 0.000000
1.000000 0.017153 0.000000
1.000000 0.013845 0.000000
1.000000 0.010537 0.000000
0.000000 0.128445 0.088015
0.000000 0.126555 0.078518
0.035712 0.124666 0.069021
0.122862 0.122777 0.059524
0.210011 0.120887 0.050027
0.297161 0.118998 0.040530
0.384311 0.117109 0.031033
0.471460 0.115219 0.021536
0.558610 0.113330 0.012039
0.645760 0.111441 0.002542
0.729530 0.108702 0.000000
0.811035 0.105395 0.000000
0.892540 0.102087 0.000000
0.974044 0.098779 0.000000
1.000000 0.095472 0.000000
1.000000 0.092164 0.000000
1.000000 0.088856 0.000000
0.000000 0.209548 0.069370
0.000000 0.207659 0.059873
0.040300 0.205769 0.050376
0.127450 0.203880 0.040879
0.214600 0.201991 0.031382
0.301749 0.200101 0.021885
0.388899 0.198212 0.012388
0.476049 0.196323 0.002891
0.560027 0.193637 0.000000
0.641531 0.190329 0.000000
0.723036 0.187021 0.000000
0.804541 0.183714 0.000000
0.886046 0.180406 0.000000
0.967551 0.177098 0.000000
1.000000 0.173790 0.000000
1.000000 0.170483 0.000000
1.000000 0.167175 0.000000
0.000000 0.290651 0.050725
0.000000 0.288762 0.041228
0.044889 0.286873 0.031731
0.132038 0.284983 0.022234
0.219188 0.283094 0.012737
0.306338 0.281205 0.003240
0.390523 0.278571 0.000000
0.472028 0.275263 0.000000
0.553533 0.271955 0.000000
0.635038 0.268648 0.000000
0.716543 0.265340 0.000000
0.798047 0.262032 0.000000
0.879552 0.258725 0.000000
0.961057 0.255417 0.000000
1.000000 0.252109 0.000000
1.000000 0.248802 0.000000
1.000000 0.245494 0.000000
0.000000 0.371755 0.032081
0.000000 0.369866 0.022584
0.049477 0.367976 0.013087
0.136627 0.366087 0.003590
0.221020 0.363505 0.000000
0.302525 0.360197 0.000000
0.384030 0.356890 0.000000
0.465534 0.353582 0.000000
0.547039 0.350274 0.000000
0.628544 0.346967 0.000000
0.710049 0.343659 0.000000
0.791554 0.340351 0.000000
0.873058 0.337043 0.000000
0.954563 0.333736 0.000000
1.000000 0.330428 0.000000
1.000000 0.327120 0.000000
1.000000 0.323813 0.000000
0.000000 0.452858 0.013436
0.000000 0.450969 0.003939
0.051517 0.448439 0.000000
0.133021 0.445131 0.000000
0.214526 0.441824 0.000000
0.296031 0.438516 0.000000
0.377536 0.435208 0.000000
0.459041 0.431901 0.000000
0.540546 0.428593 0.000000
0.622050 0.425285 0.000000
0.703555 0.421978 0.000000
0.785060 0.418670 0.000000
0.866565 0.415362 0.000000
0.948070 0.412055 0.000000
1.000000 0.408747 0.000000
1.000000 0.405439 0.000000
1.000000 0.402132 0.000000
0.000000 0.533373 0.000000
0.000000 0.530066 0.000000
0.045023 0.526758 0.000000
0.126528 0.523450 0.000000
0.208033 0.520143 0.000000
0.289537 0.516835 0.000000
0.371042 0.513527 0.000000
0.452547 0.510220 0.000000
0.534052 0.506912 0.000000
0.615557 0.503604 0.000000
0.697061 0.500296 0.000000
0.778566 0.496989 0.000000
0.860071 0.493681 0.000000
0.941576 0.490373 0.000000
1.000000 0.487066 0.000000
1.000000 0.483758 0.000000
1.000000 0.480450 0.000000
0.000000 0.611692 0.000000
0.000000 0.608384 0.000000
0.038529 0.605077 0.000000
0.120034 0.601769 0.000000
0.201539 0.598461 0.000000
0.283044 0.595154 0.000000
0.364549 0.591846 0.000000
0.446053 0.588538 0.000000
0.527558 0.585231 0.000000
0.609063 0.581923 0.000000
0.690568 0.578615 0.000000
0.772073 0.575308 0.000000
0.853577 0.572000 0.000000
0.935082 0.568692 0.000000
1.000000 0.565385 0.000000
1.000000 0.562077 0.000000
1.000000 0.558769 0.000000
0.000000 0.690011 0.000000
0.000000 0.686703 0.000000
0.032036 0.683396 0.000000
0.113540 0.680088 0.000000
0.195045 0.676780 0.000000
0.276550 0.673473 0.000000
0.358055 0.670165 0.000000
0.439560 0.666857 0.000000
0.521064 0.663549 0.000000
0.602569 0.660242 0.000000
0.684074 0.656934 0.000000
0.765579 0.653626 0.000000
0.847084 0.650319 0.000000
0.928589 0.647011 0.000000
1.000000 0.643703 0.000000
1.000000 0.640396 0.000000
1.000000 0.637088 0.000000
0.000000 0.768330 0.000000
0.000000 0.765022 0.000000
0.025542 0.761714 0.000000
0.107047 0.758407 0.000000
0.188552 0.755099 0.000000
0.270056 0.751791 0.000000
0.351561 0.748484 0.000000
0.433066 0.745176 0.000000
0.514571 0.741868 0.000000
0.596076 0.738561 0.000000
0.677580 0.735253 0.000000
0.759085 0.731945 0.000000
0.840590 0.728638 0.000000
0.922095 0.725330 0.000000
1.000000 0.722022 0.000000
1.000000 0.718714 0.000000
1.000000 0.717370 0.000000
0.000000 0.846649 0.000000
0.000000 0.843341 0.000000
0.019048 0.840033 0.000000
0.100553 0.836726 0.000000
0.182058 0.833418 0.000000
0.263563 0.830110 0.000000
0.345067 0.826802 0.000000
0.426572 0.823495 0.000000
0.508077 0.820187 0.000000
0.589582 0.816879 0.000000
0.671087 0.813572 0.000000
0.752592 0.810264 0.000000
0.834096 0.806956 0.000000
0.915601 0.803649 0.000000
1.000000 0.802223 0.000000
1.000000 0.801097 0.000000
1.000000 0.799971 0.000000
0.000000 0.924967 0.000000
0.000000 0.921660 0.000000
0.012555 0.918352 0.000000
0.094059 0.915044 0.000000
0.175564 0.911737 0.000000
0.257069 0.908429 0.000000
0.338574 0.905121 0.000000
0.420079 0.901814 0.000000
0.501583 0.898506 0.000000
0.583088 0.895198 0.000000
0.664593 0.891891 0.000000
0.746098 0.888583 0.000000
0.831500 0.887077 0.000000
0.917722 0.885951 0.000000
1.000000 0.884825 0.000000
1.000000 0.883699 0.000000
1.000000 0.882573 0.000000
0.000000 1.000000 0.000000
0.000000 0.999979 0.000000
0.006061 0.996671 0.000000
0.087566 0.993363 0.000000
0.169070 0.990055 0.000000
0.250575 0.986748 0.000000
0.332080 0.983440 0.000000
0.413585 0.980132 0.000000
0.495090 0.976825 0.000000
0.576595 0.973517 0.000000
0.661823 0.971931 0.000000
0.748045 0.970805 0.000000
0.834268 0.969679 0.000000
0.920490 0.968553 0.000000
1.000000 0.967427 0.000000
1.000000 0.966301 0.000000
1.000000 0.965175 0.000000
0.000000 1.000000 0.000000
0.000000 1.000000 0.000000
0.000000 1.000000 0.000000
0.081072 1.000000 0.000000
0.162577 1.000000 0.000000
0.244082 1.000000 0.000000
0.325586 1.000000 0.000000
0.407091 1.000000 0.000000
0.492146 1.000000 0.000000
0.578368 1.000000 0.000000
0.664591 1.000000 0.000000
0.750813 1.000000 0.000000
0.837035 1.000000 0.000000
0.923258 1.000000 0.000000
1.000000 1.000000 0.000000
1.000000 1.000000 0.000000
1.000000 1.000000 0.000000
0.000000 1.000000 0.000000
0.000000 1.000000 0.000000
0.000000 1.000000 0.000000
0.074578 1.000000 0.000000
0.156083 1.000000 0.000000
0.237588 1.000000 0.000000
0.322469 1.000000 0.000000
0.408692 1.000000 0.000000
0.494914 1.000000 0.000000
0.581136 1.000000 0.000000
0.667359 1.000000 0.000000
0.753581 1.000000 0.000000
0.839803 1.000000 0.000000
0.926026 1.000000 0.000000
1.000000 1.000000 0.000000
1.000000 1.000000 0.000000
1.000000 1.000000 0.000000
0.000000 0.000000 0.225140
0.000000 0.000000 0.215643
0.022838 0.000000 0.206146
0.109988 0.000000 0.196649
0.197137 0.000000 0.187152
0.284287 0.000000 0.177655
0.371437 0.000000 0.168158
0.458586 0.000000 0.158661
0.545736 0.000000 0.149164
0.632886 0.000000 0.139667
0.720035 0.000000 0.130170
0.807185 0.000000 0.120673
0.894335 0.000000 0.111176
0.981484 0.000000 0.101679
1.000000 0.000000 0.092182
1.000000 0.000000 0.083244
1.000000 0.000000 0.079936
0.000000 0.000000 0.206495
0.000000 0.000000 0.196998
0.027426 0.000000 0.187501
