assets/luts/action-punchy.cube
TITLE "action-punchy"
LUT_3D_SIZE 9
0.000000 0.000000 0.000000
0.020165 0.000000 0.000000
0.194464 0.000000 0.000000
0.368763 0.000000 0.000000
0.543063 0.000000 0.000000
0.717362 0.000000 0.000000
0.891661 0.000000 0.000000
1.000000 0.000000 0.000000
1.000000 0.000000 0.000000
0.000000 0.048782 0.000000
0.029341 0.045003 0.000000
0.203641 0.041225 0.000000
0.377940 0.037446 0.000000
0.552239 0.033667 0.000000
0.726539 0.029889 0.000000
0.900838 0.026110 0.000000
1.000000 0.019675 0.000000
1.000000 0.013060 0.000000
0.000000 0.210989 0.000000
0.038518 0.207210 0.000000
0.212817 0.203431 0.000000
0.387117 0.199653 0.000000
0.561416 0.195874 0.000000
0.725558 0.189543 0.000000
0.888568 0.182928 0.000000
1.000000 0.176313 0.000000
1.000000 0.169697 0.000000
0.000000 0.373195 0.000000
0.047695 0.369417 0.000000
0.221994 0.365638 0.000000
0.386552 0.359412 0.000000
0.549561 0.352796 0.000000
0.712571 0.346181 0.000000
0.875581 0.339566 0.000000
1.000000 0.332950 0.000000
1.000000 0.326335 0.000000
0.000000 0.535402 0.000000
0.047545 0.529280 0.000000
0.210555 0.522665 0.000000
0.373564 0.516049 0.000000
0.536574 0.509434 0.000000
0.699584 0.502819 0.000000
0.862593 0.496203 0.000000
1.000000 0.489588 0.000000
1.000000 0.482973 0.000000
0.000000 0.692533 0.000000
0.034558 0.685918 0.000000
0.197567 0.679302 0.000000
0.360577 0.672687 0.000000
0.523587 0.666072 0.000000
0.686596 0.659456 0.000000
0.849606 0.652841 0.000000
1.000000 0.646226 0.000000
1.000000 0.639610 0.000000
0.000000 0.849171 0.000000
0.021570 0.842555 0.000000
0.184580 0.835940 0.000000
0.347590 0.829325 0.000000
0.510599 0.822709 0.000000
0.673609 0.816094 0.000000
0.836619 0.809479 0.000000
1.000000 0.803082 0.000000
1.000000 0.800830 0.000000
0.000000 1.000000 0.000000
0.008583 0.999193 0.000000
0.171593 0.992578 0.000000
0.334602 0.985962 0.000000
0.497612 0.979347 0.000000
0.660748 0.972790 0.000000
0.833193 0.970538 0.000000
1.000000 0.968286 0.000000
1.000000 0.966034 0.000000
0.000000 1.000000 0.000000
0.000000 1.000000 0.000000
0.158605 1.000000 0.000000
0.321615 1.000000 0.000000
0.493839 1.000000 0.000000
0.666283 1.000000 0.000000
0.838728 1.000000 0.000000
1.000000 1.000000 0.000000
1.000000 1.000000 0.000000
0.000000 0.000000 0.143948
0.021947 0.000000 0.124954
0.196246 0.000000 0.105960
0.370545 0.000000 0.086966
0.544845 0.000000 0.067972
0.719144 0.000000 0.048978
0.893444 0.000000 0.029984
1.000000 0.000000 0.010990
1.000000 0.000000 0.000000
0.000000 0.047341 0.106659
0.031124 0.043563 0.087665
0.205423 0.039784 0.068671
0.379722 0.036005 0.049677
0.554022 0.032227 0.030683
0.728321 0.028448 0.011689
0.899033 0.023768 0.000000
1.000000 0.017153 0.000000
1.000000 0.010537 0.000000
0.000000 0.209548 0.069370
0.040300 0.205769 0.050376
0.214600 0.201991 0.031382
0.388899 0.198212 0.012388
0.560027 0.193637 0.000000
0.723036 0.187021 0.000000
0.886046 0.180406 0.000000
1.000000 0.173790 0.000000
1.000000 0.167175 0.000000
0.000000 0.371755 0.032081
0.049477 0.367976 0.013087
0.221020 0.363505 0.000000
0.384030 0.356890 0.000000
0.547039 0.350274 0.000000
0.710049 0.343659 0.000000
0.873058 0.337043 0.000000
1.000000 0.330428 0.000000
1.000000 0.323813 0.000000
0.000000 0.533373 0.000000
0.045023 0.526758 0.000000
0.208033 0.520143 0.000000
0.371042 0.513527 0.000000
0.534052 0.506912 0.000000
0.697061 0.500296 0.000000
0.860071 0.493681 0.000000
1.000000 0.487066 0.000000
1.000000 0.480450 0.000000
0.000000 0.690011 0.000000
0.032036 0.683396 0.000000
0.195045 0.676780 0.000000
0.358055 0.670165 0.000000
0.521064 0.663549 0.000000
0.684074 0.656934 0.000000
0.847084 0.650319 0.000000
1.000000 0.643703 0.000000
1.000000 0.637088 0.000000
0.000000 0.846649 0.000000
0.019048 0.840033 0.000000
0.182058 0.833418 0.000000
0.345067 0.826802 0.000000
0.508077 0.820187 0.000000
0.671087 0.813572 0.000000
0.834096 0.806956 0.000000
1.000000 0.802223 0.000000
1.000000 0.799971 0.000000
0.000000 1.000000 0.000000
0.006061 0.996671 0.000000
0.169070 0.990055 0.000000
0.332080 0.983440 0.000000
0.495090 0.976825 0.000000
0.661823 0.971931 0.000000
0.834268 0.969679 0.000000
1.000000 0.967427 0.000000
1.000000 0.965175 0.000000
0.000000 1.000000 0.000000
0.000000 1.000000 0.000000
0.156083 1.000000 0.000000
0.322469 1.000000 0.000000
0.494914 1.000000 0.000000
0.667359 1.000000 0.000000
0.839803 1.000000 0.000000
1.000000 1.000000 0.000000
1.000000 1.000000 0.000000
0.000000 0.000000 0.306332
0.023729 0.000000 0.287338
0.198028 0.000000 0.268344
0.372328 0.000000 0.249350
0.546627 0.000000 0.230356
0.720926 0.000000 0.211362
0.895226 0.000000 0.192368
1.000000 0.000000 0.173374
1.000000 0.000000 0.163488
0.000000 0.045901 0.269042
0.032906 0.042122 0.250048
0.207205 0.038343 0.231054
0.381504 0.034565 0.212060
0.555804 0.030786 0.193066
0.730103 0.027007 0.174072
0.896511 0.021246 0.163731
1.000000 0.014631 0.157116
1.000000 0.008015 0.150500
0.000000 0.208107 0.231753
0.042082 0.204329 0.212759
0.216382 0.200550 0.193765
0.390681 0.196771 0.174771
0.557504 0.191114 0.163974
0.720514 0.184499 0.157359
0.883524 0.177884 0.150744
1.000000 0.171268 0.144128
1.000000 0.164653 0.137513
0.000000 0.370314 0.194464
0.051259 0.366536 0.175470
0.218498 0.360983 0.164218
0.381507 0.354367 0.157602
0.544517 0.347752 0.150987
0.707527 0.341137 0.144372
0.870536 0.334521 0.137756
1.000000 0.327906 0.131141
1.000000 0.321290 0.124525
0.000000 0.530851 0.164461
0.042501 0.524236 0.157846
0.205510 0.517620 0.151230
0.368520 0.511005 0.144615
0.531530 0.504390 0.138000
0.694539 0.497774 0.131384
0.857549 0.491159 0.124769
1.000000 0.484543 0.118153
1.000000 0.477928 0.111538
0.000000 0.687489 0.151474
0.029513 0.680873 0.144858
0.192523 0.674258 0.138243
0.355533 0.667643 0.131628
0.518542 0.661027 0.125012
0.681552 0.654412 0.118397
0.844561 0.647796 0.111781
1.000000 0.641181 0.105166
1.000000 0.634566 0.098551
0.000000 0.844126 0.138486
0.016526 0.837511 0.131871
0.179536 0.830896 0.125256
0.342545 0.824280 0.118640
0.505555 0.817665 0.112025
0.668564 0.811049 0.105409
0.831574 0.804434 0.098794
1.000000 0.801365 0.087481
1.000000 0.799113 0.075085
0.000000 1.000000 0.125499
0.003539 0.994149 0.118884
0.166548 0.987533 0.112268
0.329558 0.980918 0.105653
0.492567 0.974302 0.099037
0.662898 0.971073 0.087937
0.835343 0.968821 0.075541
1.000000 0.966568 0.063146
1.000000 0.964316 0.050750
0.000000 1.000000 0.112512
0.000000 1.000000 0.105896
0.153561 1.000000 0.099281
0.323544 1.000000 0.088393
0.495989 1.000000 0.075997
0.668434 1.000000 0.063602
0.840878 1.000000 0.051206
1.000000 1.000000 0.038810
1.000000 1.000000 0.026415
0.000000 0.000000 0.468715
0.025511 0.000000 0.449721
0.199811 0.000000 0.430727
0.374110 0.000000 0.411733
0.548409 0.000000 0.392739
0.722709 0.000000 0.373745
0.897008 0.000000 0.354751
1.000000 0.000000 0.337206
1.000000 0.000000 0.330590
0.000000 0.044460 0.431425
0.034688 0.040681 0.412431
0.208987 0.036903 0.393437
0.383287 0.033124 0.374443
0.557586 0.029345 0.355449
0.730979 0.025339 0.337449
0.893989 0.018724 0.330834
1.000000 0.012108 0.324218
1.000000 0.005493 0.317603
0.000000 0.206667 0.394136
0.043865 0.202888 0.375142
0.218164 0.199109 0.356148
0.391972 0.195207 0.337692
0.554982 0.188592 0.331077
0.717992 0.181977 0.324462
0.881001 0.175361 0.317846
1.000000 0.168746 0.311231
1.000000 0.162131 0.304616
0.000000 0.368873 0.356847
0.052966 0.365076 0.337936
0.215975 0.358460 0.331320
0.378985 0.351845 0.324705
0.541995 0.345230 0.318090
0.705004 0.338614 0.311474
0.868014 0.331999 0.304859
1.000000 0.325384 0.298244
1.000000 0.318768 0.291628
0.000000 0.528329 0.331564
0.039978 0.521713 0.324948
0.202988 0.515098 0.318333
0.365998 0.508483 0.311718
0.529007 0.501867 0.305102
0.692017 0.495252 0.298487
0.855027 0.488637 0.291872
1.000000 0.482021 0.285256
1.000000 0.475406 0.278641
0.000000 0.684966 0.318576
0.026991 0.678351 0.311961
0.190001 0.671736 0.305346
0.353010 0.665120 0.298730
0.516020 0.658505 0.292115
0.679030 0.651890 0.285500
0.842039 0.645274 0.278884
1.000000 0.638659 0.272269
1.000000 0.633050 0.264320
0.000000 0.841604 0.305589
0.014004 0.834989 0.298974
0.177013 0.828373 0.292358
0.340023 0.821758 0.285743
0.503033 0.815143 0.279128
0.666042 0.808527 0.272512
0.830882 0.802758 0.264776
1.000000 0.800506 0.252380
1.000000 0.798254 0.239984
0.000000 0.998242 0.292602
0.001016 0.991626 0.285986
0.164026 0.985011 0.279371
0.327036 0.978396 0.272756
0.491528 0.972466 0.265232
0.663973 0.970214 0.252836
0.836418 0.967962 0.240440
1.000000 0.965710 0.228045
1.000000 0.963458 0.215649
0.000000 1.000000 0.279614
0.000000 1.000000 0.272999
0.152175 1.000000 0.265688
0.324619 1.000000 0.253292
0.497064 1.000000 0.240896
0.669509 1.000000 0.228501
0.841953 1.000000 0.216105
1.000000 1.000000 0.203709
1.000000 1.000000 0.191314
0.000000 0.000000 0.631098
0.027293 0.000000 0.612104
0.201593 0.000000 0.593110
0.375892 0.000000 0.574116
0.550191 0.000000 0.555122
0.724491 0.000000 0.536128
0.898790 0.000000 0.517134
1.000000 0.000000 0.504308
1.000000 0.000000 0.497693
0.000000 0.043019 0.593809
0.036470 0.039241 0.574815
0.210769 0.035462 0.555821
0.385069 0.031683 0.536827
0.559368 0.027905 0.517833
0.728457 0.022817 0.504552
0.891466 0.016201 0.497936
1.000000 0.009586 0.491321
1.000000 0.002971 0.484706
0.000000 0.205226 0.556519
0.045647 0.201447 0.537525
0.219946 0.197669 0.518531
0.389450 0.192685 0.504795
0.552460 0.186070 0.498180
0.715469 0.179454 0.491564
0.878479 0.172839 0.484949
1.000000 0.166224 0.478334
1.000000 0.159608 0.471718
0.000000 0.367433 0.519230
0.050444 0.362554 0.505039
0.213453 0.355938 0.498423
0.376463 0.349323 0.491808
0.539472 0.342707 0.485192
0.702482 0.336092 0.478577
0.865492 0.329477 0.471962
1.000000 0.322861 0.465346
1.000000 0.316246 0.458731
0.000000 0.525807 0.498667
0.037456 0.519191 0.492051
0.200466 0.512576 0.485436
0.363475 0.505960 0.478820
0.526485 0.499345 0.472205
0.689495 0.492730 0.465590
0.852504 0.486114 0.458974
1.000000 0.479499 0.452359
1.000000 0.472884 0.445744
0.000000 0.682444 0.485679
0.024469 0.675829 0.479064
0.187478 0.669213 0.472448
0.350488 0.662598 0.465833
0.513498 0.655983 0.459218
0.676507 0.649367 0.452602
0.839517 0.642752 0.445987
1.000000 0.636137 0.439372
1.000000 0.632192 0.429218
0.000000 0.839082 0.472692
0.011481 0.832466 0.466076
0.174491 0.825851 0.459461
0.337501 0.819236 0.452846
0.500510 0.812620 0.446230
0.663520 0.806005 0.439615
0.831957 0.801900 0.429674
1.000000 0.799647 0.417279
1.000000 0.797395 0.404883
0.000000 0.995719 0.459704
0.000000 0.989104 0.453089
0.161504 0.982489 0.446474
0.324513 0.975873 0.439858
0.492603 0.971607 0.430131
0.665048 0.969355 0.417735
0.837493 0.967103 0.405339
1.000000 0.964851 0.392944
1.000000 0.962599 0.380548
0.000000 1.000000 0.446717
0.000000 1.000000 0.440102
0.153250 1.000000 0.430587
0.325694 1.000000 0.418191
0.498139 1.000000 0.405795
0.670584 1.000000 0.393400
0.843028 1.000000 0.381004
1.000000 1.000000 0.368608
1.000000 1.000000 0.356213
0.000000 0.000000 0.793481
0.029076 0.000000 0.774487
0.203375 0.000000 0.755493
0.377674 0.000000 0.736499
0.551974 0.000000 0.717505
0.726273 0.000000 0.698511
0.900572 0.000000 0.679517
1.000000 0.000000 0.671411
1.000000 0.000000 0.664796
0.000000 0.041579 0.756192
0.038252 0.037800 0.737198
0.212552 0.034021 0.718204
0.386851 0.030243 0.699210
0.561150 0.026464 0.680216
0.725935 0.020295 0.671655
0.888944 0.013679 0.665039
1.000000 0.007064 0.658424
1.000000 0.000448 0.651808
0.000000 0.203785 0.718903
0.047429 0.200007 0.699909
0.221728 0.196228 0.680915
0.386928 0.190163 0.671898
0.549938 0.183548 0.665283
0.712947 0.176932 0.658667
0.875957 0.170317 0.652052
1.000000 0.163701 0.645436
1.000000 0.157086 0.638821
0.000000 0.365992 0.681613
0.047921 0.360031 0.672141
0.210931 0.353416 0.665526
0.373941 0.346801 0.658911
0.536950 0.340185 0.652295
0.699960 0.333570 0.645680
0.862969 0.326954 0.639064
1.000000 0.320339 0.632449
1.000000 0.313724 0.625834
0.000000 0.523284 0.665769
0.034934 0.516669 0.659154
0.197944 0.510054 0.652539
0.360953 0.503438 0.645923
0.523963 0.496823 0.639308
0.686972 0.490207 0.632692
0.849982 0.483592 0.626077
1.000000 0.476977 0.619462
1.000000 0.470361 0.612846
0.000000 0.679922 0.652782
0.021947 0.673307 0.646167
0.184956 0.666691 0.639551
0.347966 0.660076 0.632936
0.510975 0.653460 0.626320
0.673985 0.646845 0.619705
0.836995 0.640230 0.613090
1.000000 0.633614 0.606474
1.000000 0.631333 0.594117
0.000000 0.836560 0.639795
0.008959 0.829944 0.633179
0.171969 0.823329 0.626564
0.334978 0.816713 0.619948
0.497988 0.810098 0.613333
0.660998 0.803483 0.606718
0.833032 0.801041 0.594573
1.000000 0.798789 0.582178
1.000000 0.796537 0.569782
0.000000 0.993197 0.626807
0.000000 0.986582 0.620192
0.158981 0.979966 0.613576
0.321991 0.973351 0.606961
0.493678 0.970749 0.595029
0.666123 0.968497 0.582634
0.838568 0.966245 0.570238
1.000000 0.963992 0.557842
1.000000 0.961740 0.545447
0.000000 1.000000 0.613820
0.000000 1.000000 0.607204
0.154325 1.000000 0.595485
0.326769 1.000000 0.583090
0.499214 1.000000 0.570694
0.671659 1.000000 0.558298
0.844104 1.000000 0.545903
1.000000 1.000000 0.533507
1.000000 1.000000 0.521111
0.000000 0.000000 0.955864
0.030858 0.000000 0.936870
0.205157 0.000000 0.917876
0.379456 0.000000 0.898882
0.553756 0.000000 0.879888
0.728055 0.000000 0.860894
0.899409 0.000000 0.845129
1.000000 0.000000 0.838514
1.000000 0.000000 0.831899
0.000000 0.040138 0.918575
0.040034 0.036359 0.899581
0.214334 0.032581 0.880587
0.388633 0.028802 0.861593
0.560403 0.024388 0.845373
0.723412 0.017772 0.838757
0.886422 0.011157 0.832142
1.000000 0.004542 0.825527
1.000000 0.000000 0.818911
0.000000 0.202345 0.881286
0.049211 0.198566 0.862292
0.221396 0.194256 0.845616
0.384406 0.187641 0.839001
0.547415 0.181025 0.832385
0.710425 0.174410 0.825770
0.873435 0.167795 0.819155
1.000000 0.161179 0.812539
1.000000 0.154564 0.805924
0.000000 0.364124 0.845859
0.045399 0.357509 0.839244
0.208409 0.350894 0.832629
0.371418 0.344278 0.826013
0.534428 0.337663 0.819398
0.697438 0.331048 0.812783
0.860447 0.324432 0.806167
1.000000 0.317817 0.799552
1.000000 0.311201 0.792936
0.000000 0.520762 0.832872
0.032412 0.514147 0.826257
0.195421 0.507531 0.819641
0.358431 0.500916 0.813026
0.521441 0.494301 0.806411
0.684450 0.487685 0.799795
0.847460 0.481070 0.793180
1.000000 0.474454 0.786564
1.000000 0.467839 0.779949
0.000000 0.677400 0.819885
0.019424 0.670784 0.813269
0.182434 0.664169 0.806654
0.345444 0.657554 0.800039
0.508453 0.650938 0.793423
0.671463 0.644323 0.786808
0.834472 0.637707 0.780192
1.000000 0.632727 0.771412
1.000000 0.630474 0.759016
0.000000 0.834037 0.806897
0.006437 0.827422 0.800282
0.169447 0.820807 0.793667
0.332456 0.814191 0.787051
0.495466 0.807576 0.780436
0.661663 0.802434 0.771868
0.834107 0.800182 0.759472
1.000000 0.797930 0.747077
1.000000 0.795678 0.734681
0.000000 0.990675 0.793910
0.000000 0.984060 0.787295
0.156459 0.977444 0.780679
0.322309 0.972142 0.772324
0.494754 0.969890 0.759928
0.667198 0.967638 0.747533
0.839643 0.965386 0.735137
1.000000 0.963134 0.722741
1.000000 0.960882 0.710346
0.000000 1.000000 0.780923
0.000000 1.000000 0.772780
0.155400 1.000000 0.760384
0.327844 1.000000 0.747989
0.500289 1.000000 0.735593
0.672734 1.000000 0.723197
0.845179 1.000000 0.710802
1.000000 1.000000 0.698406
1.000000 1.000000 0.686010
0.000000 0.000000 1.000000
0.032640 0.000000 1.000000
0.206939 0.000000 1.000000
0.381239 0.000000 1.000000
0.555538 0.000000 1.000000
0.729837 0.000000 1.000000
0.896887 0.000000 1.000000
1.000000 0.000000 1.000000
1.000000 0.000000 0.999001
0.000000 0.038697 1.000000
0.041817 0.034919 1.000000
0.216116 0.031140 1.000000
0.390415 0.027361 1.000000
0.557880 0.021865 1.000000
0.720890 0.015250 1.000000
0.883900 0.008635 0.999245
1.000000 0.002019 0.992629
1.000000 0.000000 0.986014
0.000000 0.200904 1.000000
0.050993 0.197125 1.000000
0.218874 0.191734 1.000000
0.381883 0.185118 1.000000
0.544893 0.178503 0.999488
0.707903 0.171888 0.992873
0.870912 0.165272 0.986257
1.000000 0.158657 0.979642
1.000000 0.152042 0.973027
0.000000 0.361602 1.000000
0.042877 0.354987 1.000000
0.205886 0.348371 0.999731
0.368896 0.341756 0.993116
0.531906 0.335141 0.986501
0.694915 0.328525 0.979885
0.857925 0.321910 0.973270
1.000000 0.315295 0.966655
1.000000 0.308679 0.960039
0.000000 0.518240 0.999975
0.029889 0.511624 0.993359
0.192899 0.505009 0.986744
0.355909 0.498394 0.980129
0.518918 0.491778 0.973513
0.681928 0.485163 0.966898
0.844938 0.478548 0.960283
1.000000 0.471932 0.953667
1.000000 0.465317 0.947052
0.000000 0.674877 0.986987
0.016902 0.668262 0.980372
0.179912 0.661647 0.973757
0.342921 0.655031 0.967141
0.505931 0.648416 0.960526
0.668941 0.641801 0.953911
0.831950 0.635185 0.947295
1.000000 0.631868 0.936311
1.000000 0.629616 0.923915
0.000000 0.831515 0.974000
0.003915 0.824900 0.967385
0.166924 0.818284 0.960769
0.329934 0.811669 0.954154
0.492944 0.805054 0.947539
0.662738 0.801576 0.936767
0.835182 0.799324 0.924371
1.000000 0.797072 0.911975
1.000000 0.794819 0.899580
0.000000 0.988153 0.961013
0.000000 0.981537 0.954397
0.153937 0.974922 0.947782
0.323384 0.971284 0.937223
0.495829 0.969031 0.924827
0.668273 0.966779 0.912432
0.840718 0.964527 0.900036
1.000000 0.962275 0.887640
1.000000 0.960023 0.875245
0.000000 1.000000 0.948025
0.000000 1.000000 0.937679
0.156475 1.000000 0.925283
0.328920 1.000000 0.912888
0.501364 1.000000 0.900492
0.673809 1.000000 0.888096
0.846254 1.000000 0.875701
1.000000 1.000000 0.863305
1.000000 1.000000 0.850909
0.000000 0.000000 1.000000
0.034422 0.000000 1.000000
0.208721 0.000000 1.000000
0.383021 0.000000 1.000000
0.557320 0.000000 1.000000
0.731355 0.000000 1.000000
0.894365 0.000000 1.000000
1.000000 0.000000 1.000000
1.000000 0.000000 1.000000
0.000000 0.037257 1.000000
0.043599 0.033478 1.000000
0.217898 0.029699 1.000000
0.392198 0.025921 1.000000
0.555358 0.019343 1.000000
0.718368 0.012728 1.000000
0.881377 0.006112 1.000000
1.000000 0.000000 1.000000
1.000000 0.000000 1.000000
0.000000 0.199463 1.000000
0.052776 0.195685 1.000000
0.216352 0.189212 1.000000
0.379361 0.182596 1.000000
0.542371 0.175981 1.000000
0.705380 0.169365 1.000000
0.868390 0.162750 1.000000
1.000000 0.156135 1.000000
1.000000 0.149519 1.000000
0.000000 0.359080 1.000000
0.040355 0.352465 1.000000
0.203364 0.345849 1.000000
0.366374 0.339234 1.000000
0.529383 0.332618 1.000000
0.692393 0.326003 1.000000
0.855403 0.319388 1.000000
1.000000 0.312772 1.000000
1.000000 0.306157 1.000000
0.000000 0.515718 1.000000
0.027367 0.509102 1.000000
0.190377 0.502487 1.000000
0.353386 0.495871 1.000000
0.516396 0.489256 1.000000
0.679406 0.482641 1.000000
0.842415 0.476025 1.000000
1.000000 0.469410 1.000000
1.000000 0.463553 1.000000
0.000000 0.672355 1.000000
0.014380 0.665740 1.000000
0.177389 0.659124 1.000000
0.340399 0.652509 1.000000
0.503409 0.645894 1.000000
0.666418 0.639278 1.000000
0.830722 0.633261 1.000000
1.000000 0.631009 1.000000
1.000000 0.628757 1.000000
0.000000 0.828993 1.000000
0.001392 0.822377 1.000000
0.164402 0.815762 1.000000
0.327412 0.809147 1.000000
0.491368 0.802969 1.000000
0.663813 0.800717 1.000000
0.836257 0.798465 1.000000
1.000000 0.796213 1.000000
1.000000 0.793961 1.000000
0.000000 0.985630 1.000000
0.000000 0.979015 1.000000
0.152014 0.972677 1.000000
0.324459 0.970425 1.000000
0.496904 0.968173 1.000000
0.669348 0.965921 1.000000
0.841793 0.963669 1.000000
1.000000 0.961417 1.000000
1.000000 0.959164 1.000000
0.000000 1.000000 1.000000
0.000000 1.000000 1.000000
0.157550 1.000000 1.000000
0.329995 1.000000 1.000000
0.502439 1.000000 1.000000
0.674884 1.000000 1.000000
0.847329 1.000000 1.000000
1.000000 1.000000 1.000000
1.000000 1.000000 1.000000
