assets/luts/action-punchy.cube
TITLE "action-punchy"
LUT_3D_SIZE 5
0.000000 0.000000 0.000000
0.194464 0.000000 0.000000
0.543063 0.000000 0.000000
0.891661 0.000000 0.000000
1.000000 0.000000 0.000000
0.000000 0.210989 0.000000
0.212817 0.203431 0.000000
0.561416 0.195874 0.000000
0.888568 0.182928 0.000000
1.000000 0.169697 0.000000
0.000000 0.535402 0.000000
0.210555 0.522665 0.000000
0.536574 0.509434 0.000000
0.862593 0.496203 0.000000
1.000000 0.482973 0.000000
0.000000 0.849171 0.000000
0.184580 0.835940 0.000000
0.510599 0.822709 0.000000
0.836619 0.809479 0.000000
1.000000 0.800830 0.000000
0.000000 1.000000 0.000000
0.158605 1.000000 0.000000
0.493839 1.000000 0.000000
0.838728 1.000000 0.000000
1.000000 1.000000 0.000000
0.000000 0.000000 0.306332
0.198028 0.000000 0.268344
0.546627 0.000000 0.230356
0.895226 0.000000 0.192368
1.000000 0.000000 0.163488
0.000000 0.208107 0.231753
0.216382 0.200550 0.193765
0.557504 0.191114 0.163974
0.883524 0.177884 0.150744
1.000000 0.164653 0.137513
0.000000 0.530851 0.164461
0.205510 0.517620 0.151230
0.531530 0.504390 0.138000
0.857549 0.491159 0.124769
1.000000 0.477928 0.111538
0.000000 0.844126 0.138486
0.179536 0.830896 0.125256
0.505555 0.817665 0.112025
0.831574 0.804434 0.098794
1.000000 0.799113 0.075085
0.000000 1.000000 0.112512
0.153561 1.000000 0.099281
0.495989 1.000000 0.075997
0.840878 1.000000 0.051206
1.000000 1.000000 0.026415
0.000000 0.000000 0.631098
0.201593 0.000000 0.593110
0.550191 0.000000 0.555122
0.898790 0.000000 0.517134
1.000000 0.000000 0.497693
0.000000 0.205226 0.556519
0.219946 0.197669 0.518531
0.552460 0.186070 0.498180
0.878479 0.172839 0.484949
1.000000 0.159608 0.471718
0.000000 0.525807 0.498667
0.200466 0.512576 0.485436
0.526485 0.499345 0.472205
0.852504 0.486114 0.458974
1.000000 0.472884 0.445744
0.000000 0.839082 0.472692
0.174491 0.825851 0.459461
0.500510 0.812620 0.446230
0.831957 0.801900 0.429674
1.000000 0.797395 0.404883
0.000000 1.000000 0.446717
0.153250 1.000000 0.430587
0.498139 1.000000 0.405795
0.843028 1.000000 0.381004
1.000000 1.000000 0.356213
0.000000 0.000000 0.955864
0.205157 0.000000 0.917876
0.553756 0.000000 0.879888
0.899409 0.000000 0.845129
1.000000 0.000000 0.831899
0.000000 0.202345 0.881286
0.221396 0.194256 0.845616
0.547415 0.181025 0.832385
0.873435 0.167795 0.819155
1.000000 0.154564 0.805924
0.000000 0.520762 0.832872
0.195421 0.507531 0.819641
0.521441 0.494301 0.806411
0.847460 0.481070 0.793180
1.000000 0.467839 0.779949
0.000000 0.834037 0.806897
0.169447 0.820807 0.793667
0.495466 0.807576 0.780436
0.834107 0.800182 0.759472
1.000000 0.795678 0.734681
0.000000 1.000000 0.780923
0.155400 1.000000 0.760384
0.500289 1.000000 0.735593
0.845179 1.000000 0.710802
1.000000 1.000000 0.686010
0.000000 0.000000 1.000000
0.208721 0.000000 1.000000
0.557320 0.000000 1.000000
0.894365 0.000000 1.000000
1.000000 0.000000 1.000000
0.000000 0.199463 1.000000
0.216352 0.189212 1.000000
0.542371 0.175981 1.000000
0.868390 0.162750 1.000000
1.000000 0.149519 1.000000
0.000000 0.515718 1.000000
0.190377 0.502487 1.000000
0.516396 0.489256 1.000000
0.842415 0.476025 1.000000
1.000000 0.463553 1.000000
0.000000 0.828993 1.000000
0.164402 0.815762 1.000000
0.491368 0.802969 1.000000
0.836257 0.798465 1.000000
1.000000 0.793961 1.000000
0.000000 1.000000 1.000000
0.157550 1.000000 1.000000
0.502439 1.000000 1.000000
0.847329 1.000000 1.000000
1.000000 1.000000 1.000000
