assets/luts/arri-alexa-neutral.cube
TITLE "arri-alexa-neutral"
LUT_3D_SIZE 17
0.000000 0.000000 0.000000
0.028610 0.000000 0.000000
0.092601 0.000000 0.000000
0.156592 0.000000 0.000000
0.220582 0.000000 0.000000
0.284573 0.000000 0.000000
0.348564 0.000000 0.000000
0.412554 0.000000 0.000000
0.476545 0.000000 0.000000
0.540536 0.000000 0.000000
0.604526 0.000000 0.000000
0.668517 0.000000 0.000000
0.732507 0.000000 0.000000
0.796498 0.000000 0.000000
0.860489 0.000000 0.000000
0.924479 0.000000 0.000000
0.988470 0.000912 0.000000
0.000000 0.031417 0.000000
0.031844 0.033685 0.000000
0.095834 0.035953 0.000000
0.159825 0.038221 0.000000
0.223815 0.040490 0.000000
0.287806 0.042758 0.000000
0.351797 0.045026 0.000000
0.415787 0.047294 0.000000
0.479778 0.049563 0.000000
0.543769 0.051831 0.000000
0.607759 0.054099 0.000000
0.671750 0.056367 0.000000
0.735741 0.058636 0.000000
0.799731 0.060904 0.000000
0.863722 0.063172 0.000000
0.927107 0.064269 0.000000
0.990432 0.065251 0.000000
0.000000 0.098213 0.000000
0.035077 0.100482 0.000000
0.099067 0.102750 0.000000
0.163058 0.105018 0.000000
0.227049 0.107286 0.000000
0.291039 0.109555 0.000000
0.355030 0.111823 0.000000
0.419021 0.114091 0.000000
0.483011 0.116359 0.000000
0.547002 0.118628 0.000000
0.610993 0.120896 0.000000
0.674983 0.123164 0.000000
0.738974 0.125432 0.000000
0.802383 0.126577 0.000000
0.865708 0.127558 0.000000
0.929033 0.128539 0.000000
0.992358 0.129520 0.000000
0.000000 0.165010 0.000000
0.038310 0.167278 0.000000
0.102301 0.169547 0.000000
0.166291 0.171815 0.000000
0.230282 0.174083 0.000000
0.294273 0.176351 0.000000
0.358263 0.178620 0.000000
0.422254 0.180888 0.000000
0.486244 0.183156 0.000000
0.550235 0.185424 0.000000
0.614226 0.187693 0.000000
0.677660 0.188885 0.000000
0.740985 0.189866 0.000000
0.804309 0.190847 0.000000
0.867634 0.191828 0.000000
0.930959 0.192809 0.000000
0.994284 0.193790 0.000000
0.000000 0.231807 0.000000
0.041543 0.234075 0.000000
0.105534 0.236343 0.000000
0.169524 0.238612 0.000000
0.233515 0.240880 0.000000
0.297506 0.243148 0.000000
0.361496 0.245416 0.000000
0.425487 0.247685 0.000000
0.489478 0.249953 0.000000
0.552936 0.251192 0.000000
0.616261 0.252173 0.000000
0.679586 0.253155 0.000000
0.742911 0.254136 0.000000
0.806236 0.255117 0.000000
0.869560 0.256098 0.000000
0.932885 0.257079 0.000000
0.996210 0.258060 0.000000
0.000000 0.298604 0.000000
0.044776 0.300872 0.000000
0.108767 0.303140 0.000000
0.172758 0.305409 0.000000
0.236748 0.307677 0.000000
0.300739 0.309945 0.000000
0.364730 0.312213 0.000000
0.428213 0.313500 0.000000
0.491537 0.314481 0.000000
0.554862 0.315462 0.000000
0.618187 0.316443 0.000000
0.681512 0.317424 0.000000
0.744837 0.318406 0.000000
0.808162 0.319387 0.000000
0.871486 0.320368 0.000000
0.934811 0.321349 0.000000
0.998136 0.322330 0.000636
0.000000 0.365401 0.000000
0.048010 0.367669 0.000000
0.112000 0.369937 0.000000
0.175991 0.372205 0.000000
0.239982 0.374474 0.000000
0.303489 0.375808 0.000000
0.366814 0.376789 0.000000
0.430139 0.377770 0.000000
0.493463 0.378751 0.000000
0.556788 0.379732 0.000000
0.620113 0.380713 0.000000
0.683438 0.381694 0.000000
0.746763 0.382675 0.000000
0.810088 0.383656 0.000000
0.873413 0.384638 0.000600
0.936737 0.385619 0.001581
1.000000 0.386600 0.002562
0.000000 0.432197 0.000000
0.051243 0.434466 0.000000
0.115233 0.436734 0.000000
0.178765 0.438115 0.000000
0.242090 0.439096 0.000000
0.305415 0.440078 0.000000
0.368740 0.441059 0.000000
0.432065 0.442040 0.000000
0.495390 0.443021 0.000000
0.558714 0.444002 0.000000
0.622039 0.444983 0.000000
0.685364 0.445964 0.000000
0.748689 0.446945 0.000564
0.812014 0.447926 0.001545
0.875339 0.448907 0.002526
0.938663 0.449888 0.003507
1.000000 0.450870 0.004488
0.000000 0.498994 0.000000
0.054042 0.500423 0.000000
0.117367 0.501404 0.000000
0.180691 0.502385 0.000000
0.244016 0.503366 0.000000
0.307341 0.504347 0.000000
0.370666 0.505328 0.000000
0.433991 0.506310 0.000000
0.497316 0.507291 0.000000
0.560641 0.508272 0.000000
0.623965 0.509253 0.000528
0.687290 0.510234 0.001509
0.750615 0.511215 0.002490
0.813940 0.512196 0.003471
0.877265 0.513177 0.004452
0.940590 0.514158 0.005433
1.000000 0.515139 0.006414
0.000000 0.563712 0.000000
0.055968 0.564693 0.000000
0.119293 0.565674 0.000000
0.182618 0.566655 0.000000
0.245942 0.567636 0.000000
0.309267 0.568617 0.000000
0.372592 0.569598 0.000000
0.435917 0.570579 0.000000
0.499242 0.571561 0.000492
0.562567 0.572542 0.001473
0.625891 0.573523 0.002454
0.689216 0.574504 0.003435
0.752541 0.575485 0.004416
0.815866 0.576466 0.005397
0.879191 0.577447 0.006378
0.942516 0.578428 0.007359
1.000000 0.579409 0.008341
0.000000 0.627982 0.000000
0.057894 0.628963 0.000000
0.121219 0.629944 0.000000
0.184544 0.630925 0.000000
0.247868 0.631906 0.000000
0.311193 0.632887 0.000000
0.374518 0.633868 0.000456
0.437843 0.634849 0.001437
0.501168 0.635830 0.002418
0.564493 0.636811 0.003399
0.627818 0.637793 0.004380
0.691142 0.638774 0.005361
0.754467 0.639755 0.006342
0.817792 0.640736 0.007323
0.881117 0.641717 0.008304
0.944442 0.642698 0.009286
1.000000 0.643679 0.010267
0.000000 0.692251 0.000000
0.059820 0.693233 0.000000
0.123145 0.694214 0.000000
0.186470 0.695195 0.000000
0.249795 0.696176 0.000420
0.313119 0.697157 0.001401
0.376444 0.698138 0.002382
0.439769 0.699119 0.003363
0.503094 0.700100 0.004344
0.566419 0.701081 0.005325
0.629744 0.702062 0.006306
0.693068 0.703043 0.007287
0.756393 0.704025 0.008268
0.819718 0.705006 0.009249
0.883043 0.705987 0.010231
0.946368 0.706968 0.011212
1.000000 0.707863 0.012107
0.000000 0.756521 0.000000
0.061746 0.757502 0.000000
0.125071 0.758483 0.000383
0.188396 0.759465 0.001365
0.251721 0.760446 0.002346
0.315046 0.761427 0.003327
0.378370 0.762408 0.004308
0.441695 0.763389 0.005289
0.505020 0.764370 0.006270
0.568345 0.765351 0.007251
0.631670 0.766332 0.008232
0.694995 0.767313 0.009213
0.758319 0.768294 0.010194
0.821644 0.769276 0.011176
0.885093 0.770194 0.012094
0.949658 0.770550 0.012450
1.000000 0.770907 0.012807
0.000347 0.820791 0.000347
0.063672 0.821772 0.001328
0.126997 0.822753 0.002310
0.190322 0.823734 0.003291
0.253647 0.824716 0.004272
0.316972 0.825697 0.005253
0.380296 0.826678 0.006234
0.443621 0.827659 0.007215
0.506946 0.828640 0.008196
0.570271 0.829621 0.009177
0.633596 0.830602 0.010158
0.696921 0.831583 0.011139
0.760324 0.832525 0.012081
0.824888 0.832881 0.012437
0.889453 0.833237 0.012794
0.954017 0.833594 0.013150
1.000000 0.833950 0.013506
0.002273 0.885061 0.002273
0.065598 0.886042 0.003255
0.128923 0.887023 0.004236
0.192248 0.888004 0.005217
0.255573 0.888985 0.006198
0.318898 0.889966 0.007179
0.382223 0.890948 0.008160
0.445547 0.891929 0.009141
0.508872 0.892910 0.010122
0.572197 0.893891 0.011103
0.635555 0.894855 0.012068
0.700119 0.895212 0.012424
0.764683 0.895568 0.012780
0.829248 0.895924 0.013137
0.893812 0.896281 0.013493
0.958376 0.896637 0.013850
1.000000 0.896993 0.014206
0.004200 0.949331 0.004200
0.067524 0.950312 0.005181
0.130849 0.951293 0.006162
0.194174 0.952274 0.007143
0.257499 0.953255 0.008124
0.320824 0.954236 0.009105
0.384149 0.955217 0.010086
0.447473 0.956198 0.011067
0.510798 0.957180 0.012048
0.575350 0.957542 0.012411
0.639914 0.957899 0.012767
0.704478 0.958255 0.013124
0.769043 0.958611 0.013480
0.833607 0.958968 0.013836
0.898171 0.959324 0.014193
0.962735 0.959680 0.014549
1.000000 0.960037 0.014906
0.006126 1.000000 0.006126
0.069451 1.000000 0.007107
0.132775 1.000000 0.008088
0.196100 1.000000 0.009069
0.259425 1.000000 0.010050
0.322750 1.000000 0.011031
0.386075 1.000000 0.012012
0.450581 1.000000 0.012398
0.515145 1.000000 0.012754
0.579709 1.000000 0.013111
0.644273 1.000000 0.013467
0.708838 1.000000 0.013823
0.773402 1.000000 0.014180
0.837966 1.000000 0.014536
0.902530 1.000000 0.014892
0.967094 1.000000 0.015249
1.000000 1.000000 0.015605
0.000000 0.000000 0.047068
0.029238 0.000000 0.047472
0.093229 0.000000 0.047876
0.157220 0.000000 0.048280
0.221210 0.000000 0.048684
0.285201 0.000000 0.049088
0.349191 0.000000 0.049493
0.413182 0.000000 0.049897
0.477173 0.000000 0.050301
0.541163 0.000000 0.050705
0.605154 0.000000 0.051109
0.669145 0.000000 0.051514
0.733135 0.000000 0.051918
0.797126 0.000000 0.052322
0.861117 0.000000 0.052726
0.925107 0.000000 0.053130
0.988880 0.001355 0.053723
0.000000 0.032281 0.047861
0.032471 0.034550 0.048265
0.096462 0.036818 0.048669
0.160453 0.039086 0.049074
0.224443 0.041354 0.049478
0.288434 0.043623 0.049882
0.352425 0.045891 0.050286
0.416415 0.048159 0.050690
0.480406 0.050427 0.051094
0.544397 0.052696 0.051499
0.608387 0.054964 0.051903
0.672378 0.057232 0.052307
0.736369 0.059500 0.052711
0.800359 0.061769 0.053115
0.864156 0.063662 0.053687
0.927481 0.064643 0.054668
0.990806 0.065625 0.055650
0.000000 0.099078 0.048655
0.035705 0.101346 0.049059
0.099695 0.103615 0.049463
0.163686 0.105883 0.049867
0.227677 0.108151 0.050271
0.291667 0.110419 0.050675
0.355658 0.112688 0.051080
0.419649 0.114956 0.051484
0.483639 0.117224 0.051888
0.547630 0.119492 0.052292
0.611620 0.121761 0.052696
0.675611 0.124029 0.053100
0.739433 0.125970 0.053651
0.802757 0.126951 0.054632
0.866082 0.127932 0.055613
0.929407 0.128913 0.056595
0.992732 0.129894 0.057576
0.000000 0.165875 0.049448
0.038938 0.168143 0.049852
0.102929 0.170411 0.050256
0.166919 0.172680 0.050661
0.230910 0.174948 0.051065
0.294900 0.177216 0.051469
0.358891 0.179484 0.051873
0.422882 0.181753 0.052277
0.486872 0.184021 0.052681
0.550863 0.186289 0.053086
0.614709 0.188278 0.053615
0.678034 0.189259 0.054596
0.741359 0.190240 0.055577
0.804683 0.191221 0.056558
0.868008 0.192202 0.057540
0.931333 0.193183 0.058521
0.994658 0.194164 0.059502
0.000000 0.232672 0.050241
0.042171 0.234940 0.050646
0.106162 0.237208 0.051050
0.170152 0.239477 0.051454
0.234143 0.241745 0.051858
0.298134 0.244013 0.052262
0.362124 0.246281 0.052667
0.426115 0.248550 0.053071
0.489985 0.250585 0.053579
0.553310 0.251566 0.054560
0.616635 0.252548 0.055541
0.679960 0.253529 0.056522
0.743285 0.254510 0.057503
0.806610 0.255491 0.058485
0.869934 0.256472 0.059466
0.933259 0.257453 0.060447
0.996584 0.258434 0.061428
0.000000 0.299469 0.051035
0.045404 0.301737 0.051439
0.109395 0.304005 0.051843
0.173386 0.306273 0.052248
0.237376 0.308542 0.052652
0.301367 0.310810 0.053056
0.365262 0.312893 0.053543
0.428587 0.313874 0.054524
0.491911 0.314855 0.055505
0.555236 0.315836 0.056486
0.618561 0.316817 0.057467
0.681886 0.317798 0.058448
0.745211 0.318780 0.059430
0.808536 0.319761 0.060411
0.871861 0.320742 0.061392
0.935185 0.321723 0.062373
0.998510 0.322704 0.063354
0.000000 0.366265 0.051828
0.048637 0.368534 0.052233
0.112628 0.370802 0.052637
0.176619 0.373070 0.053041
0.240538 0.375201 0.053507
0.303863 0.376182 0.054488
0.367188 0.377163 0.055469
0.430513 0.378144 0.056450
0.493838 0.379125 0.057431
0.557162 0.380106 0.058412
0.620487 0.381087 0.059393
0.683812 0.382068 0.060375
0.747137 0.383049 0.061356
0.810462 0.384031 0.062337
0.873787 0.385012 0.063318
0.937111 0.385993 0.064299
1.000000 0.386974 0.065280
0.000000 0.433062 0.052622
0.051871 0.435330 0.053026
0.115815 0.437508 0.053471
0.179139 0.438489 0.054452
0.242464 0.439471 0.055433
0.305789 0.440452 0.056414
0.369114 0.441433 0.057395
0.432439 0.442414 0.058376
0.495764 0.443395 0.059357
0.559088 0.444376 0.060338
0.622413 0.445357 0.061320
0.685738 0.446338 0.062301
0.749063 0.447319 0.063282
0.812388 0.448300 0.064263
0.875713 0.449281 0.065244
0.939038 0.450263 0.066225
1.000000 0.451244 0.067206
0.000000 0.499816 0.053435
0.054416 0.500797 0.054416
0.117741 0.501778 0.055397
0.181066 0.502759 0.056378
0.244390 0.503740 0.057359
0.307715 0.504721 0.058340
0.371040 0.505703 0.059321
0.434365 0.506684 0.060302
0.497690 0.507665 0.061283
0.561015 0.508646 0.062265
0.624339 0.509627 0.063246
0.687664 0.510608 0.064227
0.750989 0.511589 0.065208
0.814314 0.512570 0.066189
0.877639 0.513551 0.067170
0.940964 0.514532 0.068151
1.000000 0.515513 0.069132
0.000000 0.564086 0.055361
0.056342 0.565067 0.056342
0.119667 0.566048 0.057323
0.182992 0.567029 0.058304
0.246316 0.568010 0.059285
0.309641 0.568991 0.060266
0.372966 0.569972 0.061247
0.436291 0.570953 0.062228
0.499616 0.571935 0.063210
0.562941 0.572916 0.064191
0.626266 0.573897 0.065172
0.689590 0.574878 0.066153
0.752915 0.575859 0.067134
0.816240 0.576840 0.068115
0.879565 0.577821 0.069096
0.942890 0.578802 0.070077
1.000000 0.579783 0.071058
0.000000 0.628356 0.057287
0.058268 0.629337 0.058268
0.121593 0.630318 0.059249
0.184918 0.631299 0.060230
0.248243 0.632280 0.061211
0.311567 0.633261 0.062192
0.374892 0.634242 0.063173
0.438217 0.635223 0.064155
0.501542 0.636204 0.065136
0.564867 0.637186 0.066117
0.628192 0.638167 0.067098
0.691516 0.639148 0.068079
0.754841 0.640129 0.069060
0.818166 0.641110 0.070041
0.881491 0.642091 0.071022
0.944816 0.643072 0.072003
1.000000 0.644053 0.072984
0.000000 0.692626 0.059213
0.060194 0.693607 0.060194
0.123519 0.694588 0.061175
0.186844 0.695569 0.062156
0.250169 0.696550 0.063137
0.313493 0.697531 0.064118
0.376818 0.698512 0.065100
0.440143 0.699493 0.066081
0.503468 0.700474 0.067062
0.566793 0.701455 0.068043
0.630118 0.702436 0.069024
0.693443 0.703418 0.070005
0.756767 0.704399 0.070986
0.820092 0.705380 0.071967
0.883417 0.706361 0.072948
0.946742 0.707342 0.073929
1.000000 0.707999 0.074587
0.000000 0.756895 0.061139
0.062120 0.757876 0.062120
0.125445 0.758858 0.063101
0.188770 0.759839 0.064082
0.252095 0.760820 0.065063
0.315420 0.761801 0.066045
0.378744 0.762782 0.067026
0.442069 0.763763 0.068007
0.505394 0.764744 0.068988
0.568719 0.765725 0.069969
0.632044 0.766706 0.070950
0.695369 0.767687 0.071931
0.758693 0.768668 0.072912
0.822018 0.769650 0.073893
0.885940 0.770330 0.074574
0.950504 0.770686 0.074930
1.000000 0.771043 0.075286
0.000721 0.821165 0.063065
0.064046 0.822146 0.064046
0.127371 0.823127 0.065027
0.190696 0.824108 0.066008
0.254021 0.825090 0.066990
0.317346 0.826071 0.067971
0.380671 0.827052 0.068952
0.443995 0.828033 0.069933
0.507320 0.829014 0.070914
0.570645 0.829995 0.071895
0.633970 0.830976 0.072876
0.697295 0.831957 0.073857
0.761171 0.832660 0.074560
0.825735 0.833017 0.074917
0.890299 0.833373 0.075273
0.954863 0.833730 0.075630
1.000000 0.834086 0.075986
0.002648 0.885435 0.064991
0.065972 0.886416 0.065972
0.129297 0.887397 0.066953
0.192622 0.888378 0.067935
0.255947 0.889359 0.068916
0.319272 0.890341 0.069897
0.382597 0.891322 0.070878
0.445921 0.892303 0.071859
0.509246 0.893284 0.072840
0.572571 0.894265 0.073821
0.636402 0.894991 0.074547
0.700966 0.895347 0.074904
0.765530 0.895704 0.075260
0.830094 0.896060 0.075616
0.894658 0.896417 0.075973
0.959223 0.896773 0.076329
1.000000 0.897129 0.076686
0.004574 0.949705 0.066917
0.067898 0.950686 0.067898
0.131223 0.951667 0.068880
0.194548 0.952648 0.069861
0.257873 0.953629 0.070842
0.321198 0.954610 0.071823
0.384523 0.955591 0.072804
0.447848 0.956573 0.073785
0.511632 0.957322 0.074534
0.576197 0.957678 0.074891
0.640761 0.958034 0.075247
0.705325 0.958391 0.075603
0.769889 0.958747 0.075960
0.834453 0.959104 0.076316
0.899018 0.959460 0.076672
0.963582 0.959816 0.077029
1.000000 0.960173 0.077385
0.006500 1.000000 0.068843
0.069825 1.000000 0.069825
0.133149 1.000000 0.070806
0.196474 1.000000 0.071787
0.259799 1.000000 0.072768
0.323124 1.000000 0.073749
0.386863 1.000000 0.074521
0.451427 1.000000 0.074877
0.515992 1.000000 0.075234
0.580556 1.000000 0.075590
0.645120 1.000000 0.075947
0.709684 1.000000 0.076303
0.774248 1.000000 0.076659
0.838813 1.000000 0.077016
0.903377 1.000000 0.077372
0.967941 1.000000 0.077728
1.000000 1.000000 0.078085
0.000000 0.000000 0.109565
0.029866 0.000000 0.109970
0.093857 0.000000 0.110374
0.157847 0.000000 0.110778
0.221838 0.000000 0.111182
0.285829 0.000000 0.111586
0.349819 0.000000 0.111990
0.413810 0.000000 0.112395
0.477801 0.000000 0.112799
0.541791 0.000000 0.113203
0.605782 0.000000 0.113607
0.669773 0.000000 0.114011
0.733763 0.000000 0.114416
0.797754 0.000000 0.114820
0.861745 0.000000 0.115224
0.925735 0.000373 0.115628
0.989254 0.001729 0.116441
0.000000 0.033146 0.110359
0.033099 0.035414 0.110763
0.097090 0.037683 0.111167
0.161081 0.039951 0.111571
0.225071 0.042219 0.111976
0.289062 0.044487 0.112380
0.353053 0.046756 0.112784
0.417043 0.049024 0.113188
0.481034 0.051292 0.113592
0.545025 0.053560 0.113996
0.609015 0.055829 0.114401
0.673006 0.058097 0.114805
0.736996 0.060365 0.115209
0.800987 0.062633 0.115613
0.864530 0.064036 0.116405
0.927855 0.065018 0.117386
0.991180 0.065999 0.118367
0.000000 0.099943 0.111152
0.036333 0.102211 0.111557
0.100323 0.104479 0.111961
0.164314 0.106748 0.112365
0.228305 0.109016 0.112769
0.292295 0.111284 0.113173
0.356286 0.113553 0.113577
0.420276 0.115821 0.113982
0.484267 0.118089 0.114386
0.548258 0.120357 0.114790
0.612248 0.122626 0.115194
0.676239 0.124894 0.115598
0.739807 0.126344 0.116369
0.803131 0.127325 0.117350
0.866456 0.128306 0.118331
0.929781 0.129287 0.119312
0.993106 0.130268 0.120293
0.000000 0.166740 0.111946
0.039566 0.169008 0.112350
0.103556 0.171276 0.112754
0.167547 0.173545 0.113158
0.231538 0.175813 0.113563
0.295528 0.178081 0.113967
0.359519 0.180349 0.114371
0.423510 0.182618 0.114775
0.487500 0.184886 0.115179
0.551491 0.187154 0.115583
0.615083 0.188652 0.116333
0.678408 0.189633 0.117314
0.741733 0.190614 0.118295
0.805058 0.191595 0.119276
0.868382 0.192576 0.120257
0.931707 0.193557 0.121238
0.995032 0.194538 0.122220
0.000000 0.233537 0.112739
0.042799 0.235805 0.113144
0.106790 0.238073 0.113548
0.170780 0.240341 0.113952
0.234771 0.242610 0.114356
0.298762 0.244878 0.114760
0.362752 0.247146 0.115164
0.426743 0.249414 0.115569
0.490359 0.250959 0.116297
0.553684 0.251941 0.117278
0.617009 0.252922 0.118259
0.680334 0.253903 0.119240
0.743659 0.254884 0.120221
0.806984 0.255865 0.121202
0.870308 0.256846 0.122183
0.933633 0.257827 0.123165
0.996958 0.258808 0.124146
0.000000 0.300333 0.113533
0.046032 0.302602 0.113937
0.110023 0.304870 0.114341
0.174013 0.307138 0.114745
0.238004 0.309406 0.115150
0.301995 0.311675 0.115554
0.365636 0.313267 0.116261
0.428961 0.314248 0.117242
0.492286 0.315229 0.118223
0.555610 0.316210 0.119204
0.618935 0.317191 0.120185
0.682260 0.318173 0.121166
0.745585 0.319154 0.122147
0.808910 0.320135 0.123128
0.872235 0.321116 0.124110
0.935559 0.322097 0.125091
0.998884 0.323078 0.126072
0.000000 0.367130 0.114326
0.049265 0.369398 0.114730
0.113256 0.371667 0.115135
0.177247 0.373935 0.115539
0.240912 0.375575 0.116225
0.304237 0.376556 0.117206
0.367562 0.377537 0.118187
0.430887 0.378518 0.119168
0.494212 0.379499 0.120149
0.557536 0.380480 0.121130
0.620861 0.381461 0.122111
0.684186 0.382442 0.123092
0.747511 0.383423 0.124073
0.810836 0.384405 0.125055
0.874161 0.385386 0.126036
0.937486 0.386367 0.127017
1.000000 0.387348 0.127998
0.000000 0.433927 0.115120
0.052499 0.436195 0.115524
0.116189 0.437882 0.116189
0.179513 0.438863 0.117170
0.242838 0.439845 0.118151
0.306163 0.440826 0.119132
0.369488 0.441807 0.120113
0.432813 0.442788 0.121094
0.496138 0.443769 0.122075
0.559463 0.444750 0.123056
0.622787 0.445731 0.124037
0.686112 0.446712 0.125018
0.749437 0.447693 0.126000
0.812762 0.448674 0.126981
0.876087 0.449656 0.127962
0.939412 0.450637 0.128943
1.000000 0.451618 0.129924
0.000000 0.500190 0.116153
0.054790 0.501171 0.117134
0.118115 0.502152 0.118115
0.181440 0.503133 0.119096
0.244764 0.504114 0.120077
0.308089 0.505096 0.121058
0.371414 0.506077 0.122039
0.434739 0.507058 0.123020
0.498064 0.508039 0.124001
0.561389 0.509020 0.124982
0.624713 0.510001 0.125963
0.688038 0.510982 0.126945
0.751363 0.511963 0.127926
0.814688 0.512944 0.128907
0.878013 0.513925 0.129888
0.941338 0.514906 0.130869
1.000000 0.515888 0.131850
0.000000 0.564460 0.118079
0.056716 0.565441 0.119060
0.120041 0.566422 0.120041
0.183366 0.567403 0.121022
0.246691 0.568384 0.122003
0.310015 0.569365 0.122984
0.373340 0.570346 0.123965
0.436665 0.571328 0.124946
0.499990 0.572309 0.125927
0.563315 0.573290 0.126908
0.626640 0.574271 0.127890
0.689964 0.575252 0.128871
0.753289 0.576233 0.129852
0.816614 0.577214 0.130833
0.879939 0.578195 0.131814
0.943264 0.579176 0.132795
1.000000 0.580157 0.133776
0.000000 0.628730 0.120005
0.058642 0.629711 0.120986
0.121967 0.630692 0.121967
0.185292 0.631673 0.122948
0.248617 0.632654 0.123929
0.311941 0.633635 0.124910
0.375266 0.634616 0.125891
0.438591 0.635597 0.126872
0.501916 0.636578 0.127853
0.565241 0.637560 0.128835
0.628566 0.638541 0.129816
0.691891 0.639522 0.130797
0.755215 0.640503 0.131778
0.818540 0.641484 0.132759
0.881865 0.642465 0.133740
0.945190 0.643446 0.134721
1.000000 0.644427 0.135702
0.000000 0.693000 0.121931
0.060568 0.693981 0.122912
0.123893 0.694962 0.123893
0.187218 0.695943 0.124874
0.250543 0.696924 0.125855
0.313868 0.697905 0.126836
0.377192 0.698886 0.127817
0.440517 0.699867 0.128798
0.503842 0.700848 0.129780
0.567167 0.701829 0.130761
0.630492 0.702811 0.131742
0.693817 0.703792 0.132723
0.757141 0.704773 0.133704
0.820466 0.705754 0.134685
0.883791 0.706735 0.135666
0.947116 0.707716 0.136647
1.000000 0.708135 0.137066
0.000000 0.757269 0.123857
0.062494 0.758251 0.124838
0.125819 0.759232 0.125819
0.189144 0.760213 0.126800
0.252469 0.761194 0.127781
0.315794 0.762175 0.128762
0.379118 0.763156 0.129743
0.442443 0.764137 0.130725
0.505768 0.765118 0.131706
0.569093 0.766099 0.132687
0.632418 0.767080 0.133668
0.695743 0.768061 0.134649
0.759068 0.769043 0.135630
0.822392 0.770024 0.136611
0.886787 0.770466 0.137053
0.951351 0.770822 0.137410
1.000000 0.771178 0.137766
0.001096 0.821539 0.125783
0.064420 0.822520 0.126764
0.127745 0.823501 0.127745
0.191070 0.824483 0.128726
0.254395 0.825464 0.129707
0.317720 0.826445 0.130688
0.381045 0.827426 0.131670
0.444369 0.828407 0.132651
0.507694 0.829388 0.133632
0.571019 0.830369 0.134613
0.634344 0.831350 0.135594
0.697669 0.832331 0.136575
0.762017 0.832796 0.137040
0.826582 0.833153 0.137396
0.891146 0.833509 0.137753
0.955710 0.833865 0.138109
1.000000 0.834222 0.138466
0.003022 0.885809 0.127709
0.066346 0.886790 0.128690
0.129671 0.887771 0.129671
0.192996 0.888752 0.130652
0.256321 0.889733 0.131633
0.319646 0.890715 0.132615
0.382971 0.891696 0.133596
0.446296 0.892677 0.134577
0.509620 0.893658 0.135558
0.572945 0.894639 0.136539
0.637248 0.895127 0.137027
0.701812 0.895483 0.137383
0.766377 0.895840 0.137740
0.830941 0.896196 0.138096
0.895505 0.896552 0.138452
0.960069 0.896909 0.138809
1.000000 0.897265 0.139165
0.004948 0.950079 0.129635
0.068273 0.951060 0.130616
0.131597 0.952041 0.131597
0.194922 0.953022 0.132578
0.258247 0.954003 0.133560
0.321572 0.954984 0.134541
0.384897 0.955966 0.135522
0.448222 0.956947 0.136503
0.512479 0.957458 0.137014
0.577043 0.957814 0.137370
0.641607 0.958170 0.137727
0.706172 0.958527 0.138083
0.770736 0.958883 0.138439
0.835300 0.959239 0.138796
0.899864 0.959596 0.139152
0.964428 0.959952 0.139508
1.000000 0.960309 0.139865
0.006874 1.000000 0.131561
0.070199 1.000000 0.132542
0.133523 1.000000 0.133523
0.196848 1.000000 0.134505
0.260173 1.000000 0.135486
0.323498 1.000000 0.136467
0.387710 1.000000 0.137001
0.452274 1.000000 0.137357
0.516838 1.000000 0.137713
0.581402 1.000000 0.138070
0.645967 1.000000 0.138426
0.710531 1.000000 0.138783
0.775095 1.000000 0.139139
0.839659 1.000000 0.139495
0.904223 1.000000 0.139852
0.968788 1.000000 0.140208
1.000000 1.000000 0.140564
0.000000 0.000000 0.172063
0.030494 0.000000 0.172467
0.094485 0.000000 0.172872
0.158475 0.000000 0.173276
0.222466 0.000000 0.173680
0.286457 0.000000 0.174084
0.350447 0.000000 0.174488
0.414438 0.000000 0.174892
0.478429 0.000000 0.175297
0.542419 0.000000 0.175701
0.606410 0.000000 0.176105
0.670401 0.000000 0.176509
0.734391 0.000000 0.176913
0.798382 0.000000 0.177318
0.862372 0.000000 0.177722
0.926303 0.001122 0.178178
0.989628 0.002103 0.179159
0.000000 0.034011 0.172857
0.033727 0.036279 0.173261
0.097718 0.038547 0.173665
