assets/luts/arri-alexa-neutral.cube
TITLE "arri-alexa-neutral"
LUT_3D_SIZE 5
0.000000 0.000000 0.000000
0.220582 0.000000 0.000000
0.476545 0.000000 0.000000
0.732507 0.000000 0.000000
0.988470 0.000912 0.000000
0.000000 0.231807 0.000000
0.233515 0.240880 0.000000
0.489478 0.249953 0.000000
0.742911 0.254136 0.000000
0.996210 0.258060 0.000000
0.000000 0.498994 0.000000
0.244016 0.503366 0.000000
0.497316 0.507291 0.000000
0.750615 0.511215 0.002490
1.000000 0.515139 0.006414
0.000000 0.756521 0.000000
0.251721 0.760446 0.002346
0.505020 0.764370 0.006270
0.758319 0.768294 0.010194
1.000000 0.770907 0.012807
0.006126 1.000000 0.006126
0.259425 1.000000 0.010050
0.515145 1.000000 0.012754
0.773402 1.000000 0.014180
1.000000 1.000000 0.015605
0.000000 0.000000 0.234561
0.223094 0.000000 0.236178
0.479057 0.000000 0.237795
0.735019 0.000000 0.239411
0.990002 0.002477 0.241877
0.000000 0.235266 0.237735
0.236027 0.244339 0.239352
0.491108 0.251708 0.241733
0.744407 0.255632 0.245657
0.997706 0.259556 0.249581
0.000000 0.500938 0.241588
0.245513 0.504863 0.245513
0.498812 0.508787 0.249437
0.752111 0.512711 0.253361
1.000000 0.516636 0.257286
0.000000 0.758018 0.249293
0.253217 0.761942 0.253217
0.506516 0.765866 0.257141
0.759816 0.769791 0.261066
1.000000 0.771450 0.262725
0.007622 1.000000 0.256997
0.260921 1.000000 0.260921
0.518531 1.000000 0.262673
0.776788 1.000000 0.264098
1.000000 1.000000 0.265524
0.000000 0.000000 0.484553
0.225606 0.000000 0.486169
0.481568 0.000000 0.487786
0.737531 0.000000 0.489403
0.991498 0.003973 0.492748
0.000000 0.238726 0.487726
0.238538 0.247799 0.489343
0.492604 0.253204 0.492604
0.745903 0.257128 0.496528
0.999203 0.261053 0.500453
0.000000 0.502434 0.492459
0.247009 0.506359 0.496384
0.500308 0.510283 0.500308
0.753608 0.514208 0.504233
1.000000 0.518132 0.508157
0.001414 0.759514 0.500164
0.254713 0.763438 0.504088
0.508013 0.767363 0.508013
0.762738 0.770568 0.511218
1.000000 0.771994 0.512644
0.009118 1.000000 0.507868
0.263661 1.000000 0.511166
0.521918 1.000000 0.512591
0.780175 1.000000 0.514017
1.000000 1.000000 0.515442
0.000000 0.000000 0.734544
0.228117 0.000000 0.736161
0.484080 0.000000 0.737777
0.739695 0.001545 0.739695
0.992994 0.005469 0.743619
0.000000 0.242185 0.737718
0.240801 0.250776 0.739551
0.494100 0.254700 0.743475
0.747399 0.258624 0.747399
1.000000 0.262549 0.751324
0.000000 0.503931 0.743331
0.248505 0.507855 0.747255
0.501804 0.511779 0.751179
0.755104 0.515704 0.755104
1.000000 0.519628 0.759028
0.002910 0.761010 0.751035
0.256209 0.764934 0.754959
0.509509 0.768859 0.758884
0.766124 0.771112 0.761137
1.000000 0.772537 0.762562
0.010614 1.000000 0.758739
0.267047 1.000000 0.761084
0.525304 1.000000 0.762510
0.783561 1.000000 0.763935
1.000000 1.000000 0.765361
0.000000 0.000000 0.984535
0.230629 0.000000 0.986152
0.486591 0.000000 0.987769
0.741191 0.003041 0.990566
0.994491 0.006966 0.994491
0.000000 0.245644 0.987709
0.242297 0.252272 0.990422
0.495596 0.256196 0.994346
0.748896 0.260121 0.998271
1.000000 0.264045 1.000000
0.000000 0.505427 0.994202
0.250001 0.509351 0.998126
0.503301 0.513276 1.000000
0.756600 0.517200 1.000000
1.000000 0.520907 1.000000
0.004406 0.762506 1.000000
0.257706 0.766431 1.000000
0.511254 0.770230 1.000000
0.769511 0.771655 1.000000
1.000000 0.773081 1.000000
0.012177 1.000000 1.000000
0.270434 1.000000 1.000000
0.528691 1.000000 1.000000
0.786947 1.000000 1.000000
1.000000 1.000000 1.000000
