assets/luts/arri-alexa-neutral.cube
TITLE "arri-alexa-neutral"
LUT_3D_SIZE 9
0.000000 0.000000 0.000000
0.092601 0.000000 0.000000
0.220582 0.000000 0.000000
0.348564 0.000000 0.000000
0.476545 0.000000 0.000000
0.604526 0.000000 0.000000
0.732507 0.000000 0.000000
0.860489 0.000000 0.000000
0.988470 0.000912 0.000000
0.000000 0.098213 0.000000
0.099067 0.102750 0.000000
0.227049 0.107286 0.000000
0.355030 0.111823 0.000000
0.483011 0.116359 0.000000
0.610993 0.120896 0.000000
0.738974 0.125432 0.000000
0.865708 0.127558 0.000000
0.992358 0.129520 0.000000
0.000000 0.231807 0.000000
0.105534 0.236343 0.000000
0.233515 0.240880 0.000000
0.361496 0.245416 0.000000
0.489478 0.249953 0.000000
0.616261 0.252173 0.000000
0.742911 0.254136 0.000000
0.869560 0.256098 0.000000
0.996210 0.258060 0.000000
0.000000 0.365401 0.000000
0.112000 0.369937 0.000000
0.239982 0.374474 0.000000
0.366814 0.376789 0.000000
0.493463 0.378751 0.000000
0.620113 0.380713 0.000000
0.746763 0.382675 0.000000
0.873413 0.384638 0.000600
1.000000 0.386600 0.002562
0.000000 0.498994 0.000000
0.117367 0.501404 0.000000
0.244016 0.503366 0.000000
0.370666 0.505328 0.000000
0.497316 0.507291 0.000000
0.623965 0.509253 0.000528
0.750615 0.511215 0.002490
0.877265 0.513177 0.004452
1.000000 0.515139 0.006414
0.000000 0.627982 0.000000
0.121219 0.629944 0.000000
0.247868 0.631906 0.000000
0.374518 0.633868 0.000456
0.501168 0.635830 0.002418
0.627818 0.637793 0.004380
0.754467 0.639755 0.006342
0.881117 0.641717 0.008304
1.000000 0.643679 0.010267
0.000000 0.756521 0.000000
0.125071 0.758483 0.000383
0.251721 0.760446 0.002346
0.378370 0.762408 0.004308
0.505020 0.764370 0.006270
0.631670 0.766332 0.008232
0.758319 0.768294 0.010194
0.885093 0.770194 0.012094
1.000000 0.770907 0.012807
0.002273 0.885061 0.002273
0.128923 0.887023 0.004236
0.255573 0.888985 0.006198
0.382223 0.890948 0.008160
0.508872 0.892910 0.010122
0.635555 0.894855 0.012068
0.764683 0.895568 0.012780
0.893812 0.896281 0.013493
1.000000 0.896993 0.014206
0.006126 1.000000 0.006126
0.132775 1.000000 0.008088
0.259425 1.000000 0.010050
0.386075 1.000000 0.012012
0.515145 1.000000 0.012754
0.644273 1.000000 0.013467
0.773402 1.000000 0.014180
0.902530 1.000000 0.014892
1.000000 1.000000 0.015605
0.000000 0.000000 0.109565
0.093857 0.000000 0.110374
0.221838 0.000000 0.111182
0.349819 0.000000 0.111990
0.477801 0.000000 0.112799
0.605782 0.000000 0.113607
0.733763 0.000000 0.114416
0.861745 0.000000 0.115224
0.989254 0.001729 0.116441
0.000000 0.099943 0.111152
0.100323 0.104479 0.111961
0.228305 0.109016 0.112769
0.356286 0.113553 0.113577
0.484267 0.118089 0.114386
0.612248 0.122626 0.115194
0.739807 0.126344 0.116369
0.866456 0.128306 0.118331
0.993106 0.130268 0.120293
0.000000 0.233537 0.112739
0.106790 0.238073 0.113548
0.234771 0.242610 0.114356
0.362752 0.247146 0.115164
0.490359 0.250959 0.116297
0.617009 0.252922 0.118259
0.743659 0.254884 0.120221
0.870308 0.256846 0.122183
0.996958 0.258808 0.124146
0.000000 0.367130 0.114326
0.113256 0.371667 0.115135
0.240912 0.375575 0.116225
0.367562 0.377537 0.118187
0.494212 0.379499 0.120149
0.620861 0.381461 0.122111
0.747511 0.383423 0.124073
0.874161 0.385386 0.126036
1.000000 0.387348 0.127998
0.000000 0.500190 0.116153
0.118115 0.502152 0.118115
0.244764 0.504114 0.120077
0.371414 0.506077 0.122039
0.498064 0.508039 0.124001
0.624713 0.510001 0.125963
0.751363 0.511963 0.127926
0.878013 0.513925 0.129888
1.000000 0.515888 0.131850
0.000000 0.628730 0.120005
0.121967 0.630692 0.121967
0.248617 0.632654 0.123929
0.375266 0.634616 0.125891
0.501916 0.636578 0.127853
0.628566 0.638541 0.129816
0.755215 0.640503 0.131778
0.881865 0.642465 0.133740
1.000000 0.644427 0.135702
0.000000 0.757269 0.123857
0.125819 0.759232 0.125819
0.252469 0.761194 0.127781
0.379118 0.763156 0.129743
0.505768 0.765118 0.131706
0.632418 0.767080 0.133668
0.759068 0.769043 0.135630
0.886787 0.770466 0.137053
1.000000 0.771178 0.137766
0.003022 0.885809 0.127709
0.129671 0.887771 0.129671
0.256321 0.889733 0.131633
0.382971 0.891696 0.133596
0.509620 0.893658 0.135558
0.637248 0.895127 0.137027
0.766377 0.895840 0.137740
0.895505 0.896552 0.138452
1.000000 0.897265 0.139165
0.006874 1.000000 0.131561
0.133523 1.000000 0.133523
0.260173 1.000000 0.135486
0.387710 1.000000 0.137001
0.516838 1.000000 0.137713
0.645967 1.000000 0.138426
0.775095 1.000000 0.139139
0.904223 1.000000 0.139852
1.000000 1.000000 0.140564
0.000000 0.000000 0.234561
0.095113 0.000000 0.235369
0.223094 0.000000 0.236178
0.351075 0.000000 0.236986
0.479057 0.000000 0.237795
0.607038 0.000000 0.238603
0.735019 0.000000 0.239411
0.863000 0.000000 0.240220
0.990002 0.002477 0.241877
0.000000 0.101673 0.236148
0.101579 0.106209 0.236956
0.229560 0.110746 0.237765
0.357542 0.115282 0.238573
0.485523 0.119819 0.239382
0.613504 0.124355 0.240190
0.740555 0.127092 0.241805
0.867204 0.129054 0.243767
0.993854 0.131017 0.245729
0.000000 0.235266 0.237735
0.108045 0.239803 0.238543
0.236027 0.244339 0.239352
0.364008 0.248876 0.240160
0.491108 0.251708 0.241733
0.617757 0.253670 0.243695
0.744407 0.255632 0.245657
0.871057 0.257594 0.247619
0.997706 0.259556 0.249581
0.000000 0.368860 0.239322
0.114512 0.373396 0.240130
0.241660 0.376323 0.241660
0.368310 0.378285 0.243623
0.494960 0.380247 0.245585
0.621609 0.382209 0.247547
0.748259 0.384172 0.249509
0.874909 0.386134 0.251471
1.000000 0.388096 0.253433
0.000000 0.500938 0.241588
0.118863 0.502900 0.243550
0.245513 0.504863 0.245513
0.372162 0.506825 0.247475
0.498812 0.508787 0.249437
0.625462 0.510749 0.251399
0.752111 0.512711 0.253361
0.878761 0.514673 0.255323
1.000000 0.516636 0.257286
0.000000 0.629478 0.245440
0.122715 0.631440 0.247403
0.249365 0.633402 0.249365
0.376014 0.635364 0.251327
0.502664 0.637327 0.253289
0.629314 0.639289 0.255251
0.755963 0.641251 0.257213
0.882613 0.643213 0.259176
1.000000 0.645175 0.261138
0.000000 0.758018 0.249293
0.126567 0.759980 0.251255
0.253217 0.761942 0.253217
0.379867 0.763904 0.255179
0.506516 0.765866 0.257141
0.633166 0.767828 0.259103
0.759816 0.769791 0.261066
0.888480 0.770737 0.262012
1.000000 0.771450 0.262725
0.003770 0.886557 0.253145
0.130419 0.888519 0.255107
0.257069 0.890482 0.257069
0.383719 0.892444 0.259031
0.510368 0.894406 0.260993
0.638941 0.895399 0.261986
0.768070 0.896111 0.262699
0.897198 0.896824 0.263412
1.000000 0.897537 0.264124
0.007622 1.000000 0.256997
0.134272 1.000000 0.258959
0.260921 1.000000 0.260921
0.389403 1.000000 0.261960
0.518531 1.000000 0.262673
0.647660 1.000000 0.263385
0.776788 1.000000 0.264098
0.905917 1.000000 0.264811
1.000000 1.000000 0.265524
0.000000 0.000000 0.359557
0.096368 0.000000 0.360365
0.224350 0.000000 0.361174
0.352331 0.000000 0.361982
0.480312 0.000000 0.362790
0.608294 0.000000 0.363599
0.736275 0.000000 0.364407
0.864100 0.001263 0.365350
0.990750 0.003225 0.367313
0.000000 0.103402 0.361144
0.102835 0.107939 0.361952
0.230816 0.112475 0.362760
0.358797 0.117012 0.363569
0.486779 0.121548 0.364377
0.614653 0.125878 0.365278
0.741303 0.127840 0.367240
0.867953 0.129803 0.369203
0.994602 0.131765 0.371165
0.000000 0.236996 0.362731
0.109301 0.241532 0.363539
0.237283 0.246069 0.364347
0.365206 0.250493 0.365206
0.491856 0.252456 0.367168
0.618505 0.254418 0.369130
0.745155 0.256380 0.371093
0.871805 0.258342 0.373055
0.998454 0.260304 0.375017
0.000000 0.370590 0.364318
0.115759 0.375109 0.365134
0.242408 0.377071 0.367096
0.369058 0.379033 0.369058
0.495708 0.380995 0.371020
0.622358 0.382958 0.372983
0.749007 0.384920 0.374945
0.875657 0.386882 0.376907
1.000000 0.388844 0.378869
0.000000 0.501686 0.367024
0.119611 0.503648 0.368986
0.246261 0.505611 0.370948
0.372910 0.507573 0.372910
0.499560 0.509535 0.374873
0.626210 0.511497 0.376835
0.752859 0.513459 0.378797
0.879509 0.515422 0.380759
1.000000 0.517384 0.382721
0.000000 0.630226 0.370876
0.123463 0.632188 0.372838
0.250113 0.634150 0.374800
0.376763 0.636113 0.376763
0.503412 0.638075 0.378725
0.630062 0.640037 0.380687
0.756712 0.641999 0.382649
0.883361 0.643961 0.384611
1.000000 0.645635 0.386285
0.000666 0.758766 0.374728
0.127315 0.760728 0.376690
0.253965 0.762690 0.378653
0.380615 0.764652 0.380615
0.507264 0.766614 0.382577
0.633914 0.768577 0.384539
0.761045 0.770296 0.386259
0.890173 0.771009 0.386972
1.000000 0.771722 0.387684
0.004518 0.887305 0.378580
0.131168 0.889268 0.380543
0.257817 0.891230 0.382505
0.384467 0.893192 0.384467
0.511506 0.894958 0.386233
0.640635 0.895670 0.386945
0.769763 0.896383 0.387658
0.898891 0.897096 0.388371
1.000000 0.897809 0.389084
0.008370 1.000000 0.382433
0.135020 1.000000 0.384395
0.261968 1.000000 0.386206
0.391096 1.000000 0.386919
0.520225 1.000000 0.387632
0.649353 1.000000 0.388345
0.778481 1.000000 0.389057
0.907610 1.000000 0.389770
1.000000 1.000000 0.390483
0.000000 0.000000 0.484553
0.097624 0.000000 0.485361
0.225606 0.000000 0.486169
0.353587 0.000000 0.486978
0.481568 0.000000 0.487786
0.609549 0.000000 0.488594
0.737531 0.000000 0.489403
0.864848 0.002011 0.490786
0.991498 0.003973 0.492748
0.000000 0.105132 0.486139
0.104091 0.109668 0.486948
0.232072 0.114205 0.487756
0.360053 0.118741 0.488565
0.488035 0.123278 0.489373
0.615401 0.126626 0.490714
0.742051 0.128588 0.492676
0.868701 0.130551 0.494638
0.995350 0.132513 0.496600
0.000000 0.238726 0.487726
0.110557 0.243262 0.488535
0.238538 0.247799 0.489343
0.365954 0.251242 0.490642
0.492604 0.253204 0.492604
0.619253 0.255166 0.494566
0.745903 0.257128 0.496528
0.872553 0.259090 0.498490
0.999203 0.261053 0.500453
0.000000 0.372319 0.489313
0.116507 0.375857 0.490569
0.243157 0.377819 0.492532
0.369806 0.379781 0.494494
0.496456 0.381743 0.496456
0.623106 0.383706 0.498418
0.749755 0.385668 0.500380
0.876405 0.387630 0.502343
1.000000 0.389592 0.504305
0.000000 0.502434 0.492459
0.120359 0.504397 0.494422
0.247009 0.506359 0.496384
0.373658 0.508321 0.498346
0.500308 0.510283 0.500308
0.626958 0.512245 0.502270
0.753608 0.514208 0.504233
0.880257 0.516170 0.506195
1.000000 0.518132 0.508157
0.000000 0.630974 0.496312
0.124211 0.632936 0.498274
0.250861 0.634898 0.500236
0.377511 0.636861 0.502198
0.504160 0.638823 0.504160
0.630810 0.640785 0.506123
0.757460 0.642747 0.508085
0.884109 0.644709 0.510047
1.000000 0.645907 0.511244
0.001414 0.759514 0.500164
0.128063 0.761476 0.502126
0.254713 0.763438 0.504088
0.381363 0.765400 0.506050
0.508013 0.767363 0.508013
0.634662 0.769325 0.509975
0.762738 0.770568 0.511218
0.891866 0.771281 0.511931
1.000000 0.771994 0.512644
0.005266 0.888053 0.504016
0.131916 0.890016 0.505978
0.258565 0.891978 0.507940
0.385215 0.893940 0.509903
0.513199 0.895229 0.511192
0.642328 0.895942 0.511905
0.771456 0.896655 0.512617
0.900585 0.897368 0.513330
1.000000 0.898080 0.514043
0.009118 1.000000 0.507868
0.135768 1.000000 0.509830
0.263661 1.000000 0.511166
0.392789 1.000000 0.511878
0.521918 1.000000 0.512591
0.651046 1.000000 0.513304
0.780175 1.000000 0.514017
0.909303 1.000000 0.514729
1.000000 1.000000 0.515442
0.000000 0.000000 0.609548
0.098880 0.000000 0.610357
0.226861 0.000000 0.611165
0.354843 0.000000 0.611973
0.482824 0.000000 0.612782
0.610805 0.000000 0.613590
0.738787 0.000487 0.614398
0.865597 0.002759 0.616222
0.992246 0.004721 0.618184
0.000000 0.106862 0.611135
0.105347 0.111398 0.611944
0.233328 0.115935 0.612752
0.361309 0.120471 0.613560
0.489290 0.125008 0.614369
0.616149 0.127374 0.616149
0.742799 0.129337 0.618112
0.869449 0.131299 0.620074
0.996098 0.133261 0.622036
0.000000 0.240455 0.612722
0.111813 0.244992 0.613531
0.239794 0.249528 0.614339
0.366702 0.251990 0.616077
0.493352 0.253952 0.618039
0.620002 0.255914 0.620002
0.746651 0.257876 0.621964
0.873301 0.259838 0.623926
0.999951 0.261801 0.625888
0.000000 0.374049 0.614309
0.117255 0.376605 0.616005
0.243905 0.378567 0.617967
0.370554 0.380529 0.619929
0.497204 0.382492 0.621892
0.623854 0.384454 0.623854
0.750503 0.386416 0.625816
0.877153 0.388378 0.627778
1.000000 0.390340 0.629740
0.000000 0.503183 0.617895
0.121107 0.505145 0.619857
0.247757 0.507107 0.621819
0.374407 0.509069 0.623782
0.501056 0.511031 0.625744
0.627706 0.512993 0.627706
0.754356 0.514956 0.629668
0.881005 0.516918 0.631630
1.000000 0.518880 0.633593
0.000000 0.631722 0.621747
0.124959 0.633684 0.623709
0.251609 0.635647 0.625672
0.378259 0.637609 0.627634
0.504908 0.639571 0.629596
0.631558 0.641533 0.631558
0.758208 0.643495 0.633520
0.884858 0.645458 0.635483
1.000000 0.646179 0.636204
0.002162 0.760262 0.625599
0.128812 0.762224 0.627562
0.255461 0.764186 0.629524
0.382111 0.766148 0.631486
0.508761 0.768111 0.633448
0.635410 0.770073 0.635410
0.764431 0.770840 0.636177
0.893559 0.771553 0.636890
1.000000 0.772265 0.637603
0.006014 0.888802 0.629452
0.132664 0.890764 0.631414
0.259313 0.892726 0.633376
0.385963 0.894688 0.635338
0.514893 0.895501 0.636151
0.644021 0.896214 0.636864
0.773149 0.896927 0.637577
0.902278 0.897639 0.638289
1.000000 0.898352 0.639002
0.009866 1.000000 0.633304
0.136516 1.000000 0.635266
0.265354 1.000000 0.636125
0.394483 1.000000 0.636838
0.523611 1.000000 0.637550
0.652739 1.000000 0.638263
0.781868 1.000000 0.638976
0.910996 1.000000 0.639689
1.000000 1.000000 0.640401
0.000000 0.000000 0.734544
0.100136 0.000000 0.735352
0.228117 0.000000 0.736161
0.356099 0.000000 0.736969
0.484080 0.000000 0.737777
0.612061 0.000000 0.738586
0.739695 0.001545 0.739695
0.866345 0.003507 0.741657
0.992994 0.005469 0.743619
0.000000 0.108591 0.736131
0.106602 0.113128 0.736939
0.234584 0.117664 0.737748
0.362565 0.122201 0.738556
0.490248 0.126160 0.739623
0.616898 0.128123 0.741585
0.743547 0.130085 0.743547
0.870197 0.132047 0.745509
0.996847 0.134009 0.747472
0.000000 0.242185 0.737718
0.113069 0.246721 0.738526
0.240801 0.250776 0.739551
0.367450 0.252738 0.741513
0.494100 0.254700 0.743475
0.620750 0.256662 0.745437
0.747399 0.258624 0.747399
0.874049 0.260587 0.749362
1.000000 0.262549 0.751324
0.000000 0.375391 0.739478
0.118003 0.377353 0.741441
0.244653 0.379315 0.743403
0.371303 0.381278 0.745365
0.497952 0.383240 0.747327
0.624602 0.385202 0.749289
0.751252 0.387164 0.751252
0.877901 0.389126 0.753214
1.000000 0.391088 0.755176
0.000000 0.503931 0.743331
0.121855 0.505893 0.745293
0.248505 0.507855 0.747255
0.375155 0.509817 0.749217
0.501804 0.511779 0.751179
0.628454 0.513742 0.753142
0.755104 0.515704 0.755104
0.881753 0.517666 0.757066
1.000000 0.519628 0.759028
0.000000 0.632470 0.747183
0.125708 0.634433 0.749145
0.252357 0.636395 0.751107
0.379007 0.638357 0.753069
0.505657 0.640319 0.755032
0.632306 0.642281 0.756994
0.758956 0.644243 0.758956
0.886534 0.645738 0.760450
1.000000 0.646450 0.761163
0.002910 0.761010 0.751035
0.129560 0.762972 0.752997
0.256209 0.764934 0.754959
0.382859 0.766897 0.756922
0.509509 0.768859 0.758884
0.636996 0.770399 0.760424
0.766124 0.771112 0.761137
0.895253 0.771824 0.761849
1.000000 0.772537 0.762562
0.006762 0.889550 0.754887
0.133412 0.891512 0.756849
0.260062 0.893474 0.758812
0.387457 0.895060 0.760398
0.516586 0.895773 0.761110
0.645714 0.896486 0.761823
0.774843 0.897198 0.762536
0.903971 0.897911 0.763249
1.000000 0.898624 0.763961
0.010614 1.000000 0.758739
0.137919 1.000000 0.760371
0.267047 1.000000 0.761084
0.396176 1.000000 0.761797
0.525304 1.000000 0.762510
0.654433 1.000000 0.763222
0.783561 1.000000 0.763935
0.912689 1.000000 0.764648
1.000000 1.000000 0.765361
0.000000 0.000000 0.859540
0.101392 0.000000 0.860348
0.229373 0.000000 0.861156
0.357354 0.000000 0.861965
0.485336 0.000000 0.862773
0.613317 0.000000 0.863581
0.740443 0.002293 0.865131
0.867093 0.004255 0.867093
0.993743 0.006218 0.869055
0.000000 0.110321 0.861127
0.107858 0.114857 0.861935
0.235839 0.119394 0.862743
0.363821 0.123930 0.863552
0.490996 0.126908 0.865058
0.617646 0.128871 0.867021
0.744295 0.130833 0.868983
0.870945 0.132795 0.870945
0.997595 0.134757 0.872907
0.000000 0.243914 0.862714
0.114325 0.248451 0.863522
0.241549 0.251524 0.864986
0.368198 0.253486 0.866948
0.494848 0.255448 0.868911
0.621498 0.257410 0.870873
0.748148 0.259373 0.872835
0.874797 0.261335 0.874797
1.000000 0.263297 0.876759
0.000000 0.376139 0.864914
0.118751 0.378101 0.866876
0.245401 0.380063 0.868838
0.372051 0.382026 0.870801
0.498700 0.383988 0.872763
0.625350 0.385950 0.874725
0.752000 0.387912 0.876687
0.878649 0.389874 0.878649
1.000000 0.391837 0.880612
0.000000 0.504679 0.868766
0.122603 0.506641 0.870728
0.249253 0.508603 0.872691
0.375903 0.510565 0.874653
0.502553 0.512528 0.876615
0.629202 0.514490 0.878577
0.755852 0.516452 0.880539
0.882502 0.518414 0.882502
1.000000 0.520376 0.884464
0.000000 0.633218 0.872618
0.126456 0.635181 0.874581
0.253105 0.637143 0.876543
0.379755 0.639105 0.878505
0.506405 0.641067 0.880467
0.633054 0.643029 0.882429
0.759704 0.644992 0.884392
0.888227 0.646009 0.885409
1.000000 0.646722 0.886122
0.003658 0.761758 0.876471
0.130308 0.763720 0.878433
0.256958 0.765683 0.880395
0.383607 0.767645 0.882357
0.510257 0.769607 0.884319
0.638689 0.770671 0.885383
0.767817 0.771383 0.886096
0.896946 0.772096 0.886809
1.000000 0.772809 0.887521
0.007510 0.890298 0.880323
0.134160 0.892260 0.882285
0.260810 0.894222 0.884247
0.389151 0.895332 0.885357
0.518279 0.896045 0.886070
0.647407 0.896757 0.886782
0.776536 0.897470 0.887495
0.905664 0.898183 0.888208
1.000000 0.898896 0.888921
0.011363 1.000000 0.884175
0.139612 1.000000 0.885331
0.268741 1.000000 0.886043
0.397869 1.000000 0.886756
0.526997 1.000000 0.887469
0.656126 1.000000 0.888182
0.785254 1.000000 0.888894
0.914383 1.000000 0.889607
1.000000 1.000000 0.890320
0.000000 0.000000 0.984535
0.102648 0.000000 0.985344
0.230629 0.000000 0.986152
0.358610 0.000000 0.986960
0.486591 0.000000 0.987769
0.614542 0.001079 0.988604
0.741191 0.003041 0.990566
0.867841 0.005003 0.992528
0.994491 0.006966 0.994491
0.000000 0.112050 0.986122
0.109114 0.116587 0.986931
0.237095 0.121123 0.987739
0.365077 0.125660 0.988547
0.491744 0.127657 0.990494
0.618394 0.129619 0.992456
0.745043 0.131581 0.994418
0.871693 0.133543 0.996381
0.998343 0.135505 0.998343
0.000000 0.245644 0.987709
0.115580 0.250181 0.988518
0.242297 0.252272 0.990422
0.368947 0.254234 0.992384
0.495596 0.256196 0.994346
0.622246 0.258158 0.996308
0.748896 0.260121 0.998271
0.875545 0.262083 1.000000
1.000000 0.264045 1.000000
0.000000 0.376887 0.990350
0.119499 0.378849 0.992312
0.246149 0.380812 0.994274
0.372799 0.382774 0.996236
0.499448 0.384736 0.998198
0.626098 0.386698 1.000000
0.752748 0.388660 1.000000
0.879398 0.390623 1.000000
1.000000 0.392585 1.000000
0.000000 0.505427 0.994202
0.123352 0.507389 0.996164
0.250001 0.509351 0.998126
0.376651 0.511313 1.000000
0.503301 0.513276 1.000000
0.629950 0.515238 1.000000
0.756600 0.517200 1.000000
0.883250 0.519162 1.000000
1.000000 0.520907 1.000000
0.000554 0.633967 0.998054
0.127204 0.635929 1.000000
0.253853 0.637891 1.000000
0.380503 0.639853 1.000000
0.507153 0.641815 1.000000
0.633803 0.643778 1.000000
0.760792 0.645568 1.000000
0.889921 0.646281 1.000000
1.000000 0.646994 1.000000
0.004406 0.762506 1.000000
0.131056 0.764468 1.000000
0.257706 0.766431 1.000000
0.384355 0.768393 1.000000
0.511254 0.770230 1.000000
0.640382 0.770942 1.000000
0.769511 0.771655 1.000000
0.898639 0.772368 1.000000
1.000000 0.773081 1.000000
0.008258 0.891046 1.000000
0.134908 0.893008 1.000000
0.261715 0.894891 1.000000
0.390844 0.895604 1.000000
0.519972 0.896316 1.000000
0.649101 0.897029 1.000000
0.778229 0.897742 1.000000
0.907357 0.898455 1.000000
1.000000 0.899167 1.000000
0.012177 1.000000 1.000000
0.141305 1.000000 1.000000
0.270434 1.000000 1.000000
0.399562 1.000000 1.000000
0.528691 1.000000 1.000000
0.657819 1.000000 1.000000
0.786947 1.000000 1.000000
0.916076 1.000000 1.000000
1.000000 1.000000 1.000000
