assets/luts/cinematic-teal-orange.cube
TITLE "cinematic-teal-orange"
LUT_3D_SIZE 5
0.000000 0.000000 0.054572
0.216789 0.000000 0.018657
0.518975 0.000000 0.000000
0.821161 0.000000 0.000000
1.000000 0.000000 0.000000
0.000000 0.227491 0.000000
0.237572 0.226452 0.000000
0.539757 0.225412 0.000000
0.825754 0.219226 0.000000
1.000000 0.212768 0.000000
0.000000 0.517051 0.000000
0.242792 0.511064 0.000000
0.527933 0.504605 0.000000
0.813075 0.498147 0.000000
1.000000 0.491688 0.000000
0.000000 0.796443 0.000000
0.230112 0.789984 0.000000
0.515254 0.783526 0.000000
0.800396 0.777068 0.000000
1.000000 0.774879 0.000000
0.000000 1.000000 0.000000
0.217433 1.000000 0.000000
0.507964 1.000000 0.000000
0.804144 1.000000 0.000000
1.000000 1.000000 0.000000
0.000000 0.000000 0.332478
0.220825 0.000000 0.296564
0.523011 0.000000 0.260649
0.825197 0.000000 0.224734
1.000000 0.000000 0.199656
0.000000 0.227095 0.261970
0.241608 0.226056 0.226056
0.538150 0.223222 0.199894
0.823292 0.216764 0.193436
1.000000 0.210305 0.186977
0.000000 0.515060 0.200132
0.240329 0.508601 0.193673
0.525471 0.502143 0.187215
0.810612 0.495684 0.180756
1.000000 0.489226 0.174298
0.000000 0.793980 0.187452
0.227650 0.787522 0.180994
0.512792 0.781064 0.174536
0.797933 0.774605 0.168077
1.000000 0.775517 0.155818
0.000000 1.000000 0.174773
0.214971 1.000000 0.168315
0.509710 1.000000 0.156291
0.805889 1.000000 0.143433
1.000000 1.000000 0.130574
0.000000 0.000000 0.610385
0.224862 0.000000 0.574470
0.527047 0.000000 0.538556
0.829233 0.000000 0.502641
1.000000 0.000000 0.488794
0.000000 0.226699 0.539877
0.245644 0.225659 0.503962
0.535688 0.220760 0.489032
0.820829 0.214301 0.482573
1.000000 0.207843 0.476115
0.000000 0.512597 0.489269
0.237867 0.506139 0.482811
0.523008 0.499680 0.476352
0.808150 0.493222 0.469894
1.000000 0.486764 0.463436
0.000000 0.791518 0.476590
0.225188 0.785060 0.470132
0.510329 0.778601 0.463673
0.798645 0.774482 0.455374
1.000000 0.776154 0.442515
0.000000 1.000000 0.463911
0.215277 1.000000 0.455847
0.511456 1.000000 0.442988
0.807635 1.000000 0.430130
1.000000 1.000000 0.417272
0.000000 0.000000 0.888292
0.228898 0.000000 0.852377
0.531083 0.000000 0.816463
0.831046 0.000000 0.784390
1.000000 0.000000 0.777932
0.000000 0.226302 0.817784
0.248084 0.224756 0.784628
0.533225 0.218297 0.778169
0.818367 0.211839 0.771711
1.000000 0.205380 0.765252
0.000000 0.510135 0.778407
0.235404 0.503676 0.771948
0.520546 0.497218 0.765490
0.805688 0.490760 0.759032
1.000000 0.484301 0.752573
0.000000 0.789056 0.765728
0.222725 0.782597 0.759269
0.507867 0.776139 0.752811
0.800391 0.775119 0.742071
1.000000 0.776792 0.729213
0.000000 1.000000 0.753048
0.217023 1.000000 0.742544
0.513202 1.000000 0.729686
0.809381 1.000000 0.716827
1.000000 1.000000 0.703969
0.000000 0.000000 1.000000
0.232934 0.000000 1.000000
0.535119 0.000000 1.000000
0.828584 0.000000 1.000000
1.000000 0.000000 1.000000
0.000000 0.225906 1.000000
0.245621 0.222293 1.000000
0.530763 0.215835 1.000000
0.815904 0.209376 1.000000
1.000000 0.202918 1.000000
0.000000 0.507672 1.000000
0.232942 0.501214 1.000000
0.518084 0.494756 1.000000
0.803225 0.488297 1.000000
1.000000 0.482546 1.000000
0.000000 0.786593 1.000000
0.220263 0.780135 1.000000
0.505958 0.774084 1.000000
0.802137 0.775757 1.000000
1.000000 0.777430 1.000000
0.000000 1.000000 1.000000
0.218769 1.000000 1.000000
0.514948 1.000000 1.000000
0.811127 1.000000 1.000000
1.000000 1.000000 0.990666
