assets/luts/cinematic-teal-orange.cube
TITLE "cinematic-teal-orange"
LUT_3D_SIZE 9
0.000000 0.000000 0.054572
0.065697 0.000000 0.036614
0.216789 0.000000 0.018657
0.367882 0.000000 0.000700
0.518975 0.000000 0.000000
0.670068 0.000000 0.000000
0.821161 0.000000 0.000000
0.972254 0.000000 0.000000
1.000000 0.000000 0.000000
0.000000 0.082711 0.019318
0.076088 0.082192 0.001360
0.227180 0.081672 0.000000
0.378273 0.081152 0.000000
0.529366 0.080633 0.000000
0.680459 0.080113 0.000000
0.831552 0.079593 0.000000
0.974664 0.076536 0.000000
1.000000 0.073307 0.000000
0.000000 0.227491 0.000000
0.086479 0.226972 0.000000
0.237572 0.226452 0.000000
0.388664 0.225932 0.000000
0.539757 0.225412 0.000000
0.683183 0.222455 0.000000
0.825754 0.219226 0.000000
0.968325 0.215997 0.000000
1.000000 0.212768 0.000000
0.000000 0.372271 0.000000
0.096870 0.371751 0.000000
0.247963 0.371232 0.000000
0.391702 0.368374 0.000000
0.534273 0.365145 0.000000
0.676844 0.361916 0.000000
0.819414 0.358686 0.000000
0.961985 0.355457 0.000000
1.000000 0.352228 0.000000
0.000000 0.517051 0.000000
0.100221 0.514293 0.000000
0.242792 0.511064 0.000000
0.385362 0.507834 0.000000
0.527933 0.504605 0.000000
0.670504 0.501376 0.000000
0.813075 0.498147 0.000000
0.955646 0.494918 0.000000
1.000000 0.491688 0.000000
0.000000 0.656982 0.000000
0.093881 0.653753 0.000000
0.236452 0.650524 0.000000
0.379023 0.647295 0.000000
0.521594 0.644066 0.000000
0.664164 0.640836 0.000000
0.806735 0.637607 0.000000
0.949306 0.634378 0.000000
1.000000 0.631149 0.000000
0.000000 0.796443 0.000000
0.087542 0.793214 0.000000
0.230112 0.789984 0.000000
0.372683 0.786755 0.000000
0.515254 0.783526 0.000000
0.657825 0.780297 0.000000
0.800396 0.777068 0.000000
0.943243 0.774042 0.000000
1.000000 0.774879 0.000000
0.000000 0.935903 0.000000
0.081202 0.932674 0.000000
0.223773 0.929445 0.000000
0.366344 0.926216 0.000000
0.508914 0.922986 0.000000
0.651559 0.919812 0.000000
0.799649 0.920648 0.000000
0.947738 0.921484 0.000000
1.000000 0.922321 0.000000
0.000000 1.000000 0.000000
0.074862 1.000000 0.000000
0.217433 1.000000 0.000000
0.360004 1.000000 0.000000
0.507964 1.000000 0.000000
0.656054 1.000000 0.000000
0.804144 1.000000 0.000000
0.952233 1.000000 0.000000
1.000000 1.000000 0.000000
0.000000 0.000000 0.193525
0.067715 0.000000 0.175568
0.218807 0.000000 0.157610
0.369900 0.000000 0.139653
0.520993 0.000000 0.121696
0.672086 0.000000 0.103738
0.823179 0.000000 0.085781
0.974272 0.000000 0.067824
1.000000 0.000000 0.055088
0.000000 0.082513 0.158271
0.078106 0.081994 0.140314
0.229199 0.081474 0.122356
0.380291 0.080954 0.104399
0.531384 0.080435 0.086442
0.682477 0.079915 0.068484
0.830862 0.078534 0.055206
0.973433 0.075305 0.051977
1.000000 0.072076 0.048748
0.000000 0.227293 0.123017
0.088497 0.226773 0.105060
0.239590 0.226254 0.087102
0.390682 0.225734 0.069145
0.539381 0.224453 0.055325
0.681952 0.221224 0.052096
0.824523 0.217995 0.048867
0.967094 0.214766 0.045638
1.000000 0.211536 0.042408
0.000000 0.372073 0.087763
0.098888 0.371553 0.069805
0.247900 0.370372 0.055444
0.390471 0.367143 0.052215
0.533042 0.363914 0.048986
0.675612 0.360684 0.045756
0.818183 0.357455 0.042527
0.960754 0.354226 0.039298
1.000000 0.350997 0.036069
0.000000 0.516291 0.055563
0.098990 0.513062 0.052334
0.241560 0.509832 0.049104
0.384131 0.506603 0.045875
0.526702 0.503374 0.042646
0.669273 0.500145 0.039417
0.811844 0.496916 0.036188
0.954414 0.493686 0.032958
1.000000 0.490457 0.029729
0.000000 0.655751 0.049223
0.092650 0.652522 0.045994
0.235221 0.649293 0.042765
0.377792 0.646064 0.039536
0.520362 0.642834 0.036306
0.662933 0.639605 0.033077
0.805504 0.636376 0.029848
0.948075 0.633147 0.026619
1.000000 0.629918 0.023390
0.000000 0.795212 0.042884
0.086310 0.791982 0.039654
0.228881 0.788753 0.036425
0.371452 0.785524 0.033196
0.514023 0.782295 0.029967
0.656594 0.779066 0.026738
0.799164 0.775836 0.023508
0.944116 0.774361 0.018899
1.000000 0.775198 0.012469
0.000000 0.934672 0.036544
0.079971 0.931443 0.033315
0.222542 0.928214 0.030086
0.365112 0.924984 0.026856
0.507683 0.921755 0.023627
0.652432 0.920130 0.019135
0.800522 0.920967 0.012706
0.948611 0.921803 0.006277
1.000000 0.922640 0.000000
0.000000 1.000000 0.030204
0.073631 1.000000 0.026975
0.216202 1.000000 0.023746
0.360748 1.000000 0.019372
0.508837 1.000000 0.012942
0.656927 1.000000 0.006513
0.805017 1.000000 0.000084
0.953106 1.000000 0.000000
1.000000 1.000000 0.000000
0.000000 0.000000 0.332478
0.069733 0.000000 0.314521
0.220825 0.000000 0.296564
0.371918 0.000000 0.278606
0.523011 0.000000 0.260649
0.674104 0.000000 0.242692
0.825197 0.000000 0.224734
0.976290 0.000000 0.206777
1.000000 0.000000 0.199656
0.000000 0.082315 0.297224
0.080124 0.081795 0.279267
0.231217 0.081276 0.261310
0.382309 0.080756 0.243352
0.533402 0.080236 0.225395
0.684495 0.079717 0.207438
0.829631 0.077303 0.199775
0.972202 0.074074 0.196546
1.000000 0.070845 0.193317
0.000000 0.227095 0.261970
0.090515 0.226575 0.244013
0.241608 0.226056 0.226056
0.392700 0.225536 0.208098
0.538150 0.223222 0.199894
0.680721 0.219993 0.196665
0.823292 0.216764 0.193436
0.965862 0.213534 0.190206
1.000000 0.210305 0.186977
0.000000 0.371875 0.226716
0.100906 0.371355 0.208759
0.246669 0.369141 0.200013
0.389240 0.365912 0.196784
0.531810 0.362682 0.193554
0.674381 0.359453 0.190325
0.816952 0.356224 0.187096
0.959523 0.352995 0.183867
1.000000 0.349766 0.180638
0.000000 0.515060 0.200132
0.097758 0.511830 0.196902
0.240329 0.508601 0.193673
0.382900 0.505372 0.190444
0.525471 0.502143 0.187215
0.668042 0.498914 0.183986
0.810612 0.495684 0.180756
0.953183 0.492455 0.177527
1.000000 0.489226 0.174298
0.000000 0.654520 0.193792
0.091419 0.651291 0.190563
0.233990 0.648062 0.187334
0.376560 0.644832 0.184104
0.519131 0.641603 0.180875
0.661702 0.638374 0.177646
0.804273 0.635145 0.174417
0.946844 0.631916 0.171188
1.000000 0.628686 0.167958
0.000000 0.793980 0.187452
0.085079 0.790751 0.184223
0.227650 0.787522 0.180994
0.370221 0.784293 0.177765
0.512792 0.781064 0.174536
0.655362 0.777834 0.171306
0.797933 0.774605 0.168077
0.944989 0.774680 0.162247
1.000000 0.775517 0.155818
0.000000 0.933441 0.181113
0.078740 0.930212 0.177884
0.221310 0.926982 0.174654
0.363881 0.923753 0.171425
0.506452 0.920524 0.168196
0.653305 0.920449 0.162484
0.801394 0.921286 0.156055
0.949484 0.922122 0.149625
1.000000 0.922959 0.143196
0.000000 1.000000 0.174773
0.072400 1.000000 0.171544
0.214971 1.000000 0.168315
0.361621 1.000000 0.162720
0.509710 1.000000 0.156291
0.657800 1.000000 0.149862
0.805889 1.000000 0.143433
0.953979 1.000000 0.137003
1.000000 1.000000 0.130574
0.000000 0.000000 0.471432
0.071751 0.000000 0.453474
0.222844 0.000000 0.435517
0.373936 0.000000 0.417560
0.525029 0.000000 0.399602
0.676122 0.000000 0.381645
0.827215 0.000000 0.363688
0.977310 0.000000 0.347454
1.000000 0.000000 0.344225
0.000000 0.082117 0.436178
0.082142 0.081597 0.418220
0.233235 0.081078 0.400263
0.384327 0.080558 0.382306
0.535420 0.080038 0.364348
0.685829 0.079301 0.347573
0.828400 0.076072 0.344344
0.970971 0.072843 0.341115
1.000000 0.069614 0.337886
0.000000 0.226897 0.400924
0.092533 0.226377 0.382966
0.243626 0.225857 0.365009
0.394348 0.225220 0.347692
0.536919 0.221991 0.344463
0.679490 0.218762 0.341234
0.822060 0.215532 0.338004
0.964631 0.212303 0.334775
1.000000 0.209074 0.331546
0.000000 0.371677 0.365670
0.102867 0.371139 0.347811
0.245438 0.367910 0.344582
0.388008 0.364680 0.341352
0.530579 0.361451 0.338123
0.673150 0.358222 0.334894
0.815721 0.354993 0.331665
0.958292 0.351764 0.328436
1.000000 0.348534 0.325206
0.000000 0.513828 0.344700
0.096527 0.510599 0.341471
0.239098 0.507370 0.338242
0.381669 0.504141 0.335013
0.524240 0.500912 0.331784
0.666810 0.497682 0.328554
0.809381 0.494453 0.325325
0.951952 0.491224 0.322096
1.000000 0.487995 0.318867
0.000000 0.653289 0.338361
0.090188 0.650060 0.335132
0.232758 0.646830 0.331902
0.375329 0.643601 0.328673
0.517900 0.640372 0.325444
0.660471 0.637143 0.322215
0.803042 0.633914 0.318986
0.945612 0.630684 0.315756
1.000000 0.628393 0.311789
0.000000 0.792749 0.332021
0.083848 0.789520 0.328792
0.226419 0.786291 0.325563
0.368990 0.783062 0.322334
0.511560 0.779832 0.319104
0.654131 0.776603 0.315875
0.797772 0.774163 0.312025
0.945862 0.774999 0.305596
1.000000 0.775836 0.299167
0.000000 0.932210 0.325682
0.077508 0.928980 0.322452
0.220079 0.925751 0.319223
0.362650 0.922522 0.315994
0.506088 0.919932 0.312262
0.654178 0.920768 0.305832
0.802267 0.921605 0.299403
0.950357 0.922441 0.292974
1.000000 0.923278 0.286545
0.000000 1.000000 0.319342
0.071169 1.000000 0.316113
0.214404 1.000000 0.312498
0.362494 1.000000 0.306069
0.510583 1.000000 0.299640
0.658673 1.000000 0.293211
0.806762 1.000000 0.286781
0.954852 1.000000 0.280352
1.000000 1.000000 0.273923
0.000000 0.000000 0.610385
0.073769 0.000000 0.592428
0.224862 0.000000 0.574470
0.375954 0.000000 0.556513
0.527047 0.000000 0.538556
0.678140 0.000000 0.520598
0.829233 0.000000 0.502641
0.976079 0.000000 0.492023
1.000000 0.000000 0.488794
0.000000 0.081919 0.575131
0.084160 0.081399 0.557174
0.235253 0.080880 0.539216
0.386345 0.080360 0.521259
0.537438 0.079840 0.503302
0.684598 0.078070 0.492142
0.827169 0.074841 0.488913
0.969740 0.071612 0.485684
1.000000 0.068382 0.482454
0.000000 0.226699 0.539877
0.094551 0.226179 0.521920
0.245644 0.225659 0.503962
0.393117 0.223989 0.492261
0.535688 0.220760 0.489032
0.678258 0.217530 0.485802
0.820829 0.214301 0.482573
0.963400 0.211072 0.479344
1.000000 0.207843 0.476115
0.000000 0.371478 0.504623
0.101636 0.369908 0.492380
0.244206 0.366678 0.489150
0.386777 0.363449 0.485921
0.529348 0.360220 0.482692
0.671919 0.356991 0.479463
0.814490 0.353762 0.476234
0.957060 0.350532 0.473004
1.000000 0.347303 0.469775
0.000000 0.512597 0.489269
0.095296 0.509368 0.486040
0.237867 0.506139 0.482811
0.380438 0.502910 0.479582
0.523008 0.499680 0.476352
0.665579 0.496451 0.473123
0.808150 0.493222 0.469894
0.950721 0.489993 0.466665
1.000000 0.486764 0.463436
0.000000 0.652058 0.482930
0.088956 0.648828 0.479700
0.231527 0.645599 0.476471
0.374098 0.642370 0.473242
0.516669 0.639141 0.470013
0.659240 0.635912 0.466784
0.801810 0.632682 0.463554
0.944381 0.629453 0.460325
1.000000 0.628712 0.455137
0.000000 0.791518 0.476590
0.082617 0.788289 0.473361
0.225188 0.785060 0.470132
0.367758 0.781830 0.466902
0.510329 0.778601 0.463673
0.652900 0.775372 0.460444
0.798645 0.774482 0.455374
0.946735 0.775318 0.448945
1.000000 0.776154 0.442515
0.000000 0.930978 0.470250
0.076277 0.927749 0.467021
0.218848 0.924520 0.463792
0.361419 0.921291 0.460563
0.506961 0.920251 0.455610
0.655051 0.921087 0.449181
0.803140 0.921924 0.442752
0.951230 0.922760 0.436323
1.000000 0.923597 0.429894
0.000000 1.000000 0.463911
0.069938 1.000000 0.460682
0.215277 1.000000 0.455847
0.363367 1.000000 0.449418
0.511456 1.000000 0.442988
0.659546 1.000000 0.436559
0.807635 1.000000 0.430130
0.955725 1.000000 0.423701
1.000000 1.000000 0.417272
0.000000 0.000000 0.749339
0.075787 0.000000 0.731381
0.226880 0.000000 0.713424
0.377972 0.000000 0.695467
0.529065 0.000000 0.677509
0.680158 0.000000 0.659552
0.831251 0.000000 0.641594
0.974848 0.000000 0.636592
1.000000 0.000000 0.633363
0.000000 0.081721 0.714085
0.086178 0.081201 0.696127
0.237271 0.080681 0.678170
0.388363 0.080162 0.660212
0.539456 0.079642 0.642255
0.683367 0.076839 0.636711
0.825938 0.073610 0.633482
0.968508 0.070380 0.630252
1.000000 0.067151 0.627023
0.000000 0.226501 0.678830
0.096569 0.225981 0.660873
0.247662 0.225461 0.642916
0.391886 0.222758 0.636830
0.534456 0.219528 0.633600
0.677027 0.216299 0.630371
0.819598 0.213070 0.627142
0.962169 0.209841 0.623913
1.000000 0.206612 0.620684
0.000000 0.371280 0.643576
0.100404 0.368676 0.636948
0.242975 0.365447 0.633719
0.385546 0.362218 0.630490
0.528117 0.358989 0.627261
0.670688 0.355760 0.624032
0.813258 0.352530 0.620802
0.955829 0.349301 0.617573
1.000000 0.346072 0.614344
0.000000 0.511366 0.633838
0.094065 0.508137 0.630609
0.236636 0.504908 0.627380
0.379206 0.501678 0.624150
0.521777 0.498449 0.620921
0.664348 0.495220 0.617692
0.806919 0.491991 0.614463
0.949490 0.488762 0.611234
1.000000 0.485532 0.608004
0.000000 0.650826 0.627498
0.087725 0.647597 0.624269
0.230296 0.644368 0.621040
0.372867 0.641139 0.617811
0.515438 0.637910 0.614582
0.658008 0.634680 0.611352
0.800579 0.631451 0.608123
0.943150 0.628222 0.604894
1.000000 0.629031 0.598486
0.000000 0.790287 0.621159
0.081386 0.787058 0.617930
0.223956 0.783828 0.614700
0.366527 0.780599 0.611471
0.509098 0.777370 0.608242
0.651669 0.774141 0.605013
0.799518 0.774800 0.598723
0.947608 0.775637 0.592293
1.000000 0.776473 0.585864
0.000000 0.929747 0.614819
0.075046 0.926518 0.611590
0.217617 0.923289 0.608361
0.360188 0.920060 0.605132
0.507834 0.920570 0.598959
0.655924 0.921406 0.592530
0.804013 0.922243 0.586101
0.952103 0.923079 0.579671
1.000000 0.923916 0.573242
0.000000 1.000000 0.608480
0.068706 1.000000 0.605250
0.216150 1.000000 0.599196
0.364240 1.000000 0.592766
0.512329 1.000000 0.586337
0.660419 1.000000 0.579908
0.808508 1.000000 0.573479
0.956598 1.000000 0.567050
1.000000 1.000000 0.560620
0.000000 0.000000 0.888292
0.077805 0.000000 0.870335
0.228898 0.000000 0.852377
0.379990 0.000000 0.834420
0.531083 0.000000 0.816463
0.682176 0.000000 0.798505
0.831046 0.000000 0.784390
0.973617 0.000000 0.781161
1.000000 0.000000 0.777932
0.000000 0.081523 0.853038
0.088196 0.081003 0.835081
0.239289 0.080483 0.817123
0.390381 0.079964 0.799166
0.539565 0.078837 0.784509
0.682136 0.075608 0.781280
0.824706 0.072378 0.778050
0.967277 0.069149 0.774821
1.000000 0.065920 0.771592
0.000000 0.226302 0.817784
0.098587 0.225783 0.799826
0.248084 0.224756 0.784628
0.390654 0.221526 0.781398
0.533225 0.218297 0.778169
0.675796 0.215068 0.774940
0.818367 0.211839 0.771711
0.960938 0.208610 0.768482
1.000000 0.205380 0.765252
0.000000 0.370674 0.784746
0.099173 0.367445 0.781517
0.241744 0.364216 0.778288
0.384315 0.360987 0.775059
0.526886 0.357758 0.771830
0.669456 0.354528 0.768600
0.812027 0.351299 0.765371
0.954598 0.348070 0.762142
1.000000 0.344841 0.758913
0.000000 0.510135 0.778407
0.092834 0.506906 0.775178
0.235404 0.503676 0.771948
0.377975 0.500447 0.768719
0.520546 0.497218 0.765490
0.663117 0.493989 0.762261
0.805688 0.490760 0.759032
0.948258 0.487530 0.755802
1.000000 0.484301 0.752573
0.000000 0.649595 0.772067
0.086494 0.646366 0.768838
0.229065 0.643137 0.765609
0.371636 0.639908 0.762380
0.514206 0.636678 0.759150
0.656777 0.633449 0.755921
0.799348 0.630220 0.752692
0.943986 0.628514 0.748264
1.000000 0.629350 0.741835
0.000000 0.789056 0.765728
0.080154 0.785826 0.762498
0.222725 0.782597 0.759269
0.365296 0.779368 0.756040
0.507867 0.776139 0.752811
0.652302 0.774283 0.748501
0.800391 0.775119 0.742071
0.948481 0.775956 0.735642
1.000000 0.776792 0.729213
0.000000 0.928516 0.759388
0.073815 0.925287 0.756159
0.216386 0.922058 0.752930
0.360618 0.920052 0.748737
0.508707 0.920889 0.742308
0.656797 0.921725 0.735879
0.804886 0.922562 0.729449
0.952976 0.923398 0.723020
1.000000 0.924234 0.716591
0.000000 1.000000 0.753048
0.068933 1.000000 0.748974
0.217023 1.000000 0.742544
0.365112 1.000000 0.736115
0.513202 1.000000 0.729686
0.661292 1.000000 0.723257
0.809381 1.000000 0.716827
0.957471 1.000000 0.710398
1.000000 1.000000 0.703969
0.000000 0.000000 1.000000
0.079823 0.000000 1.000000
0.230916 0.000000 0.991331
0.382008 0.000000 0.973373
0.533101 0.000000 0.955416
0.684194 0.000000 0.937459
0.829815 0.000000 0.928959
0.972386 0.000000 0.925730
1.000000 0.000000 0.922500
0.000000 0.081324 0.991991
0.090214 0.080805 0.974034
0.241307 0.080285 0.956077
0.392399 0.079765 0.938119
0.538334 0.077606 0.929078
0.680904 0.074376 0.925848
0.823475 0.071147 0.922619
0.966046 0.067918 0.919390
1.000000 0.064689 0.916161
0.000000 0.226104 0.956737
0.100605 0.225585 0.938780
0.246852 0.223524 0.929196
0.389423 0.220295 0.925967
0.531994 0.217066 0.922738
0.674565 0.213837 0.919509
0.817136 0.210608 0.916280
0.959706 0.207378 0.913050
1.000000 0.204149 0.909821
0.000000 0.369443 0.929315
0.097942 0.366214 0.926086
0.240513 0.362985 0.922857
0.383084 0.359756 0.919628
0.525654 0.356526 0.916398
0.668225 0.353297 0.913169
0.810796 0.350068 0.909940
0.953367 0.346839 0.906711
1.000000 0.343610 0.903482
0.000000 0.508904 0.922976
0.091602 0.505674 0.919746
0.234173 0.502445 0.916517
0.376744 0.499216 0.913288
0.519315 0.495987 0.910059
0.661886 0.492758 0.906830
0.804456 0.489528 0.903600
0.947027 0.486299 0.900371
1.000000 0.483070 0.897142
0.000000 0.648364 0.916636
0.085263 0.645135 0.913407
0.227834 0.641906 0.910178
0.370404 0.638676 0.906948
0.512975 0.635447 0.903719
0.655546 0.632218 0.900490
0.798117 0.628989 0.897261
0.944859 0.628833 0.891613
1.000000 0.629669 0.885184
0.000000 0.787824 0.910296
0.078923 0.784595 0.907067
0.221494 0.781366 0.903838
0.364065 0.778137 0.900609
0.506636 0.774908 0.897380
0.653175 0.774602 0.891849
0.801264 0.775438 0.885420
0.949354 0.776275 0.878991
1.000000 0.777111 0.872562
0.000000 0.927285 0.903957
0.072584 0.924056 0.900728
0.215154 0.920826 0.897498
0.361490 0.920371 0.892086
0.509580 0.921207 0.885657
0.657670 0.922044 0.879227
0.805759 0.922880 0.872798
0.953849 0.923717 0.866369
1.000000 0.924553 0.859940
0.000000 1.000000 0.897617
0.069806 1.000000 0.892322
0.217896 1.000000 0.885893
0.365985 1.000000 0.879464
0.514075 1.000000 0.873035
0.662165 1.000000 0.866605
0.810254 1.000000 0.860176
0.958344 1.000000 0.853747
1.000000 1.000000 0.847318
0.000000 0.000000 1.000000
0.081841 0.000000 1.000000
0.232934 0.000000 1.000000
0.384026 0.000000 1.000000
0.535119 0.000000 1.000000
0.686013 0.000000 1.000000
0.828584 0.000000 1.000000
0.971154 0.000000 1.000000
1.000000 0.000000 1.000000
0.000000 0.081126 1.000000
0.092232 0.080607 1.000000
0.243325 0.080087 1.000000
0.394418 0.079567 1.000000
0.537102 0.076374 1.000000
0.679673 0.073145 1.000000
0.822244 0.069916 1.000000
0.964815 0.066687 1.000000
1.000000 0.063458 1.000000
0.000000 0.225906 1.000000
0.102623 0.225386 1.000000
0.245621 0.222293 1.000000
0.388192 0.219064 1.000000
0.530763 0.215835 1.000000
0.673334 0.212606 1.000000
0.815904 0.209376 1.000000
0.958475 0.206147 1.000000
1.000000 0.202918 1.000000
0.000000 0.368212 1.000000
0.096711 0.364983 1.000000
0.239282 0.361754 1.000000
0.381852 0.358524 1.000000
0.524423 0.355295 1.000000
0.666994 0.352066 1.000000
0.809565 0.348837 1.000000
0.952136 0.345608 1.000000
1.000000 0.342378 1.000000
0.000000 0.507672 1.000000
0.090371 0.504443 1.000000
0.232942 0.501214 1.000000
0.375513 0.497985 1.000000
0.518084 0.494756 1.000000
0.660654 0.491526 1.000000
0.803225 0.488297 1.000000
0.945796 0.485068 1.000000
1.000000 0.482546 1.000000
0.000000 0.647133 1.000000
0.084032 0.643904 1.000000
0.226602 0.640674 1.000000
0.369173 0.637445 1.000000
0.511744 0.634216 1.000000
0.654315 0.630987 1.000000
0.797642 0.628315 1.000000
0.945732 0.629151 1.000000
1.000000 0.629988 1.000000
0.000000 0.786593 1.000000
0.077692 0.783364 1.000000
0.220263 0.780135 1.000000
0.362834 0.776906 1.000000
0.505958 0.774084 1.000000
0.654048 0.774921 1.000000
0.802137 0.775757 1.000000
0.950227 0.776594 1.000000
1.000000 0.777430 1.000000
0.000000 0.926054 1.000000
0.071352 0.922824 1.000000
0.214274 0.919853 1.000000
0.362363 0.920690 1.000000
0.510453 0.921526 1.000000
0.658543 0.922363 1.000000
0.806632 0.923199 1.000000
0.954722 0.924036 1.000000
1.000000 0.924872 1.000000
0.000000 1.000000 1.000000
0.070679 1.000000 1.000000
0.218769 1.000000 1.000000
0.366858 1.000000 1.000000
0.514948 1.000000 1.000000
0.663038 1.000000 1.000000
0.811127 1.000000 1.000000
0.959217 1.000000 0.997096
1.000000 1.000000 0.990666
