assets/luts/cinematic-teal-orange.cube
TITLE "cinematic-teal-orange"
LUT_3D_SIZE 17
0.000000 0.000000 0.054572
0.000000 0.000000 0.045593
0.065697 0.000000 0.036614
0.141243 0.000000 0.027636
0.216789 0.000000 0.018657
0.292336 0.000000 0.009678
0.367882 0.000000 0.000700
0.443429 0.000000 0.000000
0.518975 0.000000 0.000000
0.594522 0.000000 0.000000
0.670068 0.000000 0.000000
0.745615 0.000000 0.000000
0.821161 0.000000 0.000000
0.896707 0.000000 0.000000
0.972254 0.000000 0.000000
1.000000 0.000000 0.000000
1.000000 0.000000 0.000000
0.000000 0.010322 0.036945
0.000000 0.010062 0.027966
0.070892 0.009802 0.018987
0.146439 0.009542 0.010009
0.221985 0.009282 0.001030
0.297531 0.009022 0.000000
0.373078 0.008763 0.000000
0.448624 0.008503 0.000000
0.524171 0.008243 0.000000
0.599717 0.007983 0.000000
0.675264 0.007723 0.000000
0.750810 0.007463 0.000000
0.826356 0.007203 0.000000
0.901903 0.006944 0.000000
0.977449 0.006684 0.000000
1.000000 0.005192 0.000000
1.000000 0.003577 0.000000
0.000000 0.082711 0.019318
0.000541 0.082452 0.010339
0.076088 0.082192 0.001360
0.151634 0.081932 0.000000
0.227180 0.081672 0.000000
0.302727 0.081412 0.000000
0.378273 0.081152 0.000000
0.453820 0.080893 0.000000
0.529366 0.080633 0.000000
0.604913 0.080373 0.000000
0.680459 0.080113 0.000000
0.756006 0.079853 0.000000
0.831552 0.079593 0.000000
0.903379 0.078151 0.000000
0.974664 0.076536 0.000000
1.000000 0.074922 0.000000
1.000000 0.073307 0.000000
0.000000 0.155101 0.001691
0.005737 0.154841 0.000000
0.081283 0.154582 0.000000
0.156830 0.154322 0.000000
0.232376 0.154062 0.000000
0.307922 0.153802 0.000000
0.383469 0.153542 0.000000
0.459015 0.153282 0.000000
0.534562 0.153023 0.000000
0.610108 0.152763 0.000000
0.685655 0.152503 0.000000
0.757638 0.151110 0.000000
0.828924 0.149496 0.000000
0.900209 0.147881 0.000000
0.971495 0.146267 0.000000
1.000000 0.144652 0.000000
1.000000 0.143037 0.000000
0.000000 0.227491 0.000000
0.010932 0.227231 0.000000
0.086479 0.226972 0.000000
0.162025 0.226712 0.000000
0.237572 0.226452 0.000000
0.313118 0.226192 0.000000
0.388664 0.225932 0.000000
0.464211 0.225672 0.000000
0.539757 0.225412 0.000000
0.611898 0.224070 0.000000
0.683183 0.222455 0.000000
0.754469 0.220841 0.000000
0.825754 0.219226 0.000000
0.897039 0.217611 0.000000
0.968325 0.215997 0.000000
1.000000 0.214382 0.000000
1.000000 0.212768 0.000000
0.000000 0.299881 0.000000
0.016128 0.299621 0.000000
0.091674 0.299361 0.000000
0.167221 0.299102 0.000000
0.242767 0.298842 0.000000
0.318313 0.298582 0.000000
0.393860 0.298322 0.000000
0.466157 0.297029 0.000000
0.537443 0.295415 0.000000
0.608728 0.293800 0.000000
0.680013 0.292185 0.000000
0.751299 0.290571 0.000000
0.822584 0.288956 0.000000
0.893870 0.287342 0.000000
0.965155 0.285727 0.000000
1.000000 0.284112 0.000000
1.000000 0.282498 0.000000
0.000000 0.372271 0.000000
0.021323 0.372011 0.000000
0.096870 0.371751 0.000000
0.172416 0.371491 0.000000
0.247963 0.371232 0.000000
0.320417 0.369989 0.000000
0.391702 0.368374 0.000000
0.462987 0.366759 0.000000
0.534273 0.365145 0.000000
0.605558 0.363530 0.000000
0.676844 0.361916 0.000000
0.748129 0.360301 0.000000
0.819414 0.358686 0.000000
0.890700 0.357072 0.000000
0.961985 0.355457 0.000000
1.000000 0.353843 0.000000
1.000000 0.352228 0.000000
0.000000 0.444661 0.000000
0.026519 0.444401 0.000000
0.102065 0.444141 0.000000
0.174676 0.442948 0.000000
0.245961 0.441333 0.000000
0.317247 0.439719 0.000000
0.388532 0.438104 0.000000
0.459818 0.436490 0.000000
0.531103 0.434875 0.000000
0.602388 0.433260 0.000000
0.673674 0.431646 0.000000
0.744959 0.430031 0.000000
0.816245 0.428417 0.000000
0.887530 0.426802 0.000000
0.958815 0.425187 0.000000
1.000000 0.423573 0.000000
1.000000 0.421958 0.000000
0.000000 0.517051 0.000000
0.028935 0.515907 0.000000
0.100221 0.514293 0.000000
0.171506 0.512678 0.000000
0.242792 0.511064 0.000000
0.314077 0.509449 0.000000
0.385362 0.507834 0.000000
0.456648 0.506220 0.000000
0.527933 0.504605 0.000000
0.599219 0.502991 0.000000
0.670504 0.501376 0.000000
0.741789 0.499761 0.000000
0.813075 0.498147 0.000000
0.884360 0.496532 0.000000
0.955646 0.494918 0.000000
1.000000 0.493303 0.000000
1.000000 0.491688 0.000000
0.000000 0.587252 0.000000
0.025766 0.585638 0.000000
0.097051 0.584023 0.000000
0.168336 0.582408 0.000000
0.239622 0.580794 0.000000
0.310907 0.579179 0.000000
0.382193 0.577565 0.000000
0.453478 0.575950 0.000000
0.524763 0.574335 0.000000
0.596049 0.572721 0.000000
0.667334 0.571106 0.000000
0.738620 0.569492 0.000000
0.809905 0.567877 0.000000
0.881190 0.566262 0.000000
0.952476 0.564648 0.000000
1.000000 0.563033 0.000000
1.000000 0.561419 0.000000
0.000000 0.656982 0.000000
0.022596 0.655368 0.000000
0.093881 0.653753 0.000000
0.165167 0.652139 0.000000
0.236452 0.650524 0.000000
0.307737 0.648909 0.000000
0.379023 0.647295 0.000000
0.450308 0.645680 0.000000
0.521594 0.644066 0.000000
0.592879 0.642451 0.000000
0.664164 0.640836 0.000000
0.735450 0.639222 0.000000
0.806735 0.637607 0.000000
0.878021 0.635993 0.000000
0.949306 0.634378 0.000000
1.000000 0.632763 0.000000
1.000000 0.631149 0.000000
0.000000 0.726713 0.000000
0.019426 0.725098 0.000000
0.090711 0.723483 0.000000
0.161997 0.721869 0.000000
0.233282 0.720254 0.000000
0.304568 0.718640 0.000000
0.375853 0.717025 0.000000
0.447138 0.715410 0.000000
0.518424 0.713796 0.000000
0.589709 0.712181 0.000000
0.660995 0.710567 0.000000
0.732280 0.708952 0.000000
0.803565 0.707337 0.000000
0.874851 0.705723 0.000000
0.946136 0.704108 0.000000
1.000000 0.702494 0.000000
1.000000 0.701158 0.000000
0.000000 0.796443 0.000000
0.016256 0.794828 0.000000
0.087542 0.793214 0.000000
0.158827 0.791599 0.000000
0.230112 0.789984 0.000000
0.301398 0.788370 0.000000
0.372683 0.786755 0.000000
0.443969 0.785141 0.000000
0.515254 0.783526 0.000000
0.586539 0.781911 0.000000
0.657825 0.780297 0.000000
0.729110 0.778682 0.000000
0.800396 0.777068 0.000000
0.871681 0.775453 0.000000
0.943243 0.774042 0.000000
1.000000 0.774461 0.000000
1.000000 0.774879 0.000000
0.000000 0.866173 0.000000
0.013086 0.864558 0.000000
0.084372 0.862944 0.000000
0.155657 0.861329 0.000000
0.226943 0.859715 0.000000
0.298228 0.858100 0.000000
0.369513 0.856485 0.000000
0.440799 0.854871 0.000000
0.512084 0.853256 0.000000
0.583370 0.851642 0.000000
0.654655 0.850027 0.000000
0.725940 0.848412 0.000000
0.797401 0.846927 0.000000
0.871446 0.847345 0.000000
0.945491 0.847763 0.000000
1.000000 0.848182 0.000000
1.000000 0.848600 0.000000
0.000000 0.935903 0.000000
0.009917 0.934289 0.000000
0.081202 0.932674 0.000000
0.152487 0.931059 0.000000
0.223773 0.929445 0.000000
0.295058 0.927830 0.000000
0.366344 0.926216 0.000000
0.437629 0.924601 0.000000
0.508914 0.922986 0.000000
0.580200 0.921372 0.000000
0.651559 0.919812 0.000000
0.725604 0.920230 0.000000
0.799649 0.920648 0.000000
0.873693 0.921066 0.000000
0.947738 0.921484 0.000000
1.000000 0.921903 0.000000
1.000000 0.922321 0.000000
0.000000 1.000000 0.000000
0.006747 1.000000 0.000000
0.078032 1.000000 0.000000
0.149318 1.000000 0.000000
0.220603 0.999175 0.000000
0.291888 0.997560 0.000000
0.363174 0.995946 0.000000
0.434459 0.994331 0.000000
0.505745 0.992717 0.000000
0.579762 0.993114 0.000000
0.653806 0.993533 0.000000
0.727851 0.993951 0.000000
0.801896 0.994369 0.000000
0.875941 0.994787 0.000000
0.949986 0.995206 0.000000
1.000000 0.995624 0.000000
1.000000 0.996042 0.000000
0.000000 1.000000 0.000000
0.003577 1.000000 0.000000
0.074862 1.000000 0.000000
0.146148 1.000000 0.000000
0.217433 1.000000 0.000000
0.288719 1.000000 0.000000
0.360004 1.000000 0.000000
0.433920 1.000000 0.000000
0.507964 1.000000 0.000000
0.582009 1.000000 0.000000
0.656054 1.000000 0.000000
0.730099 1.000000 0.000000
0.804144 1.000000 0.000000
0.878188 1.000000 0.000000
0.952233 1.000000 0.000000
1.000000 1.000000 0.000000
1.000000 1.000000 0.000000
0.000000 0.000000 0.124048
0.000000 0.000000 0.115070
0.066706 0.000000 0.106091
0.142252 0.000000 0.097112
0.217798 0.000000 0.088134
0.293345 0.000000 0.079155
0.368891 0.000000 0.070176
0.444438 0.000000 0.061198
0.519984 0.000000 0.052219
0.595531 0.000000 0.043240
0.671077 0.000000 0.034262
0.746624 0.000000 0.025283
0.822170 0.000000 0.016304
0.897716 0.000000 0.007326
0.973263 0.000000 0.000000
1.000000 0.000000 0.000000
1.000000 0.000000 0.000000
0.000000 0.010223 0.106421
0.000000 0.009963 0.097443
0.071901 0.009703 0.088464
0.147448 0.009443 0.079485
0.222994 0.009183 0.070507
0.298540 0.008923 0.061528
0.374087 0.008663 0.052549
0.449633 0.008404 0.043571
0.525180 0.008144 0.034592
0.600726 0.007884 0.025613
0.676273 0.007624 0.016635
0.751819 0.007364 0.007656
0.827365 0.007104 0.000000
0.902912 0.006845 0.000000
0.977219 0.006191 0.000000
1.000000 0.004576 0.000000
1.000000 0.002961 0.000000
0.000000 0.082612 0.088794
0.001550 0.082353 0.079816
0.077097 0.082093 0.070837
0.152643 0.081833 0.061858
0.228189 0.081573 0.052880
0.303736 0.081313 0.043901
0.379282 0.081053 0.034922
0.454829 0.080793 0.025944
0.530375 0.080534 0.016965
0.605922 0.080274 0.007986
0.681468 0.080014 0.000000
0.757015 0.079754 0.000000
0.831478 0.079150 0.000000
0.902763 0.077535 0.000000
0.974049 0.075921 0.000000
1.000000 0.074306 0.000000
1.000000 0.072692 0.000000
0.000000 0.155002 0.071167
0.006746 0.154742 0.062189
0.082292 0.154483 0.053210
0.157839 0.154223 0.044231
0.233385 0.153963 0.035253
0.308931 0.153703 0.026274
0.384478 0.153443 0.017295
0.460024 0.153183 0.008316
0.535571 0.152924 0.000000
0.611117 0.152664 0.000000
0.685737 0.152109 0.000000
0.757023 0.150495 0.000000
0.828308 0.148880 0.000000
0.899594 0.147266 0.000000
0.970879 0.145651 0.000000
1.000000 0.144036 0.000000
1.000000 0.142422 0.000000
0.000000 0.227392 0.053540
0.011941 0.227132 0.044562
0.087488 0.226872 0.035583
0.163034 0.226613 0.026604
0.238581 0.226353 0.017625
0.314127 0.226093 0.008647
0.389673 0.225833 0.000000
0.465220 0.225573 0.000000
0.539997 0.225069 0.000000
0.611282 0.223454 0.000000
0.682568 0.221840 0.000000
0.753853 0.220225 0.000000
0.825138 0.218610 0.000000
0.896424 0.216996 0.000000
0.967709 0.215381 0.000000
1.000000 0.213767 0.000000
1.000000 0.212152 0.000000
0.000000 0.299782 0.035913
0.017137 0.299522 0.026934
0.092683 0.299262 0.017956
0.168230 0.299002 0.008977
0.243776 0.298743 0.000000
0.319322 0.298483 0.000000
0.394256 0.298028 0.000000
0.465542 0.296414 0.000000
0.536827 0.294799 0.000000
0.608112 0.293184 0.000000
0.679398 0.291570 0.000000
0.750683 0.289955 0.000000
0.821969 0.288341 0.000000
0.893254 0.286726 0.000000
0.964539 0.285111 0.000000
1.000000 0.283497 0.000000
1.000000 0.281882 0.000000
0.000000 0.372172 0.018286
0.022332 0.371912 0.009307
0.097879 0.371652 0.000329
0.173425 0.371392 0.000000
0.248516 0.370988 0.000000
0.319801 0.369373 0.000000
0.391086 0.367758 0.000000
0.462372 0.366144 0.000000
0.533657 0.364529 0.000000
0.604943 0.362915 0.000000
0.676228 0.361300 0.000000
0.747513 0.359685 0.000000
0.818799 0.358071 0.000000
0.890084 0.356456 0.000000
0.961370 0.354842 0.000000
1.000000 0.353227 0.000000
1.000000 0.351612 0.000000
0.000000 0.444562 0.000659
0.027528 0.444302 0.000000
0.102775 0.443947 0.000000
0.174060 0.442332 0.000000
0.245346 0.440718 0.000000
0.316631 0.439103 0.000000
0.387917 0.437489 0.000000
0.459202 0.435874 0.000000
0.530487 0.434259 0.000000
0.601773 0.432645 0.000000
0.673058 0.431030 0.000000
0.744344 0.429416 0.000000
0.815629 0.427801 0.000000
0.886914 0.426186 0.000000
0.958200 0.424572 0.000000
1.000000 0.422957 0.000000
1.000000 0.421343 0.000000
0.000000 0.516906 0.000000
0.028320 0.515292 0.000000
0.099605 0.513677 0.000000
0.170891 0.512063 0.000000
0.242176 0.510448 0.000000
0.313461 0.508833 0.000000
0.384747 0.507219 0.000000
0.456032 0.505604 0.000000
0.527318 0.503990 0.000000
0.598603 0.502375 0.000000
0.669888 0.500760 0.000000
0.741174 0.499146 0.000000
0.812459 0.497531 0.000000
0.883745 0.495917 0.000000
0.955030 0.494302 0.000000
1.000000 0.492687 0.000000
1.000000 0.491073 0.000000
0.000000 0.586637 0.000000
0.025150 0.585022 0.000000
0.096435 0.583407 0.000000
0.167721 0.581793 0.000000
0.239006 0.580178 0.000000
0.310292 0.578564 0.000000
0.381577 0.576949 0.000000
0.452862 0.575334 0.000000
0.524148 0.573720 0.000000
0.595433 0.572105 0.000000
0.666719 0.570491 0.000000
0.738004 0.568876 0.000000
0.809289 0.567261 0.000000
0.880575 0.565647 0.000000
0.951860 0.564032 0.000000
1.000000 0.562418 0.000000
1.000000 0.560803 0.000000
0.000000 0.656367 0.000000
0.021980 0.654752 0.000000
0.093266 0.653138 0.000000
0.164551 0.651523 0.000000
0.235836 0.649908 0.000000
0.307122 0.648294 0.000000
0.378407 0.646679 0.000000
0.449693 0.645065 0.000000
0.520978 0.643450 0.000000
0.592263 0.641835 0.000000
0.663549 0.640221 0.000000
0.734834 0.638606 0.000000
0.806120 0.636992 0.000000
0.877405 0.635377 0.000000
0.948690 0.633762 0.000000
1.000000 0.632148 0.000000
1.000000 0.630533 0.000000
0.000000 0.726097 0.000000
0.018810 0.724482 0.000000
0.090096 0.722868 0.000000
0.161381 0.721253 0.000000
0.232667 0.719639 0.000000
0.303952 0.718024 0.000000
0.375237 0.716409 0.000000
0.446523 0.714795 0.000000
0.517808 0.713180 0.000000
0.589094 0.711566 0.000000
0.660379 0.709951 0.000000
0.731664 0.708336 0.000000
0.802950 0.706722 0.000000
0.874235 0.705107 0.000000
0.945521 0.703493 0.000000
1.000000 0.701878 0.000000
1.000000 0.701317 0.000000
0.000000 0.795827 0.000000
0.015641 0.794213 0.000000
0.086926 0.792598 0.000000
0.158211 0.790983 0.000000
0.229497 0.789369 0.000000
0.300782 0.787754 0.000000
0.372068 0.786140 0.000000
0.443353 0.784525 0.000000
0.514638 0.782910 0.000000
0.585924 0.781296 0.000000
0.657209 0.779681 0.000000
0.728495 0.778067 0.000000
0.799780 0.776452 0.000000
0.871065 0.774837 0.000000
0.943680 0.774202 0.000000
1.000000 0.774620 0.000000
1.000000 0.775038 0.000000
0.000000 0.865557 0.000000
0.012471 0.863943 0.000000
0.083756 0.862328 0.000000
0.155042 0.860714 0.000000
0.226327 0.859099 0.000000
0.297612 0.857484 0.000000
0.368898 0.855870 0.000000
0.440183 0.854255 0.000000
0.511469 0.852641 0.000000
0.582754 0.851026 0.000000
0.654039 0.849411 0.000000
0.725325 0.847797 0.000000
0.797838 0.847086 0.000000
0.871882 0.847505 0.000000
0.945927 0.847923 0.000000
1.000000 0.848341 0.000000
1.000000 0.848759 0.000000
0.000000 0.935288 0.000000
0.009301 0.933673 0.000000
0.080586 0.932058 0.000000
0.151872 0.930444 0.000000
0.223157 0.928829 0.000000
0.294443 0.927215 0.000000
0.365728 0.925600 0.000000
0.437013 0.923985 0.000000
0.508299 0.922371 0.000000
0.579584 0.920756 0.000000
0.651995 0.919971 0.000000
0.726040 0.920389 0.000000
0.800085 0.920807 0.000000
0.874130 0.921226 0.000000
0.948175 0.921644 0.000000
1.000000 0.922062 0.000000
1.000000 0.922480 0.000000
0.000000 1.000000 0.000000
0.006131 1.000000 0.000000
0.077417 1.000000 0.000000
0.148702 1.000000 0.000000
0.219987 0.998559 0.000000
0.291273 0.996945 0.000000
0.362558 0.995330 0.000000
0.433844 0.993716 0.000000
0.506153 0.992856 0.000000
0.580198 0.993274 0.000000
0.654243 0.993692 0.000000
0.728288 0.994110 0.000000
0.802333 0.994529 0.000000
0.876377 0.994947 0.000000
0.950422 0.995365 0.000000
1.000000 0.995783 0.000000
1.000000 0.996201 0.000000
0.000000 1.000000 0.000000
0.002961 1.000000 0.000000
0.074247 1.000000 0.000000
0.145532 1.000000 0.000000
0.216818 1.000000 0.000000
0.288103 1.000000 0.000000
0.360311 1.000000 0.000000
0.434356 1.000000 0.000000
0.508401 1.000000 0.000000
0.582446 1.000000 0.000000
0.656490 1.000000 0.000000
0.730535 1.000000 0.000000
0.804580 1.000000 0.000000
0.878625 1.000000 0.000000
0.952670 1.000000 0.000000
1.000000 1.000000 0.000000
1.000000 1.000000 0.000000
0.000000 0.000000 0.193525
0.000000 0.000000 0.184546
0.067715 0.000000 0.175568
0.143261 0.000000 0.166589
0.218807 0.000000 0.157610
0.294354 0.000000 0.148632
0.369900 0.000000 0.139653
0.445447 0.000000 0.130674
0.520993 0.000000 0.121696
0.596540 0.000000 0.112717
0.672086 0.000000 0.103738
0.747633 0.000000 0.094760
0.823179 0.000000 0.085781
0.898725 0.000000 0.076802
0.974272 0.000000 0.067824
1.000000 0.000000 0.058845
1.000000 0.000000 0.055088
0.000000 0.010123 0.175898
0.000000 0.009864 0.166919
0.072910 0.009604 0.157941
0.148457 0.009344 0.148962
0.224003 0.009084 0.139983
0.299549 0.008824 0.131005
0.375096 0.008564 0.122026
0.450642 0.008305 0.113047
0.526189 0.008045 0.104069
0.601735 0.007785 0.095090
0.677282 0.007525 0.086111
0.752828 0.007265 0.077133
0.828374 0.007005 0.068154
0.903921 0.006745 0.059175
0.976603 0.005575 0.055147
1.000000 0.003960 0.053532
1.000000 0.002346 0.051918
0.000000 0.082513 0.158271
0.002559 0.082253 0.149292
0.078106 0.081994 0.140314
0.153652 0.081734 0.131335
0.229199 0.081474 0.122356
0.304745 0.081214 0.113378
0.380291 0.080954 0.104399
0.455838 0.080694 0.095420
0.531384 0.080435 0.086442
0.606931 0.080175 0.077463
0.682477 0.079915 0.068484
0.758024 0.079655 0.059505
0.830862 0.078534 0.055206
0.902148 0.076920 0.053592
0.973433 0.075305 0.051977
1.000000 0.073691 0.050363
1.000000 0.072076 0.048748
0.000000 0.154903 0.140644
0.007755 0.154643 0.131665
0.083301 0.154384 0.122687
0.158848 0.154124 0.113708
0.234394 0.153864 0.104729
0.309940 0.153604 0.095751
0.385487 0.153344 0.086772
0.461033 0.153084 0.077793
0.536580 0.152824 0.068814
0.612126 0.152565 0.059836
0.685122 0.151494 0.055266
0.756407 0.149879 0.053651
0.827693 0.148265 0.052037
0.898978 0.146650 0.050422
0.970263 0.145035 0.048807
1.000000 0.143421 0.047193
1.000000 0.141806 0.045578
0.000000 0.227293 0.123017
0.012950 0.227033 0.114038
0.088497 0.226773 0.105060
0.164043 0.226514 0.096081
0.239590 0.226254 0.087102
0.315136 0.225994 0.078123
0.390682 0.225734 0.069145
0.466229 0.225474 0.060166
0.539381 0.224453 0.055325
0.610667 0.222839 0.053711
0.681952 0.221224 0.052096
0.753237 0.219609 0.050481
0.824523 0.217995 0.048867
0.895808 0.216380 0.047252
0.967094 0.214766 0.045638
1.000000 0.213151 0.044023
1.000000 0.211536 0.042408
0.000000 0.299683 0.105390
0.018146 0.299423 0.096411
0.093692 0.299163 0.087432
0.169239 0.298903 0.078454
0.244785 0.298644 0.069475
0.320331 0.298384 0.060496
0.393641 0.297413 0.055385
0.464926 0.295798 0.053770
0.536211 0.294183 0.052155
0.607497 0.292569 0.050541
0.678782 0.290954 0.048926
0.750068 0.289340 0.047312
0.821353 0.287725 0.045697
0.892638 0.286110 0.044082
0.963924 0.284496 0.042468
1.000000 0.282881 0.040853
1.000000 0.281267 0.039239
0.000000 0.372073 0.087763
0.023341 0.371813 0.078784
0.098888 0.371553 0.069805
0.174434 0.371293 0.060827
0.247900 0.370372 0.055444
0.319185 0.368757 0.053829
0.390471 0.367143 0.052215
0.461756 0.365528 0.050600
0.533042 0.363914 0.048986
0.604327 0.362299 0.047371
0.675612 0.360684 0.045756
0.746898 0.359070 0.044142
0.818183 0.357455 0.042527
0.889469 0.355841 0.040913
0.960754 0.354226 0.039298
1.000000 0.352611 0.037683
1.000000 0.350997 0.036069
0.000000 0.444463 0.070136
0.028537 0.444203 0.061157
0.102159 0.443331 0.055503
0.173445 0.441717 0.053889
0.244730 0.440102 0.052274
0.316016 0.438488 0.050660
0.387301 0.436873 0.049045
0.458586 0.435258 0.047430
0.529872 0.433644 0.045816
0.601157 0.432029 0.044201
0.672443 0.430415 0.042587
0.743728 0.428800 0.040972
0.815013 0.427185 0.039357
0.886299 0.425571 0.037743
0.957584 0.423956 0.036128
1.000000 0.422342 0.034514
1.000000 0.420727 0.032899
0.000000 0.516291 0.055563
0.027704 0.514676 0.053948
0.098990 0.513062 0.052334
0.170275 0.511447 0.050719
0.241560 0.509832 0.049104
0.312846 0.508218 0.047490
0.384131 0.506603 0.045875
0.455417 0.504989 0.044261
0.526702 0.503374 0.042646
0.597987 0.501759 0.041031
0.669273 0.500145 0.039417
0.740558 0.498530 0.037802
0.811844 0.496916 0.036188
0.883129 0.495301 0.034573
0.954414 0.493686 0.032958
1.000000 0.492072 0.031344
1.000000 0.490457 0.029729
0.000000 0.586021 0.052393
0.024534 0.584406 0.050778
0.095820 0.582792 0.049164
0.167105 0.581177 0.047549
0.238391 0.579563 0.045935
0.309676 0.577948 0.044320
0.380961 0.576333 0.042705
0.452247 0.574719 0.041091
0.523532 0.573104 0.039476
0.594818 0.571490 0.037862
0.666103 0.569875 0.036247
0.737388 0.568260 0.034632
0.808674 0.566646 0.033018
0.879959 0.565031 0.031403
0.951245 0.563417 0.029789
1.000000 0.561802 0.028174
1.000000 0.560187 0.026559
0.000000 0.655751 0.049223
0.021365 0.654137 0.047609
0.092650 0.652522 0.045994
0.163935 0.650907 0.044379
0.235221 0.649293 0.042765
0.306506 0.647678 0.041150
0.377792 0.646064 0.039536
0.449077 0.644449 0.037921
0.520362 0.642834 0.036306
0.591648 0.641220 0.034692
0.662933 0.639605 0.033077
0.734219 0.637991 0.031463
0.805504 0.636376 0.029848
0.876789 0.634761 0.028233
0.948075 0.633147 0.026619
1.000000 0.631532 0.025004
1.000000 0.629918 0.023390
0.000000 0.725481 0.046053
0.018195 0.723867 0.044439
0.089480 0.722252 0.042824
0.160766 0.720638 0.041210
0.232051 0.719023 0.039595
0.303336 0.717408 0.037980
0.374622 0.715794 0.036366
0.445907 0.714179 0.034751
0.517193 0.712565 0.033137
0.588478 0.710950 0.031522
0.659763 0.709335 0.029907
0.731049 0.707721 0.028293
0.802334 0.706106 0.026678
0.873620 0.704492 0.025064
0.944905 0.702877 0.023449
1.000000 0.701262 0.021834
1.000000 0.701477 0.018780
0.000000 0.795212 0.042884
0.015025 0.793597 0.041269
0.086310 0.791982 0.039654
0.157596 0.790368 0.038040
0.228881 0.788753 0.036425
0.300167 0.787139 0.034811
0.371452 0.785524 0.033196
0.442737 0.783909 0.031581
0.514023 0.782295 0.029967
0.585308 0.780680 0.028352
0.656594 0.779066 0.026738
0.727879 0.777451 0.025123
0.799164 0.775836 0.023508
0.870450 0.774222 0.021894
0.944116 0.774361 0.018899
1.000000 0.774779 0.015684
1.000000 0.775198 0.012469
0.000000 0.864942 0.039714
0.011855 0.863327 0.038099
0.083141 0.861713 0.036485
0.154426 0.860098 0.034870
0.225711 0.858483 0.033255
0.296997 0.856869 0.031641
0.368282 0.855254 0.030026
0.439568 0.853640 0.028412
0.510853 0.852025 0.026797
0.582138 0.850410 0.025182
0.653424 0.848796 0.023568
0.724709 0.847181 0.021953
0.798274 0.847246 0.019017
0.872319 0.847664 0.015802
0.946364 0.848082 0.012588
1.000000 0.848501 0.009373
1.000000 0.848919 0.006158
0.000000 0.934672 0.036544
0.008685 0.933057 0.034929
0.079971 0.931443 0.033315
0.151256 0.929828 0.031700
0.222542 0.928214 0.030086
0.293827 0.926599 0.028471
0.365112 0.924984 0.026856
0.436398 0.923370 0.025242
0.507683 0.921755 0.023627
0.578969 0.920141 0.022013
0.652432 0.920130 0.019135
0.726477 0.920549 0.015920
0.800522 0.920967 0.012706
0.874566 0.921385 0.009491
0.948611 0.921803 0.006277
1.000000 0.922222 0.003062
1.000000 0.922640 0.000000
0.000000 1.000000 0.033374
0.005516 1.000000 0.031760
0.076801 1.000000 0.030145
0.148086 0.999558 0.028530
0.219372 0.997944 0.026916
0.290657 0.996329 0.025301
0.361943 0.994715 0.023687
0.433228 0.993100 0.022072
0.506590 0.993015 0.019253
0.580635 0.993433 0.016039
0.654679 0.993852 0.012824
0.728724 0.994270 0.009609
0.802769 0.994688 0.006395
0.876814 0.995106 0.003180
0.950859 0.995524 0.000000
1.000000 0.995943 0.000000
1.000000 0.996361 0.000000
0.000000 1.000000 0.030204
0.002346 1.000000 0.028590
0.073631 1.000000 0.026975
0.144917 1.000000 0.025361
0.216202 1.000000 0.023746
0.287487 1.000000 0.022131
0.360748 1.000000 0.019372
0.434792 1.000000 0.016157
0.508837 1.000000 0.012942
0.582882 1.000000 0.009728
0.656927 1.000000 0.006513
0.730972 1.000000 0.003298
0.805017 1.000000 0.000084
0.879061 1.000000 0.000000
0.953106 1.000000 0.000000
1.000000 1.000000 0.000000
1.000000 1.000000 0.000000
0.000000 0.000000 0.263002
0.000000 0.000000 0.254023
0.068724 0.000000 0.245044
0.144270 0.000000 0.236066
0.219816 0.000000 0.227087
0.295363 0.000000 0.218108
0.370909 0.000000 0.209130
0.446456 0.000000 0.200151
0.522002 0.000000 0.191172
0.597549 0.000000 0.182194
0.673095 0.000000 0.173215
0.748642 0.000000 0.164236
0.824188 0.000000 0.155258
0.899734 0.000000 0.146279
0.975281 0.000000 0.137300
1.000000 0.000000 0.128987
1.000000 0.000000 0.127372
0.000000 0.010024 0.245375
0.000000 0.009765 0.236396
0.073919 0.009505 0.227417
