assets/luts/film-kodak-2383.cube
TITLE "film-kodak-2383"
LUT_3D_SIZE 17
0.000000 0.000000 0.000000
0.000000 0.000000 0.000000
0.063694 0.000000 0.000000
0.130466 0.000000 0.000000
0.197237 0.000000 0.000000
0.264009 0.000000 0.000000
0.330780 0.000000 0.000000
0.397552 0.000000 0.000000
0.464323 0.000000 0.000000
0.531094 0.000000 0.000000
0.597866 0.000000 0.000000
0.664637 0.000000 0.000000
0.731409 0.000000 0.000000
0.798180 0.000000 0.000000
0.864952 0.000000 0.000000
0.931723 0.000000 0.000000
0.998494 0.000000 0.000000
0.000000 0.025725 0.000000
0.003836 0.026724 0.000000
0.070608 0.027724 0.000000
0.137379 0.028724 0.000000
0.204151 0.029724 0.000000
0.270922 0.030724 0.000000
0.337693 0.031724 0.000000
0.404465 0.032724 0.000000
0.471236 0.033723 0.000000
0.538008 0.034723 0.000000
0.604779 0.035723 0.000000
0.671551 0.036723 0.000000
0.738322 0.037723 0.000000
0.805093 0.038723 0.000000
0.871865 0.039723 0.000000
0.936929 0.041309 0.000000
1.000000 0.042953 0.000000
0.000000 0.090937 0.000000
0.010750 0.091937 0.000000
0.077521 0.092937 0.000000
0.144292 0.093937 0.000000
0.211064 0.094937 0.000000
0.277835 0.095937 0.000000
0.344607 0.096937 0.000000
0.411378 0.097936 0.000000
0.478150 0.098936 0.000000
0.544921 0.099936 0.000000
0.611692 0.100936 0.000000
0.678464 0.101936 0.000000
0.745235 0.102936 0.000000
0.810368 0.104498 0.000000
0.875263 0.106143 0.000000
0.940157 0.107787 0.000000
1.000000 0.109432 0.000000
0.000000 0.156150 0.000000
0.017663 0.157150 0.000000
0.084434 0.158150 0.000000
0.151206 0.159150 0.000000
0.217977 0.160150 0.000000
0.284749 0.161150 0.000000
0.351520 0.162150 0.000000
0.418291 0.163149 0.000000
0.485063 0.164149 0.000000
0.551834 0.165149 0.000000
0.618606 0.166149 0.000000
0.683808 0.167688 0.000000
0.748702 0.169332 0.000000
0.813597 0.170977 0.000000
0.878491 0.172621 0.000000
0.943386 0.174266 0.000000
1.000000 0.175910 0.000000
0.000000 0.221363 0.000000
0.024576 0.222363 0.000000
0.091348 0.223363 0.000000
0.158119 0.224363 0.000000
0.224890 0.225363 0.000000
0.291662 0.226363 0.000000
0.358433 0.227362 0.000000
0.425205 0.228362 0.000000
0.491976 0.229362 0.000000
0.557247 0.230877 0.000000
0.622142 0.232522 0.000000
0.687036 0.234166 0.000000
0.751931 0.235811 0.000000
0.816825 0.237455 0.000000
0.881720 0.239100 0.000000
0.946614 0.240744 0.000000
1.000000 0.242389 0.000000
0.000000 0.286576 0.000000
0.031489 0.287576 0.000000
0.098261 0.288576 0.000000
0.165032 0.289576 0.000000
0.231804 0.290576 0.000000
0.298575 0.291576 0.000000
0.365347 0.292575 0.000000
0.430687 0.294067 0.000000
0.495581 0.295711 0.000000
0.560476 0.297356 0.000000
0.625370 0.299000 0.000000
0.690265 0.300645 0.000000
0.755159 0.302289 0.000000
0.820054 0.303934 0.000000
0.884948 0.305578 0.000000
0.949843 0.307223 0.000000
1.000000 0.308867 0.000000
0.000000 0.351789 0.000000
0.038403 0.352789 0.000000
0.105174 0.353789 0.000000
0.171946 0.354789 0.000000
0.238717 0.355789 0.000000
0.304126 0.357256 0.000000
0.369021 0.358901 0.000000
0.433915 0.360545 0.000000
0.498810 0.362190 0.000000
0.563704 0.363834 0.000000
0.628599 0.365479 0.000000
0.693493 0.367123 0.000000
0.758388 0.368768 0.000000
0.823282 0.370412 0.000000
0.888177 0.372057 0.000000
0.953071 0.373701 0.000000
1.000000 0.375346 0.000000
0.000000 0.417002 0.000000
0.045316 0.418002 0.000000
0.112088 0.419002 0.000000
0.177566 0.420446 0.000000
0.242460 0.422090 0.000000
0.307355 0.423735 0.000000
0.372249 0.425379 0.000000
0.437144 0.427024 0.000000
0.502038 0.428668 0.000000
0.566933 0.430313 0.000000
0.631827 0.431957 0.000000
0.696722 0.433602 0.000000
0.761616 0.435246 0.000000
0.826511 0.436891 0.000000
0.891405 0.438535 0.000000
0.956300 0.440180 0.000000
1.000000 0.441824 0.000000
0.000000 0.482215 0.000000
0.051005 0.483635 0.000000
0.115900 0.485280 0.000000
0.180794 0.486924 0.000000
0.245689 0.488569 0.000000
0.310583 0.490213 0.000000
0.375478 0.491858 0.000000
0.440372 0.493502 0.000000
0.505267 0.495147 0.000000
0.570161 0.496791 0.000000
0.635056 0.498436 0.000000
0.699950 0.500080 0.000000
0.764845 0.501725 0.000000
0.829739 0.503369 0.000000
0.894634 0.505014 0.000000
0.959528 0.506658 0.000000
1.000000 0.508303 0.000000
0.000000 0.548469 0.000000
0.054234 0.550114 0.000000
0.119128 0.551758 0.000000
0.184023 0.553403 0.000000
0.248917 0.555047 0.000000
0.313812 0.556692 0.000000
0.378706 0.558336 0.000000
0.443601 0.559981 0.000000
0.508495 0.561625 0.000000
0.573390 0.563270 0.000000
0.638284 0.564914 0.000000
0.703179 0.566559 0.000000
0.768073 0.568203 0.000000
0.832968 0.569848 0.000000
0.897862 0.571492 0.000000
0.962757 0.573137 0.000000
1.000000 0.574781 0.000000
0.000000 0.614948 0.000000
0.057462 0.616592 0.000000
0.122357 0.618237 0.000000
0.187251 0.619881 0.000000
0.252146 0.621526 0.000000
0.317040 0.623170 0.000000
0.381935 0.624815 0.000000
0.446829 0.626459 0.000000
0.511724 0.628104 0.000000
0.576618 0.629748 0.000000
0.641513 0.631393 0.000000
0.706407 0.633037 0.000000
0.771302 0.634682 0.000000
0.836196 0.636326 0.000000
0.901091 0.637971 0.000000
0.965985 0.639615 0.000000
1.000000 0.641260 0.000000
0.000000 0.681426 0.000000
0.060691 0.683071 0.000000
0.125585 0.684715 0.000000
0.190480 0.686360 0.000000
0.255374 0.688004 0.000000
0.320269 0.689649 0.000000
0.385163 0.691293 0.000000
0.450058 0.692938 0.000000
0.514952 0.694582 0.000000
0.579847 0.696227 0.000000
0.644741 0.697871 0.000000
0.709636 0.699516 0.000000
0.774530 0.701160 0.000000
0.839425 0.702805 0.000000
0.904319 0.704449 0.000000
0.969214 0.706094 0.000224
1.000000 0.708019 0.001803
0.000000 0.747905 0.000000
0.063919 0.749549 0.000000
0.128814 0.751194 0.000000
0.193708 0.752838 0.000000
0.258603 0.754483 0.000000
0.323497 0.756127 0.000000
0.388392 0.757772 0.000000
0.453286 0.759416 0.000000
0.518181 0.761061 0.000000
0.583075 0.762705 0.000000
0.647970 0.764350 0.000000
0.712864 0.765994 0.000000
0.777759 0.767639 0.000000
0.842653 0.769283 0.000163
0.907816 0.771133 0.001760
0.975388 0.774825 0.002930
1.000000 0.778516 0.004100
0.002253 0.814383 0.000000
0.067148 0.816028 0.000000
0.132042 0.817672 0.000000
0.196937 0.819317 0.000000
0.261831 0.820961 0.000000
0.326726 0.822606 0.000000
0.391620 0.824250 0.000000
0.456515 0.825895 0.000000
0.521409 0.827539 0.000000
0.586304 0.829184 0.000000
0.651198 0.830828 0.000000
0.716093 0.832473 0.000103
0.781157 0.834247 0.001717
0.848729 0.837939 0.002887
0.916301 0.841630 0.004057
0.983873 0.845322 0.005227
1.000000 0.849013 0.006397
0.005482 0.880862 0.000000
0.070376 0.882506 0.000000
0.135271 0.884151 0.000000
0.200165 0.885795 0.000000
0.265060 0.887440 0.000000
0.329954 0.889084 0.000000
0.394849 0.890729 0.000000
0.459743 0.892373 0.000000
0.524638 0.894018 0.000000
0.589532 0.895662 0.000042
0.654498 0.897362 0.001674
0.722070 0.901053 0.002844
0.789642 0.904745 0.004014
0.857214 0.908436 0.005184
0.924786 0.912128 0.006354
0.992358 0.915819 0.007524
1.000000 0.919511 0.008694
0.008710 0.947340 0.000000
0.073605 0.948985 0.000000
0.138499 0.950629 0.000000
0.203394 0.952274 0.000000
0.268288 0.953918 0.000000
0.333183 0.955563 0.000000
0.398077 0.957207 0.000000
0.462972 0.958852 0.000000
0.527866 0.960496 0.001626
0.595411 0.964167 0.002801
0.662983 0.967859 0.003971
0.730555 0.971550 0.005141
0.798127 0.975242 0.006311
0.865699 0.978933 0.007481
0.933271 0.982625 0.008651
1.000000 0.986316 0.009821
1.000000 0.990008 0.010991
0.011939 1.000000 0.000000
0.076833 1.000000 0.000000
0.141728 1.000000 0.000000
0.206622 1.000000 0.000000
0.271517 1.000000 0.000000
0.336411 1.000000 0.000000
0.401306 1.000000 0.001566
0.468752 1.000000 0.002758
0.536324 1.000000 0.003928
0.603896 1.000000 0.005098
0.671468 1.000000 0.006268
0.739040 1.000000 0.007438
0.806612 1.000000 0.008608
0.874184 1.000000 0.009778
0.941756 1.000000 0.010948
1.000000 1.000000 0.012118
1.000000 1.000000 0.013288
0.000000 0.000000 0.053541
0.000000 0.000000 0.052020
0.065037 0.000000 0.050498
0.131808 0.000000 0.048976
0.198580 0.000000 0.047455
0.265351 0.000000 0.045933
0.332123 0.000000 0.044411
0.398894 0.000000 0.042889
0.465666 0.000000 0.041368
0.532437 0.000000 0.039846
0.599208 0.000000 0.038324
0.665980 0.000000 0.036803
0.732751 0.000000 0.035281
0.799523 0.000000 0.033759
0.866294 0.000000 0.032237
0.933066 0.000000 0.030716
0.999222 0.000000 0.030232
0.000000 0.026106 0.050554
0.005179 0.027106 0.049032
0.071950 0.028105 0.047511
0.138722 0.029105 0.045989
0.205493 0.030105 0.044467
0.272265 0.031105 0.042945
0.339036 0.032105 0.041424
0.405807 0.033105 0.039902
0.472579 0.034105 0.038380
0.539350 0.035104 0.036859
0.606122 0.036104 0.035337
0.672893 0.037104 0.033815
0.739665 0.038104 0.032293
0.806436 0.039104 0.030772
0.872661 0.040291 0.030171
0.937556 0.041936 0.031816
1.000000 0.043580 0.033460
0.000000 0.091319 0.047567
0.012092 0.092319 0.046045
0.078864 0.093318 0.044523
0.145635 0.094318 0.043001
0.212406 0.095318 0.041480
0.279178 0.096318 0.039958
0.345949 0.097318 0.038436
0.412721 0.098318 0.036915
0.479492 0.099318 0.035393
0.546264 0.100317 0.033871
0.613035 0.101317 0.032349
0.679806 0.102317 0.030828
0.746101 0.103481 0.030111
0.810995 0.105125 0.031755
0.875890 0.106770 0.033400
0.940784 0.108414 0.035044
1.000000 0.110059 0.036689
0.000000 0.156532 0.044579
0.019006 0.157531 0.043057
0.085777 0.158531 0.041536
0.152548 0.159531 0.040014
0.219320 0.160531 0.038492
0.286091 0.161531 0.036971
0.352863 0.162531 0.035449
0.419634 0.163531 0.033927
0.486405 0.164530 0.032405
0.553177 0.165530 0.030884
0.619540 0.166670 0.030050
0.684435 0.168315 0.031695
0.749329 0.169959 0.033339
0.814224 0.171604 0.034984
0.879118 0.173248 0.036628
0.944013 0.174893 0.038273
1.000000 0.176537 0.039917
0.000000 0.221745 0.041592
0.025919 0.222744 0.040070
0.092690 0.223744 0.038548
0.159462 0.224744 0.037027
0.226233 0.225744 0.035505
0.293005 0.226744 0.033983
0.359776 0.227744 0.032461
0.426547 0.228744 0.030940
0.492980 0.229860 0.029990
0.557874 0.231504 0.031634
0.622769 0.233149 0.033279
0.687663 0.234793 0.034923
0.752558 0.236438 0.036568
0.817452 0.238082 0.038212
0.882347 0.239727 0.039857
0.947241 0.241371 0.041501
1.000000 0.243016 0.043146
0.000000 0.286957 0.038604
0.032832 0.287957 0.037083
0.099604 0.288957 0.035561
0.166375 0.289957 0.034039
0.233146 0.290957 0.032517
0.299918 0.291957 0.030996
0.366419 0.293049 0.029929
0.431314 0.294694 0.031574
0.496208 0.296338 0.033218
0.561103 0.297983 0.034863
0.625997 0.299627 0.036507
0.690892 0.301272 0.038152
0.755786 0.302916 0.039796
0.820681 0.304561 0.041441
0.885575 0.306205 0.043085
0.950470 0.307850 0.044730
1.000000 0.309494 0.046374
0.000000 0.352170 0.035617
0.039745 0.353170 0.034095
0.106517 0.354170 0.032573
0.173288 0.355170 0.031052
0.239859 0.356239 0.029869
0.304753 0.357883 0.031513
0.369648 0.359528 0.033158
0.434542 0.361172 0.034802
0.499437 0.362817 0.036447
0.564331 0.364461 0.038091
0.629226 0.366106 0.039736
0.694120 0.367750 0.041380
0.759015 0.369395 0.043025
0.823909 0.371039 0.044669
0.888804 0.372684 0.046314
0.953698 0.374328 0.047958
1.000000 0.375973 0.049603
0.000000 0.417383 0.032629
0.046659 0.418383 0.031108
0.113298 0.419428 0.029808
0.178193 0.421073 0.031453
0.243087 0.422717 0.033097
0.307982 0.424362 0.034742
0.372876 0.426006 0.036386
0.437771 0.427651 0.038031
0.502665 0.429295 0.039675
0.567560 0.430940 0.041320
0.632454 0.432584 0.042964
0.697349 0.434229 0.044609
0.762243 0.435873 0.046253
0.827138 0.437518 0.047898
0.892032 0.439162 0.049542
0.956927 0.440807 0.051187
1.000000 0.442451 0.052831
0.000000 0.482618 0.029748
0.051632 0.484262 0.031392
0.116527 0.485907 0.033037
0.181421 0.487551 0.034681
0.246316 0.489196 0.036326
0.311210 0.490840 0.037970
0.376105 0.492485 0.039615
0.440999 0.494129 0.041259
0.505894 0.495774 0.042904
0.570788 0.497418 0.044548
0.635683 0.499063 0.046193
0.700577 0.500707 0.047837
0.765472 0.502352 0.049482
0.830366 0.503996 0.051126
0.895261 0.505641 0.052771
0.960155 0.507285 0.054415
1.000000 0.508930 0.056060
0.000000 0.549096 0.032976
0.054861 0.550741 0.034621
0.119755 0.552385 0.036265
0.184650 0.554030 0.037910
0.249544 0.555674 0.039554
0.314439 0.557319 0.041199
0.379333 0.558963 0.042843
0.444228 0.560608 0.044488
0.509122 0.562252 0.046132
0.574017 0.563897 0.047777
0.638911 0.565541 0.049421
0.703806 0.567186 0.051066
0.768700 0.568830 0.052710
0.833595 0.570475 0.054355
0.898489 0.572119 0.055999
0.963384 0.573764 0.057644
1.000000 0.575408 0.059288
0.000000 0.615575 0.036205
0.058089 0.617219 0.037849
0.122984 0.618864 0.039494
0.187878 0.620508 0.041138
0.252773 0.622153 0.042783
0.317667 0.623797 0.044427
0.382562 0.625442 0.046072
0.447456 0.627086 0.047716
0.512351 0.628731 0.049361
0.577245 0.630375 0.051005
0.642140 0.632020 0.052650
0.707034 0.633664 0.054294
0.771929 0.635309 0.055939
0.836823 0.636953 0.057583
0.901718 0.638598 0.059228
0.966612 0.640242 0.060872
1.000000 0.641887 0.062517
0.000000 0.682053 0.039433
0.061318 0.683698 0.041078
0.126212 0.685342 0.042722
0.191107 0.686987 0.044367
0.256001 0.688631 0.046011
0.320896 0.690276 0.047656
0.385790 0.691920 0.049300
0.450685 0.693565 0.050945
0.515579 0.695209 0.052589
0.580474 0.696854 0.054234
0.645368 0.698498 0.055878
0.710263 0.700143 0.057523
0.775157 0.701787 0.059167
0.840052 0.703432 0.060812
0.904946 0.705076 0.062456
0.969841 0.706721 0.064101
1.000000 0.709426 0.065499
0.000000 0.748532 0.042662
0.064546 0.750176 0.044306
0.129441 0.751821 0.045951
0.194335 0.753465 0.047595
0.259230 0.755110 0.049240
0.324124 0.756754 0.050884
0.389019 0.758399 0.052529
0.453913 0.760043 0.054173
0.518808 0.761688 0.055818
0.583702 0.763332 0.057462
0.648597 0.764977 0.059107
0.713491 0.766621 0.060751
0.778386 0.768266 0.062396
0.843280 0.769910 0.064040
0.909464 0.772541 0.065456
0.977036 0.776232 0.066626
1.000000 0.779924 0.067796
0.002880 0.815010 0.045890
0.067775 0.816655 0.047535
0.132669 0.818299 0.049179
0.197564 0.819944 0.050824
0.262458 0.821588 0.052468
0.327353 0.823233 0.054113
0.392247 0.824877 0.055757
0.457142 0.826522 0.057402
0.522036 0.828166 0.059046
0.586931 0.829811 0.060691
0.651825 0.831455 0.062335
0.716720 0.833100 0.063980
0.782805 0.835655 0.065413
0.850377 0.839346 0.066583
0.917949 0.843038 0.067753
0.985521 0.846729 0.068923
1.000000 0.850421 0.070093
0.006109 0.881489 0.049119
0.071003 0.883133 0.050763
0.135898 0.884778 0.052408
0.200792 0.886422 0.054052
0.265687 0.888067 0.055697
0.330581 0.889711 0.057341
0.395476 0.891356 0.058986
0.460370 0.893000 0.060630
0.525265 0.894645 0.062275
0.590159 0.896289 0.063919
0.656146 0.898769 0.065370
0.723718 0.902461 0.066540
0.791290 0.906152 0.067710
0.858862 0.909844 0.068880
0.926434 0.913535 0.070050
0.994006 0.917227 0.071220
1.000000 0.920918 0.072390
0.009337 0.947967 0.052347
0.074232 0.949612 0.053992
0.139126 0.951256 0.055636
0.204021 0.952901 0.057281
0.268915 0.954545 0.058925
0.333810 0.956190 0.060570
0.398704 0.957834 0.062214
0.463599 0.959479 0.063859
0.529487 0.961883 0.065327
0.597059 0.965575 0.066497
0.664631 0.969266 0.067667
0.732203 0.972958 0.068837
0.799775 0.976649 0.070007
0.867347 0.980341 0.071177
0.934919 0.984032 0.072347
1.000000 0.987724 0.073517
1.000000 0.991415 0.074687
0.012566 1.000000 0.055576
0.077460 1.000000 0.057220
0.142355 1.000000 0.058865
0.207249 1.000000 0.060509
0.272144 1.000000 0.062154
0.337038 1.000000 0.063798
0.402828 1.000000 0.065284
0.470400 1.000000 0.066454
0.537972 1.000000 0.067624
0.605544 1.000000 0.068794
0.673116 1.000000 0.069964
0.740688 1.000000 0.071134
0.808260 1.000000 0.072304
0.875832 1.000000 0.073474
0.943404 1.000000 0.074644
1.000000 1.000000 0.075814
1.000000 1.000000 0.076984
0.000000 0.000000 0.116211
0.000000 0.000000 0.114690
0.066380 0.000000 0.113168
0.133151 0.000000 0.111646
0.199923 0.000000 0.110124
0.266694 0.000000 0.108603
0.333465 0.000000 0.107081
0.400237 0.000000 0.105559
0.467008 0.000000 0.104038
0.533780 0.000000 0.102516
0.600551 0.000000 0.100994
0.667322 0.000000 0.099472
0.734094 0.000000 0.097951
0.800865 0.000000 0.096429
0.867637 0.000000 0.094907
0.934408 0.000000 0.093386
0.999849 0.000000 0.094109
0.000000 0.026487 0.113224
0.006522 0.027487 0.111702
0.073293 0.028487 0.110180
0.140064 0.029487 0.108659
0.206836 0.030486 0.107137
0.273607 0.031486 0.105615
0.340379 0.032486 0.104094
0.407150 0.033486 0.102572
0.473922 0.034486 0.101050
0.540693 0.035486 0.099528
0.607464 0.036486 0.098007
0.674236 0.037485 0.096485
0.741007 0.038485 0.094963
0.807779 0.039485 0.093442
0.873288 0.040918 0.094048
0.938183 0.042563 0.095693
1.000000 0.044207 0.097337
0.000000 0.091700 0.110236
0.013435 0.092700 0.108715
0.080206 0.093700 0.107193
0.146978 0.094699 0.105671
0.213749 0.095699 0.104150
0.280521 0.096699 0.102628
0.347292 0.097699 0.101106
0.414063 0.098699 0.099584
0.480835 0.099699 0.098063
0.547606 0.100699 0.096541
0.614378 0.101698 0.095019
0.681149 0.102698 0.093498
0.746728 0.104108 0.093988
0.811622 0.105752 0.095632
0.876517 0.107397 0.097277
0.941411 0.109041 0.098921
1.000000 0.110686 0.100566
0.000000 0.156913 0.107249
0.020348 0.157913 0.105727
0.087120 0.158913 0.104205
0.153891 0.159912 0.102684
0.220662 0.160912 0.101162
0.287434 0.161912 0.099640
0.354205 0.162912 0.098119
0.420977 0.163912 0.096597
0.487748 0.164912 0.095075
0.554520 0.165912 0.093554
0.620167 0.167297 0.093927
0.685062 0.168942 0.095572
0.749956 0.170586 0.097216
0.814851 0.172231 0.098861
0.879745 0.173875 0.100505
0.944640 0.175520 0.102150
1.000000 0.177164 0.103794
0.000000 0.222126 0.104261
0.027261 0.223126 0.102740
0.094033 0.224125 0.101218
0.160804 0.225125 0.099696
0.227576 0.226125 0.098175
0.294347 0.227125 0.096653
0.361119 0.228125 0.095131
0.427890 0.229125 0.093610
0.493607 0.230487 0.093867
0.558501 0.232131 0.095511
0.623396 0.233776 0.097156
0.688290 0.235420 0.098800
0.753185 0.237065 0.100445
0.818079 0.238709 0.102089
0.882974 0.240354 0.103734
0.947868 0.241998 0.105378
1.000000 0.243643 0.107023
0.000000 0.287339 0.101274
0.034175 0.288339 0.099752
0.100946 0.289338 0.098231
0.167718 0.290338 0.096709
0.234489 0.291338 0.095187
0.301260 0.292338 0.093665
0.367046 0.293676 0.093806
0.431941 0.295321 0.095451
0.496835 0.296965 0.097095
0.561730 0.298610 0.098740
0.626624 0.300254 0.100384
0.691519 0.301899 0.102029
0.756413 0.303543 0.103673
0.821308 0.305188 0.105318
0.886202 0.306832 0.106962
0.951097 0.308477 0.108607
1.000000 0.310121 0.110251
0.000000 0.352552 0.098287
0.041088 0.353551 0.096765
0.107859 0.354551 0.095243
0.174631 0.355551 0.093721
0.240486 0.356866 0.093746
0.305380 0.358510 0.095390
0.370275 0.360155 0.097035
0.435169 0.361799 0.098679
0.500064 0.363444 0.100324
0.564958 0.365088 0.101968
0.629853 0.366733 0.103613
0.694747 0.368377 0.105257
0.759642 0.370022 0.106902
0.824536 0.371666 0.108546
0.889431 0.373311 0.110191
0.954325 0.374955 0.111835
1.000000 0.376600 0.113480
0.000000 0.417765 0.095299
0.048001 0.418764 0.093777
0.113925 0.420055 0.093685
0.178820 0.421700 0.095330
0.243714 0.423344 0.096974
0.308609 0.424989 0.098619
0.373503 0.426633 0.100263
0.438398 0.428278 0.101908
0.503292 0.429922 0.103552
0.568187 0.431567 0.105197
0.633081 0.433211 0.106841
0.697976 0.434856 0.108486
0.762870 0.436500 0.110130
0.827765 0.438145 0.111775
0.892659 0.439789 0.113419
0.957554 0.441434 0.115064
1.000000 0.443078 0.116708
0.000000 0.483245 0.093625
0.052259 0.484889 0.095269
0.117154 0.486534 0.096914
0.182048 0.488178 0.098558
0.246943 0.489823 0.100203
0.311837 0.491467 0.101847
0.376732 0.493112 0.103492
0.441626 0.494756 0.105136
0.506521 0.496401 0.106781
0.571415 0.498045 0.108425
0.636310 0.499690 0.110070
0.701204 0.501334 0.111714
0.766099 0.502979 0.113359
0.830993 0.504623 0.115003
0.895888 0.506268 0.116648
0.960782 0.507912 0.118292
1.000000 0.509557 0.119937
0.000000 0.549723 0.096853
0.055488 0.551368 0.098498
0.120382 0.553012 0.100142
0.185277 0.554657 0.101787
0.250171 0.556301 0.103431
0.315066 0.557946 0.105076
0.379960 0.559590 0.106720
0.444855 0.561235 0.108365
0.509749 0.562879 0.110009
0.574644 0.564524 0.111654
0.639538 0.566168 0.113298
0.704433 0.567813 0.114943
0.769327 0.569457 0.116587
0.834222 0.571102 0.118232
0.899116 0.572746 0.119876
0.964011 0.574391 0.121521
1.000000 0.576035 0.123165
0.000000 0.616202 0.100082
0.058716 0.617846 0.101726
0.123611 0.619491 0.103371
0.188505 0.621135 0.105015
0.253400 0.622780 0.106660
0.318294 0.624424 0.108304
0.383189 0.626069 0.109949
0.448083 0.627713 0.111593
0.512978 0.629358 0.113238
0.577872 0.631002 0.114882
0.642767 0.632647 0.116527
0.707661 0.634291 0.118171
0.772556 0.635936 0.119816
0.837450 0.637580 0.121460
0.902345 0.639225 0.123105
0.967239 0.640869 0.124749
1.000000 0.642514 0.126394
0.000000 0.682680 0.103310
0.061945 0.684325 0.104955
0.126839 0.685969 0.106599
0.191734 0.687614 0.108244
0.256628 0.689258 0.109888
0.321523 0.690903 0.111533
0.386417 0.692547 0.113177
0.451312 0.694192 0.114822
0.516206 0.695836 0.116466
0.581101 0.697481 0.118111
0.645995 0.699125 0.119755
0.710890 0.700770 0.121400
0.775784 0.702414 0.123044
0.840679 0.704059 0.124689
0.905573 0.705703 0.126333
0.970468 0.707348 0.127978
1.000000 0.710834 0.129195
0.000279 0.749159 0.106539
0.065173 0.750803 0.108183
0.130068 0.752448 0.109828
0.194962 0.754092 0.111472
0.259857 0.755737 0.113117
0.324751 0.757381 0.114761
0.389646 0.759026 0.116406
0.454540 0.760670 0.118050
0.519435 0.762315 0.119695
0.584329 0.763959 0.121339
0.649224 0.765604 0.122984
0.714118 0.767248 0.124628
0.779013 0.768893 0.126273
0.843907 0.770537 0.127917
0.911112 0.773948 0.129152
0.978684 0.777640 0.130322
1.000000 0.781331 0.131492
0.003507 0.815637 0.109767
0.068402 0.817282 0.111412
0.133296 0.818926 0.113056
0.198191 0.820571 0.114701
0.263085 0.822215 0.116345
0.327980 0.823860 0.117990
0.392874 0.825504 0.119634
0.457769 0.827149 0.121279
0.522663 0.828793 0.122923
0.587558 0.830438 0.124568
0.652452 0.832082 0.126212
0.717347 0.833727 0.127857
0.784453 0.837062 0.129109
0.852025 0.840754 0.130279
0.919597 0.844445 0.131449
0.987169 0.848137 0.132619
1.000000 0.851828 0.133789
0.006736 0.882116 0.112996
0.071630 0.883760 0.114640
0.136525 0.885405 0.116285
0.201419 0.887049 0.117929
0.266314 0.888694 0.119574
0.331208 0.890338 0.121218
0.396103 0.891983 0.122863
0.460997 0.893627 0.124507
0.525892 0.895272 0.126152
0.590786 0.896916 0.127796
0.657794 0.900177 0.129066
0.725366 0.903868 0.130236
0.792938 0.907560 0.131406
0.860510 0.911251 0.132576
0.928082 0.914943 0.133746
0.995654 0.918634 0.134916
1.000000 0.922326 0.136086
0.009964 0.948594 0.116224
0.074859 0.950239 0.117869
0.139753 0.951883 0.119513
0.204648 0.953528 0.121158
0.269542 0.955172 0.122802
0.334437 0.956817 0.124447
0.399331 0.958461 0.126091
0.464226 0.960106 0.127736
0.531135 0.963291 0.129023
0.598707 0.966982 0.130193
0.666279 0.970674 0.131363
0.733851 0.974365 0.132533
0.801423 0.978057 0.133703
0.868995 0.981748 0.134873
0.936567 0.985440 0.136043
1.000000 0.989131 0.137213
1.000000 0.992823 0.138383
0.013193 1.000000 0.119453
0.078087 1.000000 0.121097
0.142982 1.000000 0.122742
0.207876 1.000000 0.124386
0.272771 1.000000 0.126031
0.337665 1.000000 0.127675
0.404476 1.000000 0.128980
0.472048 1.000000 0.130150
0.539620 1.000000 0.131320
0.607192 1.000000 0.132490
0.674764 1.000000 0.133660
0.742336 1.000000 0.134830
0.809908 1.000000 0.136000
0.877479 1.000000 0.137170
0.945051 1.000000 0.138340
1.000000 1.000000 0.139510
1.000000 1.000000 0.140680
0.000000 0.000000 0.178881
0.000951 0.000000 0.177359
0.067722 0.000000 0.175838
0.134494 0.000000 0.174316
0.201265 0.000000 0.172794
0.268037 0.000000 0.171272
0.334808 0.000000 0.169751
0.401579 0.000000 0.168229
0.468351 0.000000 0.166707
0.535122 0.000000 0.165186
0.601894 0.000000 0.163664
0.668665 0.000000 0.162142
0.735437 0.000000 0.160621
0.802208 0.000000 0.159099
0.868979 0.000000 0.157577
0.935581 0.000000 0.156341
1.000000 0.000000 0.157986
0.000000 0.026868 0.175894
0.007864 0.027868 0.174372
0.074636 0.028868 0.172850
