assets/luts/film-kodak-2383.cube
TITLE "film-kodak-2383"
LUT_3D_SIZE 5
0.000000 0.000000 0.000000
0.197237 0.000000 0.000000
0.464323 0.000000 0.000000
0.731409 0.000000 0.000000
0.998494 0.000000 0.000000
0.000000 0.221363 0.000000
0.224890 0.225363 0.000000
0.491976 0.229362 0.000000
0.751931 0.235811 0.000000
1.000000 0.242389 0.000000
0.000000 0.482215 0.000000
0.245689 0.488569 0.000000
0.505267 0.495147 0.000000
0.764845 0.501725 0.000000
1.000000 0.508303 0.000000
0.000000 0.747905 0.000000
0.258603 0.754483 0.000000
0.518181 0.761061 0.000000
0.777759 0.767639 0.000000
1.000000 0.778516 0.004100
0.011939 1.000000 0.000000
0.271517 1.000000 0.000000
0.536324 1.000000 0.003928
0.806612 1.000000 0.008608
1.000000 1.000000 0.013288
0.000000 0.000000 0.241551
0.202608 0.000000 0.235464
0.469693 0.000000 0.229377
0.736779 0.000000 0.223290
1.000000 0.000000 0.221863
0.000000 0.222888 0.229601
0.230261 0.226888 0.223514
0.494861 0.231741 0.221621
0.754439 0.238319 0.228199
1.000000 0.244897 0.234777
0.000000 0.484499 0.221379
0.248197 0.491077 0.227957
0.507775 0.497655 0.234535
0.767353 0.504233 0.241113
1.000000 0.510811 0.247691
0.001533 0.750413 0.234293
0.261111 0.756991 0.240871
0.520689 0.763569 0.247449
0.780267 0.770147 0.254027
1.000000 0.784146 0.258884
0.014447 1.000000 0.247207
0.274025 1.000000 0.253785
0.542916 1.000000 0.258712
0.813203 1.000000 0.263392
1.000000 1.000000 0.268072
0.000000 0.000000 0.492230
0.207978 0.000000 0.486143
0.475064 0.000000 0.480056
0.742150 0.000000 0.473970
1.000000 0.000000 0.477371
0.000000 0.224413 0.480280
0.235631 0.228412 0.474194
0.497369 0.234249 0.477129
0.756947 0.240827 0.483707
1.000000 0.247405 0.490285
0.000000 0.487007 0.476887
0.250705 0.493585 0.483465
0.510283 0.500163 0.490043
0.769861 0.506741 0.496621
1.000000 0.513319 0.503199
0.004041 0.752921 0.489801
0.263619 0.759499 0.496379
0.523197 0.766077 0.502957
0.785855 0.775010 0.508989
1.000000 0.789776 0.513669
0.016955 1.000000 0.502715
0.279219 1.000000 0.508817
0.549507 1.000000 0.513496
0.819794 1.000000 0.518176
1.000000 1.000000 0.522856
0.000000 0.000000 0.742909
0.213349 0.000000 0.736823
0.480434 0.000000 0.730736
0.746541 0.000000 0.726301
1.000000 0.000000 0.732879
0.000000 0.225938 0.730960
0.240299 0.230179 0.726059
0.499877 0.236757 0.732637
0.759455 0.243335 0.739215
1.000000 0.249913 0.745793
0.000000 0.489515 0.732395
0.253213 0.496093 0.738973
0.512791 0.502671 0.745551
0.772369 0.509249 0.752129
1.000000 0.515827 0.758707
0.006549 0.755429 0.745309
0.266127 0.762007 0.751887
0.525705 0.768585 0.758465
0.792446 0.780640 0.763773
1.000000 0.795406 0.768453
0.019463 1.000000 0.758223
0.285810 1.000000 0.763601
0.556098 1.000000 0.768281
0.826386 1.000000 0.772961
1.000000 1.000000 0.777640
0.000000 0.000000 0.993589
0.218719 0.000000 0.987502
0.485805 0.000000 0.981415
0.749049 0.000000 0.981809
1.000000 0.000000 0.988387
0.000000 0.227463 0.981639
0.242807 0.232687 0.981567
0.502385 0.239265 0.988145
0.761963 0.245843 0.994723
1.000000 0.252421 1.000000
0.000000 0.492023 0.987903
0.255721 0.498601 0.994481
0.515299 0.505179 1.000000
0.774877 0.511757 1.000000
1.000000 0.519047 1.000000
0.009057 0.757937 1.000000
0.268635 0.764515 1.000000
0.528750 0.771504 1.000000
0.799038 0.786270 1.000000
1.000000 0.801036 1.000000
0.022114 1.000000 1.000000
0.292402 1.000000 1.000000
0.562689 1.000000 1.000000
0.832977 1.000000 1.000000
1.000000 1.000000 1.000000
