assets/luts/film-kodak-2383.cube
TITLE "film-kodak-2383"
LUT_3D_SIZE 9
0.000000 0.000000 0.000000
0.063694 0.000000 0.000000
0.197237 0.000000 0.000000
0.330780 0.000000 0.000000
0.464323 0.000000 0.000000
0.597866 0.000000 0.000000
0.731409 0.000000 0.000000
0.864952 0.000000 0.000000
0.998494 0.000000 0.000000
0.000000 0.090937 0.000000
0.077521 0.092937 0.000000
0.211064 0.094937 0.000000
0.344607 0.096937 0.000000
0.478150 0.098936 0.000000
0.611692 0.100936 0.000000
0.745235 0.102936 0.000000
0.875263 0.106143 0.000000
1.000000 0.109432 0.000000
0.000000 0.221363 0.000000
0.091348 0.223363 0.000000
0.224890 0.225363 0.000000
0.358433 0.227362 0.000000
0.491976 0.229362 0.000000
0.622142 0.232522 0.000000
0.751931 0.235811 0.000000
0.881720 0.239100 0.000000
1.000000 0.242389 0.000000
0.000000 0.351789 0.000000
0.105174 0.353789 0.000000
0.238717 0.355789 0.000000
0.369021 0.358901 0.000000
0.498810 0.362190 0.000000
0.628599 0.365479 0.000000
0.758388 0.368768 0.000000
0.888177 0.372057 0.000000
1.000000 0.375346 0.000000
0.000000 0.482215 0.000000
0.115900 0.485280 0.000000
0.245689 0.488569 0.000000
0.375478 0.491858 0.000000
0.505267 0.495147 0.000000
0.635056 0.498436 0.000000
0.764845 0.501725 0.000000
0.894634 0.505014 0.000000
1.000000 0.508303 0.000000
0.000000 0.614948 0.000000
0.122357 0.618237 0.000000
0.252146 0.621526 0.000000
0.381935 0.624815 0.000000
0.511724 0.628104 0.000000
0.641513 0.631393 0.000000
0.771302 0.634682 0.000000
0.901091 0.637971 0.000000
1.000000 0.641260 0.000000
0.000000 0.747905 0.000000
0.128814 0.751194 0.000000
0.258603 0.754483 0.000000
0.388392 0.757772 0.000000
0.518181 0.761061 0.000000
0.647970 0.764350 0.000000
0.777759 0.767639 0.000000
0.907816 0.771133 0.001760
1.000000 0.778516 0.004100
0.005482 0.880862 0.000000
0.135271 0.884151 0.000000
0.265060 0.887440 0.000000
0.394849 0.890729 0.000000
0.524638 0.894018 0.000000
0.654498 0.897362 0.001674
0.789642 0.904745 0.004014
0.924786 0.912128 0.006354
1.000000 0.919511 0.008694
0.011939 1.000000 0.000000
0.141728 1.000000 0.000000
0.271517 1.000000 0.000000
0.401306 1.000000 0.001566
0.536324 1.000000 0.003928
0.671468 1.000000 0.006268
0.806612 1.000000 0.008608
0.941756 1.000000 0.010948
1.000000 1.000000 0.013288
0.000000 0.000000 0.116211
0.066380 0.000000 0.113168
0.199923 0.000000 0.110124
0.333465 0.000000 0.107081
0.467008 0.000000 0.104038
0.600551 0.000000 0.100994
0.734094 0.000000 0.097951
0.867637 0.000000 0.094907
0.999849 0.000000 0.094109
0.000000 0.091700 0.110236
0.080206 0.093700 0.107193
0.213749 0.095699 0.104150
0.347292 0.097699 0.101106
0.480835 0.099699 0.098063
0.614378 0.101698 0.095019
0.746728 0.104108 0.093988
0.876517 0.107397 0.097277
1.000000 0.110686 0.100566
0.000000 0.222126 0.104261
0.094033 0.224125 0.101218
0.227576 0.226125 0.098175
0.361119 0.228125 0.095131
0.493607 0.230487 0.093867
0.623396 0.233776 0.097156
0.753185 0.237065 0.100445
0.882974 0.240354 0.103734
1.000000 0.243643 0.107023
0.000000 0.352552 0.098287
0.107859 0.354551 0.095243
0.240486 0.356866 0.093746
0.370275 0.360155 0.097035
0.500064 0.363444 0.100324
0.629853 0.366733 0.103613
0.759642 0.370022 0.106902
0.889431 0.373311 0.110191
1.000000 0.376600 0.113480
0.000000 0.483245 0.093625
0.117154 0.486534 0.096914
0.246943 0.489823 0.100203
0.376732 0.493112 0.103492
0.506521 0.496401 0.106781
0.636310 0.499690 0.110070
0.766099 0.502979 0.113359
0.895888 0.506268 0.116648
1.000000 0.509557 0.119937
0.000000 0.616202 0.100082
0.123611 0.619491 0.103371
0.253400 0.622780 0.106660
0.383189 0.626069 0.109949
0.512978 0.629358 0.113238
0.642767 0.632647 0.116527
0.772556 0.635936 0.119816
0.902345 0.639225 0.123105
1.000000 0.642514 0.126394
0.000279 0.749159 0.106539
0.130068 0.752448 0.109828
0.259857 0.755737 0.113117
0.389646 0.759026 0.116406
0.519435 0.762315 0.119695
0.649224 0.765604 0.122984
0.779013 0.768893 0.126273
0.911112 0.773948 0.129152
1.000000 0.781331 0.131492
0.006736 0.882116 0.112996
0.136525 0.885405 0.116285
0.266314 0.888694 0.119574
0.396103 0.891983 0.122863
0.525892 0.895272 0.126152
0.657794 0.900177 0.129066
0.792938 0.907560 0.131406
0.928082 0.914943 0.133746
1.000000 0.922326 0.136086
0.013193 1.000000 0.119453
0.142982 1.000000 0.122742
0.272771 1.000000 0.126031
0.404476 1.000000 0.128980
0.539620 1.000000 0.131320
0.674764 1.000000 0.133660
0.809908 1.000000 0.136000
0.945051 1.000000 0.138340
1.000000 1.000000 0.140680
0.000000 0.000000 0.241551
0.069065 0.000000 0.238507
0.202608 0.000000 0.235464
0.336151 0.000000 0.232421
0.469693 0.000000 0.229377
0.603236 0.000000 0.226334
0.736779 0.000000 0.223290
0.870322 0.000000 0.220247
1.000000 0.000000 0.221863
0.000000 0.092462 0.235576
0.082891 0.094462 0.232533
0.216434 0.096462 0.229489
0.349977 0.098461 0.226446
0.483520 0.100461 0.223402
0.617063 0.102461 0.220359
0.747982 0.105362 0.221742
0.877771 0.108651 0.225031
1.000000 0.111940 0.228320
0.000000 0.222888 0.229601
0.096718 0.224888 0.226558
0.230261 0.226888 0.223514
0.363804 0.228887 0.220471
0.494861 0.231741 0.221621
0.624650 0.235030 0.224910
0.754439 0.238319 0.228199
0.884228 0.241608 0.231488
1.000000 0.244897 0.234777
0.000000 0.353314 0.223626
0.110545 0.355314 0.220583
0.241740 0.358120 0.221500
0.371529 0.361409 0.224789
0.501318 0.364698 0.228078
0.631107 0.367987 0.231367
0.760896 0.371276 0.234656
0.890685 0.374565 0.237945
1.000000 0.377854 0.241234
0.000000 0.484499 0.221379
0.118408 0.487788 0.224668
0.248197 0.491077 0.227957
0.377986 0.494366 0.231246
0.507775 0.497655 0.234535
0.637564 0.500944 0.237824
0.767353 0.504233 0.241113
0.897142 0.507522 0.244402
1.000000 0.510811 0.247691
0.000000 0.617456 0.227836
0.124865 0.620745 0.231125
0.254654 0.624034 0.234414
0.384443 0.627323 0.237703
0.514232 0.630612 0.240992
0.644021 0.633901 0.244281
0.773810 0.637190 0.247570
0.903599 0.640479 0.250859
1.000000 0.643768 0.254148
0.001533 0.750413 0.234293
0.131322 0.753702 0.237582
0.261111 0.756991 0.240871
0.390900 0.760280 0.244160
0.520689 0.763569 0.247449
0.650478 0.766858 0.250738
0.780267 0.770147 0.254027
0.914408 0.776763 0.256544
1.000000 0.784146 0.258884
0.007990 0.883370 0.240750
0.137779 0.886659 0.244039
0.267568 0.889948 0.247328
0.397357 0.893237 0.250617
0.527146 0.896526 0.253906
0.661090 0.902991 0.256458
0.796234 0.910374 0.258798
0.931377 0.917758 0.261138
1.000000 0.925141 0.263478
0.014447 1.000000 0.247207
0.144236 1.000000 0.250496
0.274025 1.000000 0.253785
0.407772 1.000000 0.256372
0.542916 1.000000 0.258712
0.678059 1.000000 0.261052
0.813203 1.000000 0.263392
0.948347 1.000000 0.265732
1.000000 1.000000 0.268072
0.000000 0.000000 0.366890
0.071750 0.000000 0.363847
0.205293 0.000000 0.360804
0.338836 0.000000 0.357760
0.472379 0.000000 0.354717
0.605922 0.000000 0.351673
0.739464 0.000000 0.348630
0.872568 0.000000 0.346328
1.000000 0.000000 0.349617
0.000000 0.093225 0.360916
0.085577 0.095224 0.357872
0.219120 0.097224 0.354829
0.352662 0.099224 0.351785
0.486205 0.101224 0.348742
0.619447 0.103327 0.346207
0.749236 0.106616 0.349496
0.879025 0.109905 0.352785
1.000000 0.113194 0.356074
0.000000 0.223651 0.354941
0.099403 0.225650 0.351897
0.232946 0.227650 0.348854
0.366326 0.229706 0.346086
0.496115 0.232995 0.349375
0.625904 0.236284 0.352664
0.755693 0.239573 0.355953
0.885482 0.242862 0.359242
1.000000 0.246151 0.362531
0.000000 0.354076 0.348966
0.113205 0.356085 0.345965
0.242994 0.359374 0.349254
0.372783 0.362663 0.352543
0.502572 0.365952 0.355832
0.632361 0.369241 0.359121
0.762150 0.372530 0.362410
0.891939 0.375819 0.365699
1.000000 0.379108 0.368988
0.000000 0.485753 0.349133
0.119662 0.489042 0.352422
0.249451 0.492331 0.355711
0.379240 0.495620 0.359000
0.509029 0.498909 0.362289
0.638818 0.502198 0.365578
0.768607 0.505487 0.368867
0.898396 0.508776 0.372156
1.000000 0.512065 0.375445
0.000000 0.618710 0.355590
0.126119 0.621999 0.358879
0.255908 0.625288 0.362168
0.385697 0.628577 0.365457
0.515486 0.631866 0.368746
0.645275 0.635155 0.372035
0.775064 0.638444 0.375324
0.904853 0.641733 0.378613
1.000000 0.645967 0.381683
0.002787 0.751667 0.362047
0.132576 0.754956 0.365336
0.262365 0.758245 0.368625
0.392154 0.761534 0.371914
0.521943 0.764823 0.375203
0.651732 0.768112 0.378492
0.782560 0.772195 0.381597
0.917703 0.779578 0.383937
1.000000 0.786961 0.386277
0.009244 0.884624 0.368504
0.139033 0.887913 0.371793
0.268822 0.891202 0.375082
0.398611 0.894491 0.378371
0.529242 0.898423 0.381511
0.664385 0.905806 0.383851
0.799529 0.913189 0.386190
0.934673 0.920572 0.388530
1.000000 0.927955 0.390870
0.015701 1.000000 0.374961
0.145490 1.000000 0.378250
0.275924 1.000000 0.381425
0.411067 1.000000 0.383764
0.546211 1.000000 0.386104
0.681355 1.000000 0.388444
0.816499 1.000000 0.390784
0.951643 1.000000 0.393124
1.000000 1.000000 0.395464
0.000000 0.000000 0.492230
0.074435 0.000000 0.489187
0.207978 0.000000 0.486143
0.341521 0.000000 0.483100
0.475064 0.000000 0.480056
0.608607 0.000000 0.477013
0.742150 0.000000 0.473970
0.873822 0.000000 0.474082
1.000000 0.000000 0.477371
0.000000 0.093987 0.486255
0.088262 0.095987 0.483212
0.221805 0.097987 0.480168
0.355348 0.099986 0.477125
0.488890 0.101986 0.474082
0.620701 0.104581 0.473961
0.750490 0.107870 0.477250
0.880279 0.111159 0.480539
1.000000 0.114448 0.483828
0.000000 0.224413 0.480280
0.102089 0.226413 0.477237
0.235631 0.228412 0.474194
0.367580 0.230960 0.473840
0.497369 0.234249 0.477129
0.627158 0.237538 0.480418
0.756947 0.240827 0.483707
0.886736 0.244116 0.486996
1.000000 0.247405 0.490285
0.000000 0.354839 0.474305
0.114459 0.357339 0.473719
0.244248 0.360628 0.477008
0.374037 0.363917 0.480297
0.503826 0.367206 0.483586
0.633615 0.370495 0.486875
0.763404 0.373784 0.490164
0.893193 0.377073 0.493453
1.000000 0.380362 0.496742
0.000000 0.487007 0.476887
0.120916 0.490296 0.480176
0.250705 0.493585 0.483465
0.380494 0.496874 0.486754
0.510283 0.500163 0.490043
0.640072 0.503452 0.493332
0.769861 0.506741 0.496621
0.899650 0.510030 0.499910
1.000000 0.513319 0.503199
0.000000 0.619964 0.483344
0.127373 0.623253 0.486633
0.257162 0.626542 0.489922
0.386951 0.629831 0.493211
0.516740 0.633120 0.496500
0.646529 0.636409 0.499789
0.776318 0.639698 0.503078
0.906107 0.642987 0.506367
1.000000 0.648782 0.509075
0.004041 0.752921 0.489801
0.133830 0.756210 0.493090
0.263619 0.759499 0.496379
0.393408 0.762788 0.499668
0.523197 0.766077 0.502957
0.652986 0.769366 0.506246
0.785855 0.775010 0.508989
0.920999 0.782393 0.511329
1.000000 0.789776 0.513669
0.010498 0.885878 0.496258
0.140287 0.889167 0.499547
0.270076 0.892456 0.502836
0.399865 0.895745 0.506125
0.532537 0.901238 0.508903
0.667681 0.908621 0.511243
0.802825 0.916004 0.513583
0.937969 0.923387 0.515922
1.000000 0.930770 0.518262
0.016955 1.000000 0.502715
0.146744 1.000000 0.506004
0.279219 1.000000 0.508817
0.414363 1.000000 0.511157
0.549507 1.000000 0.513496
0.684651 1.000000 0.515836
0.819794 1.000000 0.518176
0.954938 1.000000 0.520516
1.000000 1.000000 0.522856
0.000000 0.000000 0.617570
0.077121 0.000000 0.614526
0.210663 0.000000 0.611483
0.344206 0.000000 0.608439
0.477749 0.000000 0.605396
0.611292 0.000000 0.602353
0.744835 0.000000 0.599309
0.875076 0.000000 0.601836
1.000000 0.000000 0.605125
0.000000 0.094750 0.611595
0.090947 0.096749 0.608551
0.224490 0.098749 0.605508
0.358033 0.100749 0.602465
0.491576 0.102748 0.599421
0.621955 0.105835 0.601715
0.751744 0.109124 0.605004
0.881533 0.112413 0.608293
1.000000 0.115702 0.611582
0.000000 0.225175 0.605620
0.104774 0.227175 0.602577
0.238317 0.229175 0.599533
0.368834 0.232214 0.601594
0.498623 0.235503 0.604883
0.628412 0.238792 0.608172
0.758201 0.242081 0.611461
0.887990 0.245370 0.614750
1.000000 0.248659 0.618039
0.000000 0.355601 0.599645
0.115713 0.358593 0.601473
0.245502 0.361882 0.604762
0.375291 0.365171 0.608051
0.505080 0.368460 0.611340
0.634869 0.371749 0.614629
0.764658 0.375038 0.617918
0.894447 0.378327 0.621207
1.000000 0.381616 0.624496
0.000000 0.488261 0.604641
0.122170 0.491550 0.607930
0.251959 0.494839 0.611219
0.381748 0.498128 0.614508
0.511537 0.501417 0.617797
0.641326 0.504706 0.621086
0.771115 0.507995 0.624375
0.900904 0.511284 0.627664
1.000000 0.514573 0.630953
0.000000 0.621218 0.611098
0.128627 0.624507 0.614387
0.258416 0.627796 0.617676
0.388205 0.631085 0.620965
0.517994 0.634374 0.624254
0.647783 0.637663 0.627543
0.777572 0.640952 0.630832
0.907361 0.644241 0.634121
1.000000 0.651596 0.636467
0.005295 0.754175 0.617555
0.135084 0.757464 0.620844
0.264873 0.760753 0.624133
0.394662 0.764042 0.627422
0.524451 0.767331 0.630711
0.654240 0.770620 0.634000
0.789151 0.777825 0.636381
0.924295 0.785208 0.638721
1.000000 0.792591 0.641061
0.011752 0.887132 0.624012
0.141541 0.890421 0.627301
0.271330 0.893710 0.630590
0.401119 0.896999 0.633879
0.535833 0.904053 0.636295
0.670977 0.911436 0.638635
0.806120 0.918819 0.640975
0.941264 0.926202 0.643315
1.000000 0.933585 0.645655
0.018209 1.000000 0.630469
0.147998 1.000000 0.633758
0.282515 1.000000 0.636209
0.417659 1.000000 0.638549
0.552802 1.000000 0.640889
0.687946 1.000000 0.643229
0.823090 1.000000 0.645568
0.958234 1.000000 0.647908
1.000000 1.000000 0.650248
0.000000 0.000000 0.742909
0.079806 0.000000 0.739866
0.213349 0.000000 0.736823
0.346892 0.000000 0.733779
0.480434 0.000000 0.730736
0.613977 0.000000 0.727692
0.746541 0.000000 0.726301
0.876330 0.000000 0.729590
1.000000 0.000000 0.732879
0.000000 0.095512 0.736935
0.093632 0.097512 0.733891
0.227175 0.099511 0.730848
0.360718 0.101511 0.727804
0.493420 0.103800 0.726180
0.623209 0.107089 0.729469
0.752998 0.110378 0.732758
0.882787 0.113667 0.736047
1.000000 0.116956 0.739336
0.000000 0.225938 0.730960
0.107459 0.227938 0.727916
0.240299 0.230179 0.726059
0.370088 0.233468 0.729348
0.499877 0.236757 0.732637
0.629666 0.240046 0.735926
0.759455 0.243335 0.739215
0.889244 0.246624 0.742504
1.000000 0.249913 0.745793
0.000000 0.356558 0.725938
0.116967 0.359847 0.729227
0.246756 0.363136 0.732516
0.376545 0.366425 0.735805
0.506334 0.369714 0.739094
0.636123 0.373003 0.742383
0.765912 0.376292 0.745672
0.895701 0.379581 0.748961
1.000000 0.382870 0.752250
0.000000 0.489515 0.732395
0.123424 0.492804 0.735684
0.253213 0.496093 0.738973
0.383002 0.499382 0.742262
0.512791 0.502671 0.745551
0.642580 0.505960 0.748840
0.772369 0.509249 0.752129
0.902158 0.512538 0.755418
1.000000 0.515827 0.758707
0.000092 0.622472 0.738852
0.129881 0.625761 0.742141
0.259670 0.629050 0.745430
0.389459 0.632339 0.748719
0.519248 0.635628 0.752008
0.649037 0.638917 0.755297
0.778826 0.642206 0.758586
0.910621 0.647028 0.761519
1.000000 0.654411 0.763859
0.006549 0.755429 0.745309
0.136338 0.758718 0.748598
0.266127 0.762007 0.751887
0.395916 0.765296 0.755176
0.525705 0.768585 0.758465
0.657303 0.773257 0.761433
0.792446 0.780640 0.763773
0.927590 0.788023 0.766113
1.000000 0.795406 0.768453
0.013006 0.888386 0.751766
0.142795 0.891675 0.755055
0.272584 0.894964 0.758344
0.403985 0.899485 0.761347
0.539128 0.906868 0.763687
0.674272 0.914251 0.766027
0.809416 0.921634 0.768367
0.944560 0.929017 0.770707
1.000000 0.936400 0.773047
0.019463 1.000000 0.758223
0.150667 1.000000 0.761261
0.285810 1.000000 0.763601
0.420954 1.000000 0.765941
0.556098 1.000000 0.768281
0.691242 1.000000 0.770621
0.826386 1.000000 0.772961
0.961530 1.000000 0.775300
1.000000 1.000000 0.777640
0.000000 0.000000 0.868249
0.082491 0.000000 0.865206
0.216034 0.000000 0.862162
0.349577 0.000000 0.859119
0.483120 0.000000 0.856075
0.616662 0.000000 0.853032
0.747795 0.000000 0.854055
0.877584 0.000000 0.857344
1.000000 0.000000 0.860633
0.000000 0.096274 0.862274
0.096318 0.098274 0.859231
0.229861 0.100274 0.856187
0.363403 0.102274 0.853144
0.494674 0.105054 0.853934
0.624463 0.108343 0.857223
0.754252 0.111632 0.860512
0.884041 0.114921 0.863801
1.000000 0.118210 0.867090
0.000000 0.226700 0.856299
0.110144 0.228700 0.853256
0.241553 0.231433 0.853813
0.371342 0.234722 0.857102
0.501131 0.238011 0.860391
0.630920 0.241300 0.863680
0.760709 0.244589 0.866969
0.890498 0.247878 0.870258
1.000000 0.251167 0.873547
0.000000 0.357812 0.853692
0.118221 0.361101 0.856981
0.248010 0.364390 0.860270
0.377799 0.367679 0.863559
0.507588 0.370968 0.866848
0.637377 0.374257 0.870137
0.767166 0.377546 0.873426
0.896955 0.380835 0.876715
1.000000 0.384124 0.880004
0.000000 0.490769 0.860149
0.124678 0.494058 0.863438
0.254467 0.497347 0.866727
0.384256 0.500636 0.870016
0.514045 0.503925 0.873305
0.643834 0.507214 0.876594
0.773623 0.510503 0.879883
0.903412 0.513792 0.883172
1.000000 0.517081 0.886461
0.001346 0.623726 0.866606
0.131135 0.627015 0.869895
0.260924 0.630304 0.873184
0.390713 0.633593 0.876473
0.520502 0.636882 0.879762
0.650291 0.640171 0.883051
0.780080 0.643460 0.886340
0.913916 0.649843 0.888911
1.000000 0.657226 0.891251
0.007803 0.756683 0.873063
0.137592 0.759972 0.876352
0.267381 0.763261 0.879641
0.397170 0.766550 0.882930
0.526959 0.769839 0.886219
0.660598 0.776072 0.888825
0.795742 0.783455 0.891165
0.930886 0.790838 0.893505
1.000000 0.798221 0.895845
0.014260 0.889640 0.879520
0.144049 0.892929 0.882809
0.273838 0.896218 0.886098
0.407280 0.902300 0.888739
0.542424 0.909683 0.891079
0.677568 0.917066 0.893419
0.812712 0.924449 0.895759
0.947856 0.931832 0.898099
1.000000 0.939215 0.900439
0.020717 1.000000 0.885977
0.153962 1.000000 0.888653
0.289106 1.000000 0.890993
0.424250 1.000000 0.893333
0.559394 1.000000 0.895673
0.694538 1.000000 0.898013
0.829681 1.000000 0.900353
0.964825 1.000000 0.902693
1.000000 1.000000 0.905033
0.000000 0.000000 0.993589
0.085176 0.000000 0.990545
0.218719 0.000000 0.987502
0.352262 0.000000 0.984458
0.485805 0.000000 0.981415
0.619260 0.000000 0.978520
0.749049 0.000000 0.981809
0.878838 0.000000 0.985098
1.000000 0.000000 0.988387
0.000000 0.097037 0.987614
0.099003 0.099037 0.984570
0.232546 0.101036 0.981527
0.366089 0.103036 0.978484
0.495928 0.106308 0.981688
0.625717 0.109597 0.984977
0.755506 0.112886 0.988266
0.885295 0.116175 0.991555
1.000000 0.119464 0.994844
0.000000 0.227463 0.981639
0.112829 0.229462 0.978595
0.242807 0.232687 0.981567
0.372596 0.235976 0.984856
0.502385 0.239265 0.988145
0.632174 0.242554 0.991434
0.761963 0.245843 0.994723
0.891752 0.249132 0.998012
1.000000 0.252421 1.000000
0.000000 0.359066 0.981446
0.119475 0.362355 0.984735
0.249264 0.365644 0.988024
0.379053 0.368933 0.991313
0.508842 0.372222 0.994602
0.638631 0.375511 0.997891
0.768420 0.378800 1.000000
0.898209 0.382089 1.000000
1.000000 0.385378 1.000000
0.000000 0.492023 0.987903
0.125932 0.495312 0.991192
0.255721 0.498601 0.994481
0.385510 0.501890 0.997770
0.515299 0.505179 1.000000
0.645088 0.508468 1.000000
0.774877 0.511757 1.000000
0.904666 0.515046 1.000000
1.000000 0.519047 1.000000
0.002600 0.624980 0.994360
0.132389 0.628269 0.997649
0.262178 0.631558 1.000000
0.391967 0.634847 1.000000
0.521756 0.638136 1.000000
0.651545 0.641425 1.000000
0.782068 0.645275 1.000000
0.917212 0.652658 1.000000
1.000000 0.660041 1.000000
0.009057 0.757937 1.000000
0.138846 0.761226 1.000000
0.268635 0.764515 1.000000
0.398424 0.767804 1.000000
0.528750 0.771504 1.000000
0.663894 0.778887 1.000000
0.799038 0.786270 1.000000
0.934182 0.793653 1.000000
1.000000 0.801036 1.000000
0.015514 0.890894 1.000000
0.145303 0.894183 1.000000
0.275432 0.897732 1.000000
0.410576 0.905115 1.000000
0.545720 0.912498 1.000000
0.680864 0.919881 1.000000
0.816007 0.927264 1.000000
0.951151 0.934647 1.000000
1.000000 0.942030 1.000000
0.022114 1.000000 1.000000
0.157258 1.000000 1.000000
0.292402 1.000000 1.000000
0.427546 1.000000 1.000000
0.562689 1.000000 1.000000
0.697833 1.000000 1.000000
0.832977 1.000000 1.000000
0.968121 1.000000 1.000000
1.000000 1.000000 1.000000
