assets/luts/nolan-desaturated.cube
TITLE "nolan-desaturated"
LUT_3D_SIZE 17
0.000000 0.000000 0.000000
0.000000 0.000000 0.000000
0.023828 0.000000 0.000000
0.080407 0.000000 0.000000
0.136986 0.000000 0.000000
0.193565 0.000000 0.000000
0.250144 0.000000 0.000000
0.306723 0.000000 0.000000
0.363302 0.000000 0.002714
0.419881 0.000000 0.008339
0.476459 0.000000 0.013965
0.533038 0.001878 0.019590
0.589617 0.009457 0.025216
0.646196 0.017036 0.030841
0.702775 0.024615 0.036467
0.759354 0.032194 0.042092
0.815933 0.039773 0.047717
0.000000 0.000000 0.000000
0.000000 0.000000 0.000000
0.038707 0.000000 0.000000
0.095286 0.005126 0.000000
0.151865 0.012705 0.000000
0.208444 0.020284 0.000000
0.265023 0.027863 0.002507
0.321602 0.035442 0.008132
0.378181 0.043021 0.013758
0.434760 0.050600 0.019383
0.491338 0.058178 0.025009
0.547917 0.065757 0.030634
0.604496 0.073336 0.036260
0.661075 0.080915 0.041885
0.717654 0.088494 0.047510
0.773050 0.094890 0.053730
0.828329 0.101169 0.060009
0.000000 0.046268 0.000000
0.000000 0.053847 0.000000
0.053586 0.061426 0.000000
0.110165 0.069005 0.000000
0.166744 0.076584 0.002300
0.223323 0.084163 0.007925
0.279902 0.091742 0.013551
0.336481 0.099321 0.019176
0.393060 0.106900 0.024802
0.449639 0.114479 0.030427
0.506217 0.122057 0.036053
0.562796 0.129636 0.041678
0.619375 0.137215 0.047303
0.674819 0.143659 0.053499
0.730098 0.149938 0.059778
0.785377 0.156217 0.066057
0.840656 0.162496 0.072336
0.000000 0.110147 0.000000
0.011886 0.117726 0.000000
0.068465 0.125305 0.002093
0.125044 0.132884 0.007719
0.181623 0.140463 0.013344
0.238202 0.148042 0.018969
0.294781 0.155621 0.024595
0.351360 0.163200 0.030220
0.407939 0.170779 0.035846
0.464517 0.178357 0.041471
0.521096 0.185936 0.047097
0.576588 0.192428 0.053268
0.631867 0.198707 0.059547
0.687146 0.204986 0.065826
0.742425 0.211265 0.072105
0.797704 0.217544 0.078384
0.852983 0.223823 0.084663
0.000000 0.174026 0.001886
0.026765 0.181605 0.007512
0.083344 0.189184 0.013137
0.139923 0.196763 0.018762
0.196502 0.204342 0.024388
0.253081 0.211921 0.030013
0.309660 0.219500 0.035639
0.366239 0.227079 0.041264
0.422818 0.234658 0.046890
0.478357 0.241197 0.053037
0.533636 0.247476 0.059316
0.588915 0.253755 0.065595
0.644194 0.260034 0.071874
0.699473 0.266313 0.078153
0.754752 0.272592 0.084432
0.810031 0.278871 0.090711
0.865310 0.285150 0.096990
0.000000 0.237905 0.012930
0.041644 0.245484 0.018555
0.098223 0.253063 0.024181
0.154802 0.260642 0.029806
0.211381 0.268221 0.035432
0.267960 0.275800 0.041057
0.324539 0.283379 0.046683
0.380126 0.289966 0.052806
0.435405 0.296245 0.059085
0.490684 0.302524 0.065364
0.545963 0.308803 0.071643
0.601242 0.315082 0.077922
0.656521 0.321361 0.084201
0.711800 0.327640 0.090480
0.767079 0.333919 0.096759
0.822358 0.340198 0.103038
0.877637 0.346477 0.109317
0.000000 0.301784 0.023974
0.056523 0.309363 0.029599
0.113102 0.316942 0.035225
0.169681 0.324521 0.040850
0.226260 0.332100 0.046476
0.281895 0.338735 0.052575
0.337174 0.345014 0.058854
0.392453 0.351293 0.065133
0.447732 0.357572 0.071412
0.503011 0.363851 0.077691
0.558290 0.370130 0.083970
0.613569 0.376409 0.090249
0.668848 0.382688 0.096528
0.724127 0.388967 0.102807
0.779406 0.395246 0.109086
0.834685 0.401525 0.115365
0.889964 0.407804 0.121644
0.014823 0.365663 0.035018
0.071402 0.373242 0.040643
0.127981 0.380821 0.046269
0.183664 0.387504 0.052344
0.238943 0.393783 0.058623
0.294222 0.400062 0.064902
0.349501 0.406341 0.071181
0.404780 0.412620 0.077460
0.460059 0.418899 0.083739
0.515338 0.425178 0.090018
0.570617 0.431457 0.096297
0.625896 0.437736 0.102576
0.681175 0.444015 0.108855
0.736454 0.450294 0.115134
0.791733 0.456573 0.121413
0.847012 0.462852 0.127692
0.902291 0.469131 0.133971
0.029702 0.429542 0.046062
0.085433 0.436273 0.052113
0.140712 0.442552 0.058392
0.195991 0.448831 0.064671
0.251270 0.455110 0.070950
0.306549 0.461389 0.077229
0.361828 0.467668 0.083508
0.417107 0.473947 0.089787
0.472386 0.480226 0.096066
0.527665 0.486505 0.102345
0.582944 0.492784 0.108624
0.638223 0.499063 0.114903
0.693502 0.505342 0.121182
0.748781 0.511621 0.127461
0.804060 0.517900 0.133740
0.859339 0.524179 0.140019
0.914618 0.530458 0.146298
0.042481 0.491321 0.058161
0.097760 0.497600 0.064440
0.153039 0.503879 0.070719
0.208318 0.510158 0.076998
0.263597 0.516437 0.083277
0.318876 0.522716 0.089556
0.374155 0.528995 0.095835
0.429434 0.535274 0.102114
0.484713 0.541553 0.108393
0.539992 0.547832 0.114672
0.595271 0.554111 0.120951
0.650550 0.560390 0.127230
0.705829 0.566669 0.133509
0.761108 0.572948 0.139788
0.816387 0.579227 0.146067
0.871666 0.585506 0.152346
0.926945 0.591785 0.158625
0.054808 0.552648 0.070488
0.110087 0.558927 0.076767
0.165366 0.565206 0.083046
0.220645 0.571485 0.089325
0.275924 0.577764 0.095604
0.331203 0.584043 0.101883
0.386482 0.590322 0.108162
0.441761 0.596601 0.114441
0.497040 0.602880 0.120720
0.552319 0.609159 0.126999
0.607598 0.615438 0.133278
0.662877 0.621717 0.139557
0.718156 0.627996 0.145836
0.773435 0.634275 0.152115
0.828714 0.640554 0.158394
0.883993 0.646833 0.164673
0.939272 0.653112 0.170952
0.067135 0.613975 0.082815
0.122414 0.620254 0.089094
0.177693 0.626533 0.095373
0.232972 0.632812 0.101652
0.288251 0.639091 0.107931
0.343530 0.645370 0.114210
0.398809 0.651649 0.120489
0.454088 0.657928 0.126768
0.509367 0.664207 0.133047
0.564646 0.670486 0.139326
0.619925 0.676765 0.145605
0.675204 0.683044 0.151884
0.730483 0.689323 0.158163
0.785762 0.695602 0.164442
0.841041 0.701881 0.170721
0.896320 0.708160 0.177000
0.951672 0.714445 0.183218
0.079462 0.675302 0.095142
0.134741 0.681581 0.101421
0.190020 0.687860 0.107700
0.245299 0.694139 0.113979
0.300578 0.700418 0.120258
0.355857 0.706697 0.126537
0.411136 0.712976 0.132816
0.466415 0.719255 0.139095
0.521694 0.725534 0.145374
0.576973 0.731813 0.151653
0.632252 0.738092 0.157932
0.687531 0.744371 0.164211
0.742810 0.750650 0.170490
0.798089 0.756929 0.176769
0.853421 0.763212 0.183003
0.909227 0.769530 0.188833
0.965033 0.775848 0.194662
0.091789 0.736629 0.107469
0.147068 0.742908 0.113748
0.202347 0.749187 0.120027
0.257626 0.755466 0.126306
0.312905 0.761745 0.132585
0.368184 0.768024 0.138864
0.423463 0.774303 0.145143
0.478742 0.780582 0.151422
0.534021 0.786861 0.157701
0.589300 0.793140 0.163980
0.644579 0.799419 0.170259
0.699858 0.805698 0.176538
0.755171 0.811980 0.182789
0.810977 0.818298 0.188618
0.866783 0.824615 0.194448
0.922589 0.830933 0.200277
0.978395 0.837251 0.206106
0.104116 0.797956 0.119796
0.159395 0.804235 0.126075
0.214674 0.810514 0.132354
0.269953 0.816793 0.138633
0.325232 0.823072 0.144912
0.380511 0.829351 0.151191
0.435790 0.835630 0.157470
0.491069 0.841909 0.163749
0.546348 0.848188 0.170028
0.601627 0.854467 0.176307
0.656921 0.860747 0.182574
0.712727 0.867065 0.188404
0.768533 0.873383 0.194233
0.824339 0.879701 0.200062
0.880145 0.886018 0.205892
0.935951 0.892336 0.211721
0.991757 0.898654 0.217550
0.116443 0.859283 0.132123
0.171722 0.865562 0.138402
0.227001 0.871841 0.144681
0.282280 0.878120 0.150960
0.337559 0.884399 0.157239
0.392838 0.890678 0.163518
0.448117 0.896957 0.169797
0.503396 0.903236 0.176076
0.558675 0.909515 0.182355
0.614476 0.915833 0.188189
0.670282 0.922150 0.194019
0.726088 0.928468 0.199848
0.781894 0.934786 0.205677
0.837701 0.941104 0.211507
0.893507 0.947421 0.217336
0.949313 0.953739 0.223165
1.000000 0.960057 0.228995
0.128770 0.920610 0.144450
0.184049 0.926889 0.150729
0.239328 0.933168 0.157008
0.294607 0.939447 0.163287
0.349886 0.945726 0.169566
0.405165 0.952005 0.175845
0.460444 0.958284 0.182124
0.516226 0.964600 0.187975
0.572032 0.970918 0.193804
0.627838 0.977236 0.199634
0.683644 0.983553 0.205463
0.739450 0.989871 0.211292
0.795256 0.996189 0.217122
0.851062 1.000000 0.222951
0.906868 1.000000 0.228780
0.962675 1.000000 0.234610
1.000000 1.000000 0.240439
0.000000 0.000000 0.008855
0.000000 0.000000 0.014481
0.026718 0.000000 0.020106
0.083297 0.000000 0.025732
0.139876 0.000000 0.031357
0.196455 0.000000 0.036983
0.253034 0.000000 0.042608
0.309612 0.000000 0.048233
0.366191 0.000000 0.053859
0.422770 0.000000 0.059484
0.479349 0.000000 0.065110
0.535928 0.004768 0.070735
0.592507 0.012347 0.076360
0.649086 0.019926 0.081986
0.705665 0.027505 0.087611
0.762244 0.035084 0.093237
0.818396 0.042236 0.099076
0.000000 0.000000 0.019899
0.000000 0.000000 0.025525
0.041597 0.000437 0.031150
0.098176 0.008016 0.036776
0.154755 0.015595 0.042401
0.211334 0.023174 0.048026
0.267912 0.030752 0.053652
0.324491 0.038331 0.059277
0.381070 0.045910 0.064903
0.437649 0.053489 0.070528
0.494228 0.061068 0.076154
0.550807 0.068647 0.081779
0.607386 0.076226 0.087404
0.663965 0.083805 0.093030
0.720165 0.091005 0.098845
0.775444 0.097284 0.105124
0.830723 0.103563 0.111403
0.000000 0.049158 0.030943
0.000000 0.056737 0.036569
0.056476 0.064316 0.042194
0.113055 0.071895 0.047819
0.169634 0.079474 0.053445
0.226213 0.087053 0.059070
0.282791 0.094631 0.064696
0.339370 0.102210 0.070321
0.395949 0.109789 0.075947
0.452528 0.117368 0.081572
0.509107 0.124947 0.087197
0.565686 0.132526 0.092823
0.621934 0.139774 0.098614
0.677213 0.146053 0.104893
0.732492 0.152332 0.111172
0.787771 0.158611 0.117451
0.843050 0.164890 0.123730
0.000000 0.113037 0.041987
0.014776 0.120616 0.047612
0.071355 0.128195 0.053238
0.127934 0.135774 0.058863
0.184513 0.143353 0.064489
0.241092 0.150932 0.070114
0.297670 0.158510 0.075740
0.354249 0.166089 0.081365
0.410828 0.173668 0.086990
0.467407 0.181247 0.092616
0.523703 0.188543 0.098383
0.578982 0.194822 0.104662
0.634261 0.201101 0.110941
0.689540 0.207380 0.117220
0.744819 0.213659 0.123499
0.800098 0.219938 0.129778
0.855377 0.226217 0.136057
0.000000 0.176916 0.053031
0.029655 0.184495 0.058656
0.086234 0.192074 0.064282
0.142813 0.199653 0.069907
0.199392 0.207232 0.075533
0.255970 0.214810 0.081158
0.312549 0.222389 0.086784
0.369128 0.229968 0.092409
0.425472 0.237312 0.098152
0.480751 0.243591 0.104431
0.536030 0.249870 0.110710
0.591309 0.256149 0.116989
0.646588 0.262428 0.123268
0.701867 0.268707 0.129547
0.757146 0.274986 0.135826
0.812425 0.281265 0.142105
0.867704 0.287544 0.148384
0.000000 0.240795 0.064075
0.044534 0.248374 0.069700
0.101113 0.255953 0.075326
0.157692 0.263532 0.080951
0.214271 0.271111 0.086577
0.270849 0.278689 0.092202
0.327241 0.286081 0.097921
0.382520 0.292360 0.104200
0.437799 0.298639 0.110479
0.493078 0.304918 0.116758
0.548357 0.311197 0.123037
0.603636 0.317476 0.129316
0.658915 0.323755 0.135595
0.714194 0.330034 0.141874
0.769473 0.336313 0.148153
0.824752 0.342592 0.154432
0.880031 0.348871 0.160711
0.002834 0.304674 0.075119
0.059413 0.312253 0.080744
0.115992 0.319832 0.086370
0.172571 0.327411 0.091995
0.229010 0.334850 0.097690
0.284289 0.341129 0.103969
0.339568 0.347408 0.110248
0.394847 0.353687 0.116527
0.450126 0.359966 0.122806
0.505405 0.366245 0.129085
0.560684 0.372524 0.135364
0.615963 0.378803 0.141643
0.671242 0.385082 0.147922
0.726521 0.391361 0.154201
0.781800 0.397640 0.160480
0.837079 0.403919 0.166759
0.892358 0.410198 0.173038
0.017713 0.368553 0.086163
0.074292 0.376132 0.091788
0.130779 0.383619 0.097459
0.186058 0.389898 0.103738
0.241337 0.396177 0.110017
0.296616 0.402456 0.116296
0.351895 0.408735 0.122575
0.407174 0.415014 0.128854
0.462453 0.421293 0.135133
0.517732 0.427572 0.141412
0.573011 0.433851 0.147691
0.628290 0.440130 0.153970
0.683569 0.446409 0.160249
0.738848 0.452688 0.166528
0.794127 0.458967 0.172807
0.849406 0.465246 0.179086
0.904685 0.471525 0.185365
0.032548 0.432388 0.097228
0.087827 0.438667 0.103507
0.143106 0.444946 0.109786
0.198385 0.451225 0.116065
0.253664 0.457504 0.122344
0.308943 0.463783 0.128623
0.364222 0.470062 0.134902
0.419501 0.476341 0.141181
0.474780 0.482620 0.147460
0.530059 0.488899 0.153739
0.585338 0.495178 0.160018
0.640617 0.501457 0.166297
0.695896 0.507736 0.172576
0.751175 0.514015 0.178855
0.806454 0.520294 0.185134
0.861733 0.526573 0.191413
0.917012 0.532852 0.197692
0.044875 0.493715 0.109555
0.100154 0.499994 0.115834
0.155433 0.506273 0.122113
0.210712 0.512552 0.128392
0.265991 0.518831 0.134671
0.321270 0.525110 0.140950
0.376549 0.531389 0.147229
0.431828 0.537668 0.153508
0.487107 0.543947 0.159787
0.542386 0.550226 0.166066
0.597665 0.556505 0.172345
0.652944 0.562784 0.178624
0.708223 0.569063 0.184903
0.763502 0.575342 0.191182
0.818781 0.581621 0.197461
0.874060 0.587900 0.203740
0.929339 0.594179 0.210019
0.057202 0.555042 0.121882
0.112481 0.561321 0.128161
0.167760 0.567600 0.134440
0.223039 0.573879 0.140719
0.278318 0.580158 0.146998
0.333597 0.586437 0.153277
0.388876 0.592716 0.159556
0.444155 0.598995 0.165835
0.499434 0.605274 0.172114
0.554713 0.611553 0.178393
0.609992 0.617832 0.184672
0.665271 0.624111 0.190951
0.720550 0.630390 0.197230
0.775829 0.636669 0.203509
0.831108 0.642948 0.209788
0.886387 0.649227 0.216067
0.941666 0.655506 0.222346
0.069529 0.616369 0.134209
0.124808 0.622648 0.140488
0.180087 0.628927 0.146767
0.235366 0.635206 0.153046
0.290645 0.641485 0.159325
0.345924 0.647764 0.165604
0.401203 0.654043 0.171883
0.456482 0.660322 0.178162
0.511761 0.666601 0.184441
0.567040 0.672880 0.190720
0.622319 0.679159 0.196999
0.677598 0.685438 0.203278
0.732877 0.691717 0.209557
0.788156 0.697996 0.215836
0.843435 0.704275 0.222115
0.898714 0.710554 0.228394
0.954267 0.716853 0.234440
0.081856 0.677696 0.146536
0.137135 0.683975 0.152815
0.192414 0.690254 0.159094
0.247693 0.696533 0.165373
0.302972 0.702812 0.171652
0.358251 0.709091 0.177931
0.413530 0.715370 0.184210
0.468809 0.721649 0.190489
0.524088 0.727928 0.196768
0.579367 0.734207 0.203047
0.634646 0.740486 0.209326
0.689925 0.746765 0.215605
0.745204 0.753044 0.221884
0.800483 0.759323 0.228163
0.856016 0.765621 0.234226
0.911822 0.771939 0.240055
0.967628 0.778256 0.245885
0.094183 0.739023 0.158863
0.149462 0.745302 0.165142
0.204741 0.751581 0.171421
0.260020 0.757860 0.177700
0.315299 0.764139 0.183979
0.370578 0.770418 0.190258
0.425857 0.776697 0.196537
0.481136 0.782976 0.202816
0.536415 0.789255 0.209095
0.591694 0.795534 0.215374
0.646973 0.801813 0.221653
0.702252 0.808092 0.227932
0.757766 0.814389 0.234011
0.813572 0.820706 0.239841
0.869378 0.827024 0.245670
0.925184 0.833342 0.251499
0.980990 0.839660 0.257329
0.106510 0.800350 0.171190
0.161789 0.806629 0.177469
0.217068 0.812908 0.183748
0.272347 0.819187 0.190027
0.327626 0.825466 0.196306
0.382905 0.831745 0.202585
0.438184 0.838024 0.208864
0.493463 0.844303 0.215143
0.548742 0.850582 0.221422
0.604021 0.856861 0.227701
0.659515 0.863156 0.233797
0.715322 0.869474 0.239626
0.771128 0.875792 0.245456
0.826934 0.882109 0.251285
0.882740 0.888427 0.257114
0.938546 0.894745 0.262944
0.994352 0.901063 0.268773
0.118837 0.861677 0.183517
0.174116 0.867956 0.189796
0.229395 0.874235 0.196075
0.284674 0.880514 0.202354
0.339953 0.886793 0.208633
0.395232 0.893072 0.214912
0.450511 0.899351 0.221191
0.505790 0.905630 0.227470
0.561265 0.911924 0.233582
0.617071 0.918241 0.239412
0.672877 0.924559 0.245241
0.728683 0.930877 0.251071
0.784489 0.937195 0.256900
0.840296 0.943512 0.262729
0.896102 0.949830 0.268559
0.951908 0.956148 0.274388
1.000000 0.962466 0.280217
0.131164 0.923004 0.195844
0.186443 0.929283 0.202123
0.241722 0.935562 0.208402
0.297001 0.941841 0.214681
0.352280 0.948120 0.220960
0.407559 0.954399 0.227239
0.463015 0.960691 0.233368
0.518821 0.967009 0.239197
0.574627 0.973327 0.245027
0.630433 0.979645 0.250856
0.686239 0.985962 0.256685
0.742045 0.992280 0.262515
0.797851 0.998598 0.268344
0.853657 1.000000 0.274173
0.909463 1.000000 0.280003
0.965269 1.000000 0.285832
1.000000 1.000000 0.291662
0.000000 0.000000 0.060000
0.000000 0.000000 0.065626
0.029608 0.000000 0.071251
0.086186 0.000000 0.076876
0.142765 0.000000 0.082502
0.199344 0.000000 0.088127
0.255923 0.000000 0.093753
0.312502 0.000000 0.099378
0.369081 0.000000 0.105004
0.425660 0.000000 0.110629
0.482239 0.000079 0.116254
0.538818 0.007658 0.121880
0.595396 0.015236 0.127505
0.651975 0.022815 0.133131
0.708554 0.030394 0.138756
0.765133 0.037973 0.144382
0.820790 0.044630 0.150470
0.000000 0.000000 0.071044
0.000000 0.000000 0.076670
0.044487 0.003327 0.082295
0.101065 0.010905 0.087920
0.157644 0.018484 0.093546
0.214223 0.026063 0.099171
0.270802 0.033642 0.104797
0.327381 0.041221 0.110422
0.383960 0.048800 0.116047
0.440539 0.056379 0.121673
0.497118 0.063958 0.127298
0.553697 0.071537 0.132924
0.610275 0.079115 0.138549
0.666854 0.086694 0.144175
0.722559 0.093399 0.150239
0.777838 0.099678 0.156518
0.833117 0.105957 0.162797
0.000000 0.052048 0.082088
0.002787 0.059627 0.087713
0.059365 0.067205 0.093339
0.115944 0.074784 0.098964
0.172523 0.082363 0.104590
0.229102 0.089942 0.110215
0.285681 0.097521 0.115841
0.342260 0.105100 0.121466
0.398839 0.112679 0.127091
0.455418 0.120258 0.132717
0.511997 0.127837 0.138342
0.568576 0.135416 0.143968
0.624328 0.142168 0.150008
0.679607 0.148447 0.156287
0.734886 0.154726 0.162566
0.790165 0.161005 0.168845
0.845444 0.167284 0.175124
0.000000 0.115927 0.093132
0.017666 0.123506 0.098757
0.074244 0.131084 0.104383
0.130823 0.138663 0.110008
0.187402 0.146242 0.115634
0.243981 0.153821 0.121259
0.300560 0.161400 0.126884
0.357139 0.168979 0.132510
0.413718 0.176558 0.138135
0.470297 0.184137 0.143761
0.526097 0.190937 0.149777
0.581376 0.197216 0.156056
0.636655 0.203495 0.162335
0.691934 0.209774 0.168614
0.747213 0.216053 0.174893
0.802492 0.222332 0.181172
0.857771 0.228611 0.187451
0.000000 0.179806 0.104176
0.032545 0.187385 0.109801
0.089123 0.194963 0.115427
0.145702 0.202542 0.121052
0.202281 0.210121 0.126677
0.258860 0.217700 0.132303
0.315439 0.225279 0.137928
0.372018 0.232858 0.143554
0.427866 0.239706 0.149546
0.483145 0.245985 0.155825
0.538424 0.252264 0.162104
0.593703 0.258543 0.168383
0.648982 0.264822 0.174662
0.704261 0.271101 0.180941
0.759540 0.277380 0.187220
0.814819 0.283659 0.193499
0.870098 0.289938 0.199778
0.000000 0.243685 0.115220
0.047423 0.251263 0.120845
0.104002 0.258842 0.126471
0.160581 0.266421 0.132096
0.217160 0.274000 0.137721
0.273739 0.281579 0.143347
0.329635 0.288475 0.149315
0.384914 0.294754 0.155594
0.440193 0.301033 0.161873
0.495472 0.307312 0.168152
0.550751 0.313591 0.174431
0.606030 0.319870 0.180710
0.661309 0.326149 0.186989
0.716588 0.332428 0.193268
0.771867 0.338707 0.199547
0.827146 0.344986 0.205826
0.882425 0.351265 0.212105
0.005724 0.307564 0.126264
0.062302 0.315142 0.131889
0.118881 0.322721 0.137514
0.175460 0.330300 0.143140
0.231404 0.337244 0.149084
0.286683 0.343523 0.155363
0.341962 0.349802 0.161642
0.397241 0.356081 0.167921
0.452520 0.362360 0.174200
0.507799 0.368639 0.180479
0.563078 0.374918 0.186758
0.618357 0.381197 0.193037
0.673636 0.387476 0.199316
0.728915 0.393755 0.205595
0.784194 0.400034 0.211874
0.839473 0.406313 0.218153
0.894752 0.412592 0.224432
0.020603 0.371443 0.137307
0.077181 0.379021 0.142933
0.133173 0.386013 0.148853
0.188452 0.392292 0.155132
0.243731 0.398571 0.161411
0.299010 0.404850 0.167690
0.354289 0.411129 0.173969
0.409568 0.417408 0.180248
0.464847 0.423687 0.186527
0.520126 0.429966 0.192806
0.575405 0.436245 0.199085
0.630684 0.442524 0.205364
0.685963 0.448803 0.211643
0.741242 0.455082 0.217922
0.796521 0.461361 0.224201
0.851800 0.467640 0.230480
0.907079 0.473919 0.236759
0.034942 0.434782 0.148622
0.090221 0.441061 0.154901
0.145500 0.447340 0.161180
0.200779 0.453619 0.167459
0.256058 0.459898 0.173738
0.311337 0.466177 0.180017
0.366616 0.472456 0.186296
0.421895 0.478735 0.192575
0.477174 0.485014 0.198854
0.532453 0.491293 0.205133
0.587732 0.497572 0.211412
0.643011 0.503851 0.217691
0.698290 0.510130 0.223970
0.753569 0.516409 0.230249
0.808848 0.522688 0.236528
0.864127 0.528967 0.242807
0.919406 0.535246 0.249086
0.047269 0.496109 0.160949
0.102548 0.502388 0.167228
0.157827 0.508667 0.173507
0.213106 0.514946 0.179786
0.268385 0.521225 0.186065
0.323664 0.527504 0.192344
0.378943 0.533783 0.198623
0.434222 0.540062 0.204902
0.489501 0.546341 0.211181
0.544780 0.552620 0.217460
0.600059 0.558899 0.223739
0.655338 0.565178 0.230018
0.710617 0.571457 0.236297
0.765896 0.577736 0.242576
0.821175 0.584015 0.248855
0.876454 0.590294 0.255134
0.931733 0.596573 0.261413
0.059596 0.557436 0.173276
0.114875 0.563715 0.179555
0.170154 0.569994 0.185834
0.225433 0.576273 0.192113
0.280712 0.582552 0.198392
0.335991 0.588831 0.204671
0.391270 0.595110 0.210950
0.446549 0.601389 0.217229
0.501828 0.607668 0.223508
0.557107 0.613947 0.229787
0.612386 0.620226 0.236066
0.667665 0.626505 0.242345
0.722944 0.632784 0.248624
0.778223 0.639063 0.254903
0.833502 0.645342 0.261182
0.888781 0.651621 0.267461
0.944060 0.657900 0.273740
0.071923 0.618763 0.185603
0.127202 0.625042 0.191882
0.182481 0.631321 0.198161
0.237760 0.637600 0.204440
0.293039 0.643879 0.210719
0.348318 0.650158 0.216998
0.403597 0.656437 0.223277
0.458876 0.662716 0.229556
0.514155 0.668995 0.235835
0.569434 0.675274 0.242114
0.624713 0.681553 0.248393
0.679992 0.687832 0.254672
0.735271 0.694111 0.260951
0.790550 0.700390 0.267230
0.845829 0.706669 0.273509
0.901108 0.712948 0.279788
0.956862 0.719262 0.285663
0.084250 0.680090 0.197930
0.139529 0.686369 0.204209
0.194808 0.692648 0.210488
0.250087 0.698927 0.216767
0.305366 0.705206 0.223046
0.360645 0.711485 0.229325
0.415924 0.717764 0.235604
0.471203 0.724043 0.241883
0.526482 0.730322 0.248162
0.581761 0.736601 0.254441
0.637040 0.742880 0.260720
0.692319 0.749159 0.266999
0.747598 0.755438 0.273278
0.802877 0.761717 0.279557
0.858611 0.768030 0.285448
0.914417 0.774348 0.291278
0.970223 0.780665 0.297107
0.096577 0.741417 0.210257
0.151856 0.747696 0.216536
0.207135 0.753975 0.222815
0.262414 0.760254 0.229094
0.317693 0.766533 0.235373
0.372972 0.772812 0.241652
0.428251 0.779091 0.247931
0.483530 0.785370 0.254210
0.538809 0.791649 0.260489
0.594088 0.797928 0.266768
0.649367 0.804207 0.273047
0.704646 0.810486 0.279326
0.760361 0.816797 0.285234
0.816167 0.823115 0.291063
0.871973 0.829433 0.296893
0.927779 0.835751 0.302722
0.983585 0.842068 0.308551
0.108904 0.802744 0.222584
0.164183 0.809023 0.228863
0.219462 0.815302 0.235142
0.274741 0.821581 0.241421
0.330020 0.827860 0.247700
0.385299 0.834139 0.253979
0.440578 0.840418 0.260258
0.495857 0.846697 0.266537
0.551136 0.852976 0.272816
0.606415 0.859255 0.279095
0.662110 0.865565 0.285019
0.717917 0.871883 0.290849
0.773723 0.878200 0.296678
0.829529 0.884518 0.302508
0.885335 0.890836 0.308337
0.941141 0.897154 0.314166
0.996947 0.903471 0.319996
0.121231 0.864071 0.234911
0.176510 0.870350 0.241190
0.231789 0.876629 0.247469
0.287068 0.882908 0.253748
0.342347 0.889187 0.260027
0.397626 0.895466 0.266306
0.452905 0.901745 0.272585
0.508184 0.908024 0.278864
0.563860 0.914333 0.284805
0.619666 0.920650 0.290634
0.675472 0.926968 0.296464
0.731278 0.933286 0.302293
0.787084 0.939603 0.308122
0.842890 0.945921 0.313952
0.898697 0.952239 0.319781
0.954503 0.958557 0.325611
1.000000 0.964874 0.331440
0.133558 0.925398 0.247238
0.188837 0.931677 0.253517
0.244116 0.937956 0.259796
0.299395 0.944235 0.266075
0.354674 0.950514 0.272354
0.409953 0.956793 0.278633
0.465610 0.963100 0.284591
0.521416 0.969418 0.290420
0.577222 0.975736 0.296249
0.633028 0.982053 0.302079
0.688834 0.988371 0.307908
0.744640 0.994689 0.313737
0.800446 1.000000 0.319567
0.856252 1.000000 0.325396
0.912058 1.000000 0.331225
0.967864 1.000000 0.337055
1.000000 1.000000 0.342884
0.000000 0.000000 0.111145
0.000000 0.000000 0.116770
0.032497 0.000000 0.122396
0.089076 0.000000 0.128021
0.145655 0.000000 0.133647
0.202234 0.000000 0.139272
0.258813 0.000000 0.144898
0.315392 0.000000 0.150523
0.371971 0.000000 0.156148
0.428549 0.000000 0.161774
0.485128 0.002968 0.167399
0.541707 0.010547 0.173025
0.598286 0.018126 0.178650
0.654865 0.025705 0.184276
0.711444 0.033284 0.189901
0.767905 0.040745 0.195585
0.823184 0.047024 0.201864
0.000000 0.000000 0.122189
0.000000 0.000000 0.127814
0.047376 0.006216 0.133440
