assets/luts/nolan-desaturated.cube
TITLE "nolan-desaturated"
LUT_3D_SIZE 5
0.000000 0.000000 0.000000
0.136986 0.000000 0.000000
0.363302 0.000000 0.002714
0.589617 0.009457 0.025216
0.815933 0.039773 0.047717
0.000000 0.174026 0.001886
0.196502 0.204342 0.024388
0.422818 0.234658 0.046890
0.644194 0.260034 0.071874
0.865310 0.285150 0.096990
0.029702 0.429542 0.046062
0.251270 0.455110 0.070950
0.472386 0.480226 0.096066
0.693502 0.505342 0.121182
0.914618 0.530458 0.146298
0.079462 0.675302 0.095142
0.300578 0.700418 0.120258
0.521694 0.725534 0.145374
0.742810 0.750650 0.170490
0.965033 0.775848 0.194662
0.128770 0.920610 0.144450
0.349886 0.945726 0.169566
0.572032 0.970918 0.193804
0.795256 0.996189 0.217122
1.000000 1.000000 0.240439
0.000000 0.000000 0.162290
0.148545 0.000000 0.184792
0.374860 0.000000 0.207293
0.601176 0.021016 0.229795
0.825578 0.049418 0.253258
0.000000 0.185585 0.206465
0.208060 0.215900 0.228967
0.432654 0.244494 0.252334
0.653770 0.269610 0.277450
0.874886 0.294726 0.302566
0.039730 0.439570 0.251410
0.260846 0.464686 0.276526
0.481962 0.489802 0.301642
0.703078 0.514918 0.326758
0.924194 0.540034 0.351874
0.089038 0.684878 0.300718
0.310154 0.709994 0.325834
0.531270 0.735110 0.350950
0.752386 0.760226 0.376066
0.975413 0.785483 0.399552
0.138346 0.930186 0.350026
0.359462 0.955302 0.375142
0.582412 0.980553 0.398694
0.805636 1.000000 0.422012
1.000000 1.000000 0.445329
0.000000 0.000000 0.366869
0.160103 0.000000 0.389371
0.386419 0.002259 0.411872
0.612734 0.032574 0.434374
0.835154 0.058994 0.458834
0.000000 0.197143 0.411045
0.219619 0.227459 0.433546
0.442230 0.254070 0.457910
0.663346 0.279186 0.483026
0.884462 0.304302 0.508142
0.049306 0.449146 0.456986
0.270422 0.474262 0.482102
0.491538 0.499378 0.507218
0.712654 0.524494 0.532334
0.933770 0.549610 0.557450
0.098614 0.694454 0.506294
0.319730 0.719570 0.531410
0.540846 0.744686 0.556526
0.762569 0.769847 0.581125
0.985793 0.795118 0.604442
0.147922 0.939762 0.555602
0.369567 0.964917 0.580267
0.592792 0.990188 0.603585
0.816016 1.000000 0.626902
1.000000 1.000000 0.650219
0.000000 0.000000 0.571448
0.171661 0.000000 0.593950
0.397977 0.013817 0.616452
0.623614 0.043454 0.639294
0.844730 0.068570 0.664410
0.004862 0.208702 0.615624
0.230690 0.238530 0.638370
0.451806 0.263646 0.663486
0.672922 0.288762 0.688602
0.894038 0.313878 0.713718
0.058882 0.458722 0.662562
0.279998 0.483838 0.687678
0.501114 0.508954 0.712794
0.722230 0.534070 0.737910
0.943346 0.559186 0.763026
0.108190 0.704030 0.711870
0.329306 0.729146 0.736986
0.550422 0.754262 0.762102
0.772949 0.779482 0.786015
0.996173 0.804753 0.809333
0.157498 0.949338 0.761178
0.379947 0.974552 0.785158
0.603171 0.999823 0.808475
0.826396 1.000000 0.831792
1.000000 1.000000 0.855110
0.000000 0.000000 0.776028
0.183220 0.000000 0.798529
0.409535 0.025375 0.821031
0.633190 0.053030 0.844870
0.854306 0.078146 0.869986
0.016420 0.220260 0.820203
0.240266 0.248106 0.843946
0.461382 0.273222 0.869062
0.682498 0.298338 0.894178
0.903614 0.323454 0.919294
0.068458 0.468298 0.868138
0.289574 0.493414 0.893254
0.510690 0.518530 0.918370
0.731806 0.543646 0.943486
0.953106 0.568776 0.968446
0.117766 0.713606 0.917446
0.338882 0.738722 0.942562
0.560104 0.763846 0.967588
0.783329 0.789117 0.990906
1.000000 0.814388 1.000000
0.167103 0.958916 0.966730
0.390327 0.984187 0.990048
0.613551 1.000000 1.000000
0.836776 1.000000 1.000000
1.000000 1.000000 1.000000
