assets/luts/nolan-desaturated.cube
TITLE "nolan-desaturated"
LUT_3D_SIZE 9
0.000000 0.000000 0.000000
0.023828 0.000000 0.000000
0.136986 0.000000 0.000000
0.250144 0.000000 0.000000
0.363302 0.000000 0.002714
0.476459 0.000000 0.013965
0.589617 0.009457 0.025216
0.702775 0.024615 0.036467
0.815933 0.039773 0.047717
0.000000 0.046268 0.000000
0.053586 0.061426 0.000000
0.166744 0.076584 0.002300
0.279902 0.091742 0.013551
0.393060 0.106900 0.024802
0.506217 0.122057 0.036053
0.619375 0.137215 0.047303
0.730098 0.149938 0.059778
0.840656 0.162496 0.072336
0.000000 0.174026 0.001886
0.083344 0.189184 0.013137
0.196502 0.204342 0.024388
0.309660 0.219500 0.035639
0.422818 0.234658 0.046890
0.533636 0.247476 0.059316
0.644194 0.260034 0.071874
0.754752 0.272592 0.084432
0.865310 0.285150 0.096990
0.000000 0.301784 0.023974
0.113102 0.316942 0.035225
0.226260 0.332100 0.046476
0.337174 0.345014 0.058854
0.447732 0.357572 0.071412
0.558290 0.370130 0.083970
0.668848 0.382688 0.096528
0.779406 0.395246 0.109086
0.889964 0.407804 0.121644
0.029702 0.429542 0.046062
0.140712 0.442552 0.058392
0.251270 0.455110 0.070950
0.361828 0.467668 0.083508
0.472386 0.480226 0.096066
0.582944 0.492784 0.108624
0.693502 0.505342 0.121182
0.804060 0.517900 0.133740
0.914618 0.530458 0.146298
0.054808 0.552648 0.070488
0.165366 0.565206 0.083046
0.275924 0.577764 0.095604
0.386482 0.590322 0.108162
0.497040 0.602880 0.120720
0.607598 0.615438 0.133278
0.718156 0.627996 0.145836
0.828714 0.640554 0.158394
0.939272 0.653112 0.170952
0.079462 0.675302 0.095142
0.190020 0.687860 0.107700
0.300578 0.700418 0.120258
0.411136 0.712976 0.132816
0.521694 0.725534 0.145374
0.632252 0.738092 0.157932
0.742810 0.750650 0.170490
0.853421 0.763212 0.183003
0.965033 0.775848 0.194662
0.104116 0.797956 0.119796
0.214674 0.810514 0.132354
0.325232 0.823072 0.144912
0.435790 0.835630 0.157470
0.546348 0.848188 0.170028
0.656921 0.860747 0.182574
0.768533 0.873383 0.194233
0.880145 0.886018 0.205892
0.991757 0.898654 0.217550
0.128770 0.920610 0.144450
0.239328 0.933168 0.157008
0.349886 0.945726 0.169566
0.460444 0.958284 0.182124
0.572032 0.970918 0.193804
0.683644 0.983553 0.205463
0.795256 0.996189 0.217122
0.906868 1.000000 0.228780
1.000000 1.000000 0.240439
0.000000 0.000000 0.060000
0.029608 0.000000 0.071251
0.142765 0.000000 0.082502
0.255923 0.000000 0.093753
0.369081 0.000000 0.105004
0.482239 0.000079 0.116254
0.595396 0.015236 0.127505
0.708554 0.030394 0.138756
0.820790 0.044630 0.150470
0.000000 0.052048 0.082088
0.059365 0.067205 0.093339
0.172523 0.082363 0.104590
0.285681 0.097521 0.115841
0.398839 0.112679 0.127091
0.511997 0.127837 0.138342
0.624328 0.142168 0.150008
0.734886 0.154726 0.162566
0.845444 0.167284 0.175124
0.000000 0.179806 0.104176
0.089123 0.194963 0.115427
0.202281 0.210121 0.126677
0.315439 0.225279 0.137928
0.427866 0.239706 0.149546
0.538424 0.252264 0.162104
0.648982 0.264822 0.174662
0.759540 0.277380 0.187220
0.870098 0.289938 0.199778
0.005724 0.307564 0.126264
0.118881 0.322721 0.137514
0.231404 0.337244 0.149084
0.341962 0.349802 0.161642
0.452520 0.362360 0.174200
0.563078 0.374918 0.186758
0.673636 0.387476 0.199316
0.784194 0.400034 0.211874
0.894752 0.412592 0.224432
0.034942 0.434782 0.148622
0.145500 0.447340 0.161180
0.256058 0.459898 0.173738
0.366616 0.472456 0.186296
0.477174 0.485014 0.198854
0.587732 0.497572 0.211412
0.698290 0.510130 0.223970
0.808848 0.522688 0.236528
0.919406 0.535246 0.249086
0.059596 0.557436 0.173276
0.170154 0.569994 0.185834
0.280712 0.582552 0.198392
0.391270 0.595110 0.210950
0.501828 0.607668 0.223508
0.612386 0.620226 0.236066
0.722944 0.632784 0.248624
0.833502 0.645342 0.261182
0.944060 0.657900 0.273740
0.084250 0.680090 0.197930
0.194808 0.692648 0.210488
0.305366 0.705206 0.223046
0.415924 0.717764 0.235604
0.526482 0.730322 0.248162
0.637040 0.742880 0.260720
0.747598 0.755438 0.273278
0.858611 0.768030 0.285448
0.970223 0.780665 0.297107
0.108904 0.802744 0.222584
0.219462 0.815302 0.235142
0.330020 0.827860 0.247700
0.440578 0.840418 0.260258
0.551136 0.852976 0.272816
0.662110 0.865565 0.285019
0.773723 0.878200 0.296678
0.885335 0.890836 0.308337
0.996947 0.903471 0.319996
0.133558 0.925398 0.247238
0.244116 0.937956 0.259796
0.354674 0.950514 0.272354
0.465610 0.963100 0.284591
0.577222 0.975736 0.296249
0.688834 0.988371 0.307908
0.800446 1.000000 0.319567
0.912058 1.000000 0.331225
1.000000 1.000000 0.342884
0.000000 0.000000 0.162290
0.035387 0.000000 0.173541
0.148545 0.000000 0.184792
0.261702 0.000000 0.196042
0.374860 0.000000 0.207293
0.488018 0.005858 0.218544
0.601176 0.021016 0.229795
0.714334 0.036174 0.241046
0.825578 0.049418 0.253258
0.000000 0.057827 0.184378
0.065145 0.072985 0.195628
0.178303 0.088143 0.206879
0.291460 0.103300 0.218130
0.404618 0.118458 0.229381
0.517776 0.133616 0.240632
0.629116 0.146956 0.252796
0.739674 0.159514 0.265354
0.850232 0.172072 0.277912
0.000000 0.185585 0.206465
0.094903 0.200743 0.217716
0.208060 0.215900 0.228967
0.321218 0.231058 0.240218
0.432654 0.244494 0.252334
0.543212 0.257052 0.264892
0.653770 0.269610 0.277450
0.764328 0.282168 0.290008
0.874886 0.294726 0.302566
0.011503 0.313343 0.228553
0.124661 0.328501 0.239804
0.236192 0.342032 0.251872
0.346750 0.354590 0.264430
0.457308 0.367148 0.276988
0.567866 0.379706 0.289546
0.678424 0.392264 0.302104
0.788982 0.404822 0.314662
0.899540 0.417380 0.327220
0.039730 0.439570 0.251410
0.150288 0.452128 0.263968
0.260846 0.464686 0.276526
0.371404 0.477244 0.289084
0.481962 0.489802 0.301642
0.592520 0.502360 0.314200
0.703078 0.514918 0.326758
0.813636 0.527476 0.339316
0.924194 0.540034 0.351874
0.064384 0.562224 0.276064
0.174942 0.574782 0.288622
0.285500 0.587340 0.301180
0.396058 0.599898 0.313738
0.506616 0.612456 0.326296
0.617174 0.625014 0.338854
0.727732 0.637572 0.351412
0.838290 0.650130 0.363970
0.948848 0.662688 0.376528
0.089038 0.684878 0.300718
0.199596 0.697436 0.313276
0.310154 0.709994 0.325834
0.420712 0.722552 0.338392
0.531270 0.735110 0.350950
0.641828 0.747668 0.363508
0.752386 0.760226 0.376066
0.863801 0.772847 0.387894
0.975413 0.785483 0.399552
0.113692 0.807532 0.325372
0.224250 0.820090 0.337930
0.334808 0.832648 0.350488
0.445366 0.845206 0.363046
0.555924 0.857764 0.375604
0.667300 0.870382 0.387465
0.778913 0.883018 0.399123
0.890525 0.895653 0.410782
1.000000 0.908289 0.422441
0.138346 0.930186 0.350026
0.248904 0.942744 0.362584
0.359462 0.955302 0.375142
0.470800 0.967918 0.387036
0.582412 0.980553 0.398694
0.694024 0.993189 0.410353
0.805636 1.000000 0.422012
0.917248 1.000000 0.433671
1.000000 1.000000 0.445329
0.000000 0.000000 0.264579
0.041166 0.000000 0.275830
0.154324 0.000000 0.287081
0.267482 0.000000 0.298332
0.380639 0.000000 0.309583
0.493797 0.011637 0.320834
0.606955 0.026795 0.332085
0.719808 0.041648 0.343488
0.830366 0.054206 0.356046
0.000000 0.063606 0.286667
0.070924 0.078764 0.297918
0.184082 0.093922 0.309169
0.297240 0.109080 0.320420
0.410397 0.124237 0.331671
0.523346 0.139186 0.343026
0.633904 0.151744 0.355584
0.744462 0.164302 0.368142
0.855020 0.176860 0.380700
0.000000 0.191364 0.308755
0.100682 0.206522 0.320006
0.213840 0.221680 0.331257
0.326884 0.236724 0.342564
0.437442 0.249282 0.355122
0.548000 0.261840 0.367680
0.658558 0.274398 0.380238
0.769116 0.286956 0.392796
0.879674 0.299514 0.405354
0.017282 0.319122 0.330843
0.130422 0.334262 0.342102
0.240980 0.346820 0.354660
0.351538 0.359378 0.367218
0.462096 0.371936 0.379776
0.572654 0.384494 0.392334
0.683212 0.397052 0.404892
0.793770 0.409610 0.417450
0.904328 0.422168 0.430008
0.044518 0.444358 0.354198
0.155076 0.456916 0.366756
0.265634 0.469474 0.379314
0.376192 0.482032 0.391872
0.486750 0.494590 0.404430
0.597308 0.507148 0.416988
0.707866 0.519706 0.429546
0.818424 0.532264 0.442104
0.928982 0.544822 0.454662
0.069172 0.567012 0.378852
0.179730 0.579570 0.391410
0.290288 0.592128 0.403968
0.400846 0.604686 0.416526
0.511404 0.617244 0.429084
0.621962 0.629802 0.441642
0.732520 0.642360 0.454200
0.843078 0.654918 0.466758
0.953880 0.667494 0.479109
0.093826 0.689666 0.403506
0.204384 0.702224 0.416064
0.314942 0.714782 0.428622
0.425500 0.727340 0.441180
0.536058 0.739898 0.453738
0.646616 0.752456 0.466296
0.757379 0.765029 0.478680
0.868991 0.777665 0.490339
0.980603 0.790300 0.501997
0.118480 0.812320 0.428160
0.229038 0.824878 0.440718
0.339596 0.837436 0.453276
0.450154 0.849994 0.465834
0.560878 0.862565 0.478251
0.672490 0.875200 0.489910
0.784102 0.887835 0.501568
0.895715 0.900471 0.513227
1.000000 0.913106 0.524886
0.143134 0.934974 0.452814
0.253692 0.947532 0.465372
0.364377 0.960100 0.477822
0.475989 0.972735 0.489481
0.587602 0.985371 0.501140
0.699214 0.998006 0.512798
0.810826 1.000000 0.524457
0.922438 1.000000 0.536116
1.000000 1.000000 0.547774
0.000000 0.000000 0.366869
0.046945 0.000000 0.378120
0.160103 0.000000 0.389371
0.273261 0.000000 0.400622
0.386419 0.002259 0.411872
0.499576 0.017416 0.423123
0.612734 0.032574 0.434374
0.724596 0.046436 0.446276
0.835154 0.058994 0.458834
0.000000 0.069385 0.388957
0.076703 0.084543 0.400208
0.189861 0.099701 0.411459
0.303019 0.114859 0.422709
0.416177 0.130017 0.433960
0.528134 0.143974 0.445814
0.638692 0.156532 0.458372
0.749250 0.169090 0.470930
0.859808 0.181648 0.483488
0.000000 0.197143 0.411045
0.106461 0.212301 0.422295
0.219619 0.227459 0.433546
0.331672 0.241512 0.445352
0.442230 0.254070 0.457910
0.552788 0.266628 0.470468
0.663346 0.279186 0.483026
0.773904 0.291744 0.495584
0.884462 0.304302 0.508142
0.023061 0.324901 0.433132
0.135210 0.339050 0.444890
0.245768 0.351608 0.457448
0.356326 0.364166 0.470006
0.466884 0.376724 0.482564
0.577442 0.389282 0.495122
0.688000 0.401840 0.507680
0.798558 0.414398 0.520238
0.909116 0.426956 0.532796
0.049306 0.449146 0.456986
0.159864 0.461704 0.469544
0.270422 0.474262 0.482102
0.380980 0.486820 0.494660
0.491538 0.499378 0.507218
0.602096 0.511936 0.519776
0.712654 0.524494 0.532334
0.823212 0.537052 0.544892
0.933770 0.549610 0.557450
0.073960 0.571800 0.481640
0.184518 0.584358 0.494198
0.295076 0.596916 0.506756
0.405634 0.609474 0.519314
0.516192 0.622032 0.531872
0.626750 0.634590 0.544430
0.737308 0.647148 0.556988
0.847866 0.659706 0.569546
0.959070 0.672312 0.581554
0.098614 0.694454 0.506294
0.209172 0.707012 0.518852
0.319730 0.719570 0.531410
0.430288 0.732128 0.543968
0.540846 0.744686 0.556526
0.651404 0.757244 0.569084
0.762569 0.769847 0.581125
0.874181 0.782482 0.592784
0.985793 0.795118 0.604442
0.123268 0.817108 0.530948
0.233826 0.829666 0.543506
0.344384 0.842224 0.556064
0.454942 0.854782 0.568622
0.566068 0.867382 0.580696
0.677680 0.880018 0.592355
0.789292 0.892653 0.604014
0.900905 0.905288 0.615672
1.000000 0.917924 0.627331
0.147922 0.939762 0.555602
0.258480 0.952320 0.568160
0.369567 0.964917 0.580267
0.481179 0.977553 0.591926
0.592792 0.990188 0.603585
0.704404 1.000000 0.615243
0.816016 1.000000 0.626902
0.927628 1.000000 0.638561
1.000000 1.000000 0.650219
0.000000 0.000000 0.469159
0.052724 0.000000 0.480410
0.165882 0.000000 0.491660
0.279040 0.000000 0.502911
0.392198 0.008038 0.514162
0.505356 0.023196 0.525413
0.618513 0.038353 0.536664
0.729384 0.051224 0.549064
0.839942 0.063782 0.561622
0.000000 0.075165 0.491246
0.082482 0.090322 0.502497
0.195640 0.105480 0.513748
0.308798 0.120638 0.524999
0.421956 0.135796 0.536250
0.532922 0.148762 0.548602
0.643480 0.161320 0.561160
0.754038 0.173878 0.573718
0.864596 0.186436 0.586276
0.000000 0.202923 0.513334
0.112240 0.218080 0.524585
0.225398 0.233238 0.535836
0.336460 0.246300 0.548140
0.447018 0.258858 0.560698
0.557576 0.271416 0.573256
0.668134 0.283974 0.585814
0.778692 0.296532 0.598372
0.889250 0.309090 0.610930
0.028840 0.330680 0.535422
0.139998 0.343838 0.547678
0.250556 0.356396 0.560236
0.361114 0.368954 0.572794
0.471672 0.381512 0.585352
0.582230 0.394070 0.597910
0.692788 0.406628 0.610468
0.803346 0.419186 0.623026
0.913904 0.431744 0.635584
0.054094 0.453934 0.559774
0.164652 0.466492 0.572332
0.275210 0.479050 0.584890
0.385768 0.491608 0.597448
0.496326 0.504166 0.610006
0.606884 0.516724 0.622564
0.717442 0.529282 0.635122
0.828000 0.541840 0.647680
0.938558 0.554398 0.660238
0.078748 0.576588 0.584428
0.189306 0.589146 0.596986
0.299864 0.601704 0.609544
0.410422 0.614262 0.622102
0.520980 0.626820 0.634660
0.631538 0.639378 0.647218
0.742096 0.651936 0.659776
0.852654 0.664494 0.672334
0.964260 0.677129 0.683999
0.103402 0.699242 0.609082
0.213960 0.711800 0.621640
0.324518 0.724358 0.634198
0.435076 0.736916 0.646756
0.545634 0.749474 0.659314
0.656192 0.762032 0.671872
0.767759 0.774664 0.683570
0.879371 0.787300 0.695229
0.990983 0.799935 0.706888
0.128056 0.821896 0.633736
0.238614 0.834454 0.646294
0.349172 0.847012 0.658852
0.459730 0.859570 0.671410
0.571258 0.872200 0.683141
0.682870 0.884835 0.694800
0.794482 0.897471 0.706459
0.906094 0.910106 0.718117
1.000000 0.922741 0.729776
0.152710 0.944550 0.658390
0.263268 0.957108 0.670948
0.374757 0.969735 0.682712
0.486369 0.982370 0.694371
0.597982 0.995006 0.706030
0.709594 1.000000 0.717688
0.821206 1.000000 0.729347
0.932818 1.000000 0.741006
1.000000 1.000000 0.752665
0.000000 0.000000 0.571448
0.058504 0.000000 0.582699
0.171661 0.000000 0.593950
0.284819 0.000000 0.605201
0.397977 0.013817 0.616452
0.511135 0.028975 0.627703
0.623614 0.043454 0.639294
0.734172 0.056012 0.651852
0.844730 0.068570 0.664410
0.000000 0.080944 0.593536
0.088262 0.096102 0.604787
0.201419 0.111259 0.616038
0.314577 0.126417 0.627289
0.427152 0.140992 0.638832
0.537710 0.153550 0.651390
0.648268 0.166108 0.663948
0.758826 0.178666 0.676506
0.869384 0.191224 0.689064
0.004862 0.208702 0.615624
0.118020 0.223860 0.626875
0.230690 0.238530 0.638370
0.341248 0.251088 0.650928
0.451806 0.263646 0.663486
0.562364 0.276204 0.676044
0.672922 0.288762 0.688602
0.783480 0.301320 0.701160
0.894038 0.313878 0.713718
0.034228 0.336068 0.637908
0.144786 0.348626 0.650466
0.255344 0.361184 0.663024
0.365902 0.373742 0.675582
0.476460 0.386300 0.688140
0.587018 0.398858 0.700698
0.697576 0.411416 0.713256
0.808134 0.423974 0.725814
0.918692 0.436532 0.738372
0.058882 0.458722 0.662562
0.169440 0.471280 0.675120
0.279998 0.483838 0.687678
0.390556 0.496396 0.700236
0.501114 0.508954 0.712794
0.611672 0.521512 0.725352
0.722230 0.534070 0.737910
0.832788 0.546628 0.750468
0.943346 0.559186 0.763026
0.083536 0.581376 0.687216
0.194094 0.593934 0.699774
0.304652 0.606492 0.712332
0.415210 0.619050 0.724890
0.525768 0.631608 0.737448
0.636326 0.644166 0.750006
0.746884 0.656724 0.762564
0.857837 0.669311 0.774786
0.969449 0.681947 0.786444
0.108190 0.704030 0.711870
0.218748 0.716588 0.724428
0.329306 0.729146 0.736986
0.439864 0.741704 0.749544
0.550422 0.754262 0.762102
0.661336 0.766847 0.774357
0.772949 0.779482 0.786015
0.884561 0.792117 0.797674
0.996173 0.804753 0.809333
0.132844 0.826684 0.736524
0.243402 0.839242 0.749082
0.353960 0.851800 0.761640
0.464836 0.864382 0.773928
0.576448 0.877017 0.785586
0.688060 0.889653 0.797245
0.799672 0.902288 0.808904
0.911284 0.914923 0.820563
1.000000 0.927559 0.832221
0.157498 0.949338 0.761178
0.268335 0.961917 0.773499
0.379947 0.974552 0.785158
0.491559 0.987188 0.796816
0.603171 0.999823 0.808475
0.714784 1.000000 0.820134
0.826396 1.000000 0.831792
0.938008 1.000000 0.843451
1.000000 1.000000 0.855110
0.000000 0.000000 0.673738
0.064283 0.000000 0.684989
0.177441 0.000000 0.696240
0.290598 0.004438 0.707490
0.403756 0.019596 0.718741
0.516914 0.034754 0.729992
0.628402 0.048242 0.742082
0.738960 0.060800 0.754640
0.849518 0.073358 0.767198
0.000000 0.086723 0.695826
0.094041 0.101881 0.707077
0.207199 0.117039 0.718327
0.320356 0.132196 0.729578
0.431940 0.145780 0.741620
0.542498 0.158338 0.754178
0.653056 0.170896 0.766736
0.763614 0.183454 0.779294
0.874172 0.196012 0.791852
0.010641 0.214481 0.717914
0.123799 0.229639 0.729164
0.235478 0.243318 0.741158
0.346036 0.255876 0.753716
0.456594 0.268434 0.766274
0.567152 0.280992 0.778832
0.677710 0.293550 0.791390
0.788268 0.306108 0.803948
0.898826 0.318666 0.816506
0.039016 0.340856 0.740696
0.149574 0.353414 0.753254
0.260132 0.365972 0.765812
0.370690 0.378530 0.778370
0.481248 0.391088 0.790928
0.591806 0.403646 0.803486
0.702364 0.416204 0.816044
0.812922 0.428762 0.828602
0.923480 0.441320 0.841160
0.063670 0.463510 0.765350
0.174228 0.476068 0.777908
0.284786 0.488626 0.790466
0.395344 0.501184 0.803024
0.505902 0.513742 0.815582
0.616460 0.526300 0.828140
0.727018 0.538858 0.840698
0.837576 0.551416 0.853256
0.948134 0.563974 0.865814
0.088324 0.586164 0.790004
0.198882 0.598722 0.802562
0.309440 0.611280 0.815120
0.419998 0.623838 0.827678
0.530556 0.636396 0.840236
0.641114 0.648954 0.852794
0.751672 0.661512 0.865352
0.863027 0.674129 0.877231
0.974639 0.686764 0.888889
0.112978 0.708818 0.814658
0.223536 0.721376 0.827216
0.334094 0.733934 0.839774
0.444652 0.746492 0.852332
0.555210 0.759050 0.864890
0.666526 0.771664 0.876802
0.778139 0.784300 0.888460
0.889751 0.796935 0.900119
1.000000 0.809570 0.911778
0.137632 0.831472 0.839312
0.248190 0.844030 0.851870
0.358748 0.856588 0.864428
0.470026 0.869199 0.876373
0.581638 0.881835 0.888032
0.693250 0.894470 0.899690
0.804862 0.907106 0.911349
0.916474 0.919741 0.923008
1.000000 0.932376 0.934666
0.162286 0.954126 0.863966
0.273525 0.966734 0.875944
0.385137 0.979370 0.887603
0.496749 0.992005 0.899261
0.608361 1.000000 0.910920
0.719974 1.000000 0.922579
0.831586 1.000000 0.934237
0.943198 1.000000 0.945896
1.000000 1.000000 0.957555
0.000000 0.000000 0.776028
0.070062 0.000000 0.787278
0.183220 0.000000 0.798529
0.296378 0.010218 0.809780
0.409535 0.025375 0.821031
0.522632 0.040472 0.832312
0.633190 0.053030 0.844870
0.743748 0.065588 0.857428
0.854306 0.078146 0.869986
0.000000 0.092502 0.798115
0.099820 0.107660 0.809366
0.212978 0.122818 0.820617
0.326136 0.137976 0.831868
0.436728 0.150568 0.844408
0.547286 0.163126 0.856966
0.657844 0.175684 0.869524
0.768402 0.188242 0.882082
0.878960 0.200800 0.894640
0.016420 0.220260 0.820203
0.129578 0.235418 0.831454
0.240266 0.248106 0.843946
0.350824 0.260664 0.856504
0.461382 0.273222 0.869062
0.571940 0.285780 0.881620
0.682498 0.298338 0.894178
0.793056 0.310896 0.906736
0.903614 0.323454 0.919294
0.043804 0.345644 0.843484
0.154362 0.358202 0.856042
0.264920 0.370760 0.868600
0.375478 0.383318 0.881158
0.486036 0.395876 0.893716
0.596594 0.408434 0.906274
0.707152 0.420992 0.918832
0.817710 0.433550 0.931390
0.928268 0.446108 0.943948
0.068458 0.468298 0.868138
0.179016 0.480856 0.880696
0.289574 0.493414 0.893254
0.400132 0.505972 0.905812
0.510690 0.518530 0.918370
0.621248 0.531088 0.930928
0.731806 0.543646 0.943486
0.842364 0.556204 0.956044
0.953106 0.568776 0.968446
0.093112 0.590952 0.892792
0.203670 0.603510 0.905350
0.314228 0.616068 0.917908
0.424786 0.628626 0.930466
0.535344 0.641184 0.943024
0.645902 0.653742 0.955582
0.756605 0.666311 0.968017
0.868217 0.678946 0.979676
0.979829 0.691582 0.991335
0.117766 0.713606 0.917446
0.228324 0.726164 0.930004
0.338882 0.738722 0.942562
0.449440 0.751280 0.955120
0.560104 0.763846 0.967588
0.671716 0.776482 0.979247
0.783329 0.789117 0.990906
0.894941 0.801752 1.000000
1.000000 0.814388 1.000000
0.142420 0.836260 0.942100
0.252978 0.848818 0.954658
0.363603 0.861381 0.967159
0.475216 0.874017 0.978818
0.586828 0.886652 0.990477
0.698440 0.899288 1.000000
0.810052 0.911923 1.000000
0.921664 0.924559 1.000000
1.000000 0.937194 1.000000
0.167103 0.958916 0.966730
0.278715 0.971552 0.978389
0.390327 0.984187 0.990048
0.501939 0.996823 1.000000
0.613551 1.000000 1.000000
0.725163 1.000000 1.000000
0.836776 1.000000 1.000000
0.948388 1.000000 1.000000
1.000000 1.000000 1.000000
