assets/luts/nostalgic-lifted.cube
TITLE "nostalgic-lifted"
LUT_3D_SIZE 17
0.109327 0.095527 0.067927
0.153917 0.096992 0.070252
0.198507 0.098457 0.072577
0.243098 0.099923 0.074902
0.287688 0.101388 0.077227
0.332278 0.102853 0.079552
0.376869 0.104319 0.081877
0.421459 0.105784 0.084202
0.466050 0.107250 0.086527
0.510640 0.108715 0.088852
0.555230 0.110180 0.091177
0.599821 0.111646 0.093502
0.644411 0.113111 0.095827
0.689001 0.114576 0.098152
0.733592 0.116042 0.100477
0.778182 0.117507 0.102802
0.822773 0.118973 0.105127
0.112203 0.141528 0.072491
0.156794 0.142994 0.074816
0.201384 0.144459 0.077141
0.245975 0.145925 0.079466
0.290565 0.147390 0.081791
0.335155 0.148855 0.084116
0.379746 0.150321 0.086441
0.424336 0.151786 0.088766
0.468926 0.153251 0.091091
0.513517 0.154717 0.093416
0.558107 0.156182 0.095741
0.602698 0.157648 0.098066
0.647288 0.159113 0.100391
0.691878 0.160578 0.102716
0.736469 0.162044 0.105041
0.783636 0.166086 0.109161
0.831059 0.170384 0.113459
0.115080 0.187530 0.077056
0.159671 0.188996 0.079381
0.204261 0.190461 0.081706
0.248851 0.191926 0.084031
0.293442 0.193392 0.086356
0.338032 0.194857 0.088681
0.382623 0.196323 0.091006
0.427213 0.197788 0.093331
0.471803 0.199253 0.095656
0.516394 0.200719 0.097981
0.560984 0.202184 0.100306
0.605574 0.203649 0.102631
0.650165 0.205115 0.104956
0.697228 0.209053 0.109003
0.744651 0.213351 0.113301
0.792074 0.217649 0.117599
0.839497 0.221947 0.121897
0.117957 0.233532 0.081620
0.162547 0.234997 0.083945
0.207138 0.236463 0.086270
0.251728 0.237928 0.088595
0.296319 0.239394 0.090920
0.340909 0.240859 0.093245
0.385499 0.242324 0.095570
0.430090 0.243790 0.097895
0.474680 0.245255 0.100220
0.519270 0.246720 0.102545
0.563861 0.248186 0.104870
0.610820 0.252020 0.108845
0.658243 0.256318 0.113143
0.705666 0.260616 0.117441
0.753089 0.264914 0.121739
0.800512 0.269212 0.126037
0.847935 0.273510 0.130335
0.120834 0.279534 0.086184
0.165424 0.280999 0.088509
0.210015 0.282465 0.090834
0.254605 0.283930 0.093159
0.299195 0.285395 0.095484
0.343786 0.286861 0.097809
0.388376 0.288326 0.100134
0.432967 0.289792 0.102459
0.477557 0.291257 0.104784
0.524412 0.294987 0.108687
0.571835 0.299285 0.112985
0.619258 0.303583 0.117283
0.666681 0.307881 0.121581
0.714104 0.312179 0.125879
0.761527 0.316477 0.130177
0.808950 0.320775 0.134475
0.856374 0.325074 0.138773
0.123711 0.325536 0.090749
0.168301 0.327001 0.093074
0.212892 0.328467 0.095399
0.257482 0.329932 0.097724
0.302072 0.331397 0.100049
0.346663 0.332863 0.102374
0.391253 0.334328 0.104699
0.438003 0.337954 0.108528
0.485427 0.342252 0.112827
0.532850 0.346550 0.117125
0.580273 0.350848 0.121423
0.627696 0.355146 0.125721
0.675119 0.359444 0.130019
0.722542 0.363742 0.134317
0.769965 0.368040 0.138615
0.817389 0.372339 0.142913
0.864812 0.376637 0.147212
0.126588 0.371538 0.095313
0.171178 0.373003 0.097638
0.215768 0.374468 0.099963
0.260359 0.375934 0.102288
0.304949 0.377399 0.104613
0.351595 0.380920 0.108370
0.399018 0.385219 0.112668
0.446442 0.389517 0.116967
0.493865 0.393815 0.121265
0.541288 0.398113 0.125563
0.588711 0.402411 0.129861
0.636134 0.406709 0.134159
0.683557 0.411007 0.138457
0.730980 0.415305 0.142755
0.778404 0.419604 0.147054
0.825827 0.423902 0.151352
0.873250 0.428200 0.155650
0.129464 0.417539 0.099878
0.174055 0.419005 0.102203
0.218645 0.420470 0.104528
0.265187 0.423887 0.108212
0.312610 0.428185 0.112510
0.360034 0.432484 0.116808
0.407457 0.436782 0.121107
0.454880 0.441080 0.125405
0.502303 0.445378 0.129703
0.549726 0.449676 0.134001
0.597149 0.453974 0.138299
0.644572 0.458272 0.142597
0.691995 0.462570 0.146895
0.739418 0.466869 0.151193
0.786842 0.471167 0.155492
0.834265 0.475465 0.159790
0.881688 0.479763 0.164088
0.132341 0.463541 0.104442
0.178779 0.466854 0.108054
0.226202 0.471152 0.112352
0.273625 0.475450 0.116650
0.321049 0.479749 0.120948
0.368472 0.484047 0.125247
0.415895 0.488345 0.129545
0.463318 0.492643 0.133843
0.510741 0.496941 0.138141
0.558164 0.501239 0.142439
0.605587 0.505537 0.146737
0.653010 0.509835 0.151035
0.700434 0.514133 0.155333
0.747857 0.518432 0.159632
0.795280 0.522730 0.163930
0.842703 0.527028 0.168228
0.890126 0.531326 0.172526
0.139794 0.514119 0.112194
0.187217 0.518417 0.116492
0.234640 0.522715 0.120790
0.282063 0.527013 0.125088
0.329487 0.531312 0.129387
0.376910 0.535610 0.133685
0.424333 0.539908 0.137983
0.471756 0.544206 0.142281
0.519179 0.548504 0.146579
0.566602 0.552802 0.150877
0.614025 0.557100 0.155175
0.661448 0.561399 0.159473
0.708872 0.565697 0.163772
0.756295 0.569995 0.168070
0.803718 0.574293 0.172368
0.851141 0.578591 0.176666
0.898564 0.582889 0.180964
0.148232 0.565682 0.120632
0.195655 0.569980 0.124930
0.243078 0.574279 0.129228
0.290502 0.578577 0.133527
0.337925 0.582875 0.137825
0.385348 0.587173 0.142123
0.432771 0.591471 0.146421
0.480194 0.595769 0.150719
0.527617 0.600067 0.155017
0.575040 0.604365 0.159315
0.622463 0.608664 0.163613
0.669887 0.612962 0.167912
0.717310 0.617260 0.172210
0.764733 0.621558 0.176508
0.812156 0.625856 0.180806
0.859579 0.630154 0.185104
0.907002 0.634452 0.189402
0.156670 0.617245 0.129070
0.204093 0.621544 0.133369
0.251517 0.625842 0.137667
0.298940 0.630140 0.141965
0.346363 0.634438 0.146263
0.393786 0.638736 0.150561
0.441209 0.643034 0.154859
0.488632 0.647332 0.159157
0.536055 0.651630 0.163455
0.583479 0.655929 0.167753
0.630902 0.660227 0.172052
0.678325 0.664525 0.176350
0.725748 0.668823 0.180648
0.773171 0.673121 0.184946
0.820594 0.677419 0.189244
0.868017 0.681717 0.193542
0.915373 0.686007 0.197773
0.165109 0.668809 0.137508
0.212532 0.673107 0.141807
0.259955 0.677405 0.146105
0.307378 0.681703 0.150403
0.354801 0.686001 0.154701
0.402224 0.690299 0.158999
0.449647 0.694597 0.163297
0.497070 0.698895 0.167595
0.544493 0.703194 0.171893
0.591917 0.707492 0.176192
0.639340 0.711790 0.180490
0.686763 0.716088 0.184788
0.734186 0.720386 0.189086
0.781609 0.724684 0.193384
0.828983 0.728976 0.197633
0.875917 0.733215 0.201442
0.922851 0.737454 0.205251
0.173547 0.720372 0.145947
0.220970 0.724670 0.150245
0.268393 0.728968 0.154543
0.315816 0.733266 0.158841
0.363239 0.737564 0.163139
0.410662 0.741862 0.167437
0.458085 0.746160 0.171735
0.505509 0.750459 0.176034
0.552932 0.754757 0.180332
0.600355 0.759055 0.184630
0.647778 0.763353 0.188928
0.695201 0.767651 0.193226
0.742593 0.771945 0.197493
0.789527 0.776184 0.201302
0.836461 0.780423 0.205111
0.883395 0.784662 0.208920
0.930330 0.788901 0.212730
0.181985 0.771935 0.154385
0.229408 0.776233 0.158683
0.276831 0.780531 0.162981
0.324254 0.784829 0.167279
0.371677 0.789127 0.171577
0.419100 0.793425 0.175875
0.466523 0.797724 0.180173
0.513947 0.802022 0.184472
0.561370 0.806320 0.188770
0.608793 0.810618 0.193068
0.656203 0.814914 0.197353
0.703137 0.819153 0.201162
0.750071 0.823392 0.204971
0.797005 0.827631 0.208780
0.843939 0.831870 0.212589
0.890874 0.836109 0.216399
0.937808 0.840348 0.220208
0.190423 0.823498 0.162823
0.237846 0.827796 0.167121
0.285269 0.832094 0.171419
0.332692 0.836392 0.175717
0.380115 0.840690 0.180015
0.427539 0.844989 0.184314
0.474962 0.849287 0.188612
0.522385 0.853585 0.192910
0.569808 0.857883 0.197208
0.616747 0.862122 0.201022
0.663681 0.866361 0.204831
0.710615 0.870600 0.208640
0.757549 0.874839 0.212449
0.804483 0.879078 0.216258
0.851418 0.883317 0.220068
0.898352 0.887556 0.223877
0.945286 0.891795 0.227686
0.198861 0.875061 0.171261
0.246284 0.879359 0.175559
0.293707 0.883657 0.179857
0.341130 0.887955 0.184155
0.388553 0.892254 0.188453
0.435977 0.896552 0.192752
0.483400 0.900850 0.197050
0.530357 0.905091 0.200882
0.577291 0.909330 0.204691
0.624225 0.913569 0.208500
0.671159 0.917808 0.212309
0.718093 0.922047 0.216118
0.765027 0.926286 0.219927
0.811962 0.930525 0.223737
0.858896 0.934764 0.227546
0.905830 0.939003 0.231355
0.952764 0.943242 0.235164
0.109885 0.096085 0.111938
0.154476 0.097551 0.114263
0.199066 0.099016 0.116588
0.243656 0.100481 0.118913
0.288247 0.101947 0.121238
0.332837 0.103412 0.123563
0.377428 0.104878 0.125888
0.422018 0.106343 0.128213
0.466608 0.107808 0.130538
0.511199 0.109274 0.132863
0.555789 0.110739 0.135188
0.600379 0.112204 0.137513
0.644970 0.113670 0.139838
0.689560 0.115135 0.142163
0.734151 0.116601 0.144488
0.778741 0.118066 0.146813
0.824260 0.120460 0.149785
0.112762 0.142087 0.116503
0.157353 0.143553 0.118828
0.201943 0.145018 0.121153
0.246533 0.146483 0.123478
0.291124 0.147949 0.125803
0.335714 0.149414 0.128128
0.380304 0.150879 0.130453
0.424895 0.152345 0.132778
0.469485 0.153810 0.135103
0.514076 0.155276 0.137428
0.558666 0.156741 0.139753
0.603256 0.158206 0.142078
0.647847 0.159672 0.144403
0.692437 0.161137 0.146728
0.737852 0.163427 0.149627
0.785275 0.167725 0.153925
0.832698 0.172023 0.158223
0.115639 0.188089 0.121067
0.160229 0.189554 0.123392
0.204820 0.191020 0.125717
0.249410 0.192485 0.128042
0.294000 0.193950 0.130367
0.338591 0.195416 0.132692
0.383181 0.196881 0.135017
0.427772 0.198347 0.137342
0.472362 0.199812 0.139667
0.516952 0.201277 0.141992
0.561543 0.202743 0.144317
0.606133 0.204208 0.146642
0.651444 0.206394 0.149469
0.698867 0.210692 0.153767
0.746290 0.214990 0.158065
0.793713 0.219288 0.162363
0.841136 0.223586 0.166661
0.118516 0.234091 0.125631
0.163106 0.235556 0.127956
0.207697 0.237022 0.130281
0.252287 0.238487 0.132606
0.296877 0.239952 0.134931
0.341468 0.241418 0.137256
0.386058 0.242883 0.139581
0.430648 0.244348 0.141906
0.475239 0.245814 0.144231
0.519829 0.247279 0.146556
0.565035 0.249360 0.149310
0.612459 0.253659 0.153608
0.659882 0.257957 0.157907
0.707305 0.262255 0.162205
0.754728 0.266553 0.166503
0.802151 0.270851 0.170801
0.849574 0.275149 0.175099
0.121393 0.280093 0.130196
0.165983 0.281558 0.132521
0.210573 0.283023 0.134846
0.255164 0.284489 0.137171
0.299754 0.285954 0.139496
0.344345 0.287420 0.141821
0.388935 0.288885 0.144146
0.433525 0.290350 0.146471
0.478627 0.292327 0.149152
0.526050 0.296625 0.153450
0.573474 0.300924 0.157749
0.620897 0.305222 0.162047
0.668320 0.309520 0.166345
0.715743 0.313818 0.170643
0.763166 0.318116 0.174941
0.810589 0.322414 0.179239
0.858012 0.326712 0.183537
0.124269 0.326094 0.134760
0.168860 0.327560 0.137085
0.213450 0.329025 0.139410
0.258041 0.330491 0.141735
0.302631 0.331956 0.144060
0.347221 0.333421 0.146385
0.392219 0.335294 0.148994
0.439642 0.339592 0.153292
0.487065 0.343890 0.157590
0.534489 0.348189 0.161888
0.581912 0.352487 0.166187
0.629335 0.356785 0.170485
0.676758 0.361083 0.174783
0.724181 0.365381 0.179081
0.771604 0.369679 0.183379
0.819027 0.373977 0.187677
0.866450 0.378275 0.191975
0.127146 0.372096 0.139325
0.171737 0.373562 0.141650
0.216327 0.375027 0.143975
0.260917 0.376492 0.146300
0.305811 0.378261 0.148836
0.353234 0.382559 0.153134
0.400657 0.386857 0.157432
0.448080 0.391155 0.161730
0.495503 0.395454 0.166028
0.542927 0.399752 0.170327
0.590350 0.404050 0.174625
0.637773 0.408348 0.178923
0.685196 0.412646 0.183221
0.732619 0.416944 0.187519
0.780042 0.421242 0.191817
0.827465 0.425540 0.196115
0.874888 0.429839 0.200413
0.130023 0.418098 0.143889
0.174614 0.419564 0.146214
0.219403 0.421228 0.148678
0.266826 0.425526 0.152976
0.314249 0.429824 0.157274
0.361672 0.434122 0.161572
0.409095 0.438420 0.165870
0.456518 0.442719 0.170169
0.503942 0.447017 0.174467
0.551365 0.451315 0.178765
0.598788 0.455613 0.183063
0.646211 0.459911 0.187361
0.693634 0.464209 0.191659
0.741057 0.468507 0.195957
0.788480 0.472805 0.200255
0.835904 0.477104 0.204553
0.883327 0.481402 0.208852
0.132995 0.464195 0.148520
0.180418 0.468493 0.152818
0.227841 0.472791 0.157116
0.275264 0.477089 0.161414
0.322687 0.481387 0.165712
0.370110 0.485685 0.170010
0.417534 0.489984 0.174308
0.464957 0.494282 0.178607
0.512380 0.498580 0.182905
0.559803 0.502878 0.187203
0.607226 0.507176 0.191501
0.654649 0.511474 0.195799
0.702072 0.515772 0.200097
0.749495 0.520070 0.204395
0.796919 0.524369 0.208693
0.844342 0.528667 0.212992
0.891765 0.532965 0.217290
0.141433 0.515758 0.156958
0.188856 0.520056 0.161256
0.236279 0.524354 0.165554
0.283702 0.528652 0.169852
0.331125 0.532950 0.174150
0.378549 0.537249 0.178449
0.425972 0.541547 0.182747
0.473395 0.545845 0.187045
0.520818 0.550143 0.191343
0.568241 0.554441 0.195641
0.615664 0.558739 0.199939
0.663087 0.563037 0.204237
0.710510 0.567335 0.208535
0.757934 0.571634 0.212834
0.805357 0.575932 0.217132
0.852780 0.580230 0.221430
0.900203 0.584528 0.225728
0.149871 0.567321 0.165396
0.197294 0.571619 0.169694
0.244717 0.575917 0.173992
0.292140 0.580215 0.178290
0.339564 0.584513 0.182588
0.386987 0.588812 0.186887
0.434410 0.593110 0.191185
0.481833 0.597408 0.195483
0.529256 0.601706 0.199781
0.576679 0.606004 0.204079
0.624102 0.610302 0.208377
0.671525 0.614600 0.212675
0.718948 0.618899 0.216973
0.766372 0.623197 0.221272
0.813795 0.627495 0.225570
0.861218 0.631793 0.229868
0.908641 0.636091 0.234166
0.158309 0.618884 0.173834
0.205732 0.623182 0.178132
0.253155 0.627480 0.182430
0.300578 0.631779 0.186728
0.348002 0.636077 0.191027
0.395425 0.640375 0.195325
0.442848 0.644673 0.199623
0.490271 0.648971 0.203921
0.537694 0.653269 0.208219
0.585117 0.657567 0.212517
0.632540 0.661865 0.216815
0.679963 0.666164 0.221113
0.727387 0.670462 0.225412
0.774810 0.674760 0.229710
0.822233 0.679058 0.234008
0.869656 0.683356 0.238306
0.916826 0.687623 0.242351
0.166747 0.670447 0.182272
0.214170 0.674745 0.186570
0.261593 0.679043 0.190868
0.309017 0.683342 0.195167
0.356440 0.687640 0.199465
0.403863 0.691938 0.203763
0.451286 0.696236 0.208061
0.498709 0.700534 0.212359
0.546132 0.704832 0.216657
0.593555 0.709130 0.220955
0.640979 0.713429 0.225253
0.688402 0.717727 0.229552
0.735825 0.722025 0.233850
0.783248 0.726323 0.238148
0.830436 0.730593 0.242211
0.877370 0.734831 0.246020
0.924304 0.739070 0.249829
0.175185 0.722010 0.190710
0.222609 0.726309 0.195008
0.270032 0.730607 0.199307
0.317455 0.734905 0.203605
0.364878 0.739203 0.207903
0.412301 0.743501 0.212201
0.459724 0.747799 0.216499
0.507147 0.752097 0.220797
0.554570 0.756395 0.225095
0.601994 0.760693 0.229393
0.649417 0.764992 0.233692
0.696840 0.769290 0.237990
0.744045 0.773562 0.242070
0.790980 0.777801 0.245880
0.837914 0.782039 0.249689
0.884848 0.786278 0.253498
0.931782 0.790517 0.257307
0.183623 0.773573 0.199148
0.231047 0.777872 0.203447
0.278470 0.782170 0.207745
0.325893 0.786468 0.212043
0.373316 0.790766 0.216341
0.420739 0.795064 0.220639
0.468162 0.799362 0.224937
0.515585 0.803660 0.229235
0.563009 0.807959 0.233534
0.610432 0.812257 0.237832
0.657655 0.816531 0.241930
0.704589 0.820770 0.245739
0.751524 0.825009 0.249549
0.798458 0.829247 0.253358
0.845392 0.833486 0.257167
0.892326 0.837725 0.260976
0.939260 0.841964 0.264785
0.192062 0.825137 0.207587
0.239485 0.829435 0.211885
0.286908 0.833733 0.216183
0.334331 0.838031 0.220481
0.381754 0.842329 0.224779
0.429177 0.846627 0.229077
0.476600 0.850925 0.233375
0.524023 0.855224 0.237673
0.571265 0.859500 0.241790
0.618199 0.863739 0.245599
0.665133 0.867978 0.249408
0.712068 0.872217 0.253218
0.759002 0.876455 0.257027
0.805936 0.880694 0.260836
0.852870 0.884933 0.264645
0.899804 0.889172 0.268454
0.946738 0.893411 0.272263
0.200500 0.876700 0.216025
0.247923 0.880998 0.220323
0.295346 0.885296 0.224621
0.342769 0.889594 0.228919
0.390192 0.893892 0.233217
0.437615 0.898190 0.237515
0.484875 0.902469 0.241650
0.531809 0.906708 0.245459
0.578743 0.910947 0.249268
0.625677 0.915186 0.253077
0.672612 0.919425 0.256887
0.719546 0.923663 0.260696
0.766480 0.927902 0.264505
0.813414 0.932141 0.268314
0.860348 0.936380 0.272123
0.907282 0.940619 0.275932
0.954216 0.944858 0.279741
0.110444 0.096644 0.155950
0.155034 0.098109 0.158275
0.199625 0.099575 0.160600
0.244215 0.101040 0.162925
0.288806 0.102506 0.165250
0.333396 0.103971 0.167575
0.377986 0.105436 0.169900
0.422577 0.106902 0.172225
0.467167 0.108367 0.174550
0.511757 0.109832 0.176875
0.556348 0.111298 0.179199
0.600938 0.112763 0.181524
0.645528 0.114228 0.183849
0.690119 0.115694 0.186174
0.734709 0.117159 0.188499
0.779300 0.118625 0.190824
0.825898 0.122098 0.194549
0.113321 0.142646 0.160514
0.157911 0.144111 0.162839
0.202502 0.145577 0.165164
0.247092 0.147042 0.167489
0.291682 0.148507 0.169814
0.336273 0.149973 0.172139
0.380863 0.151438 0.174464
0.425453 0.152903 0.176789
0.470044 0.154369 0.179114
0.514634 0.155834 0.181439
0.559225 0.157300 0.183764
0.603815 0.158765 0.186089
0.648405 0.160230 0.188414
0.692996 0.161696 0.190739
0.739490 0.165065 0.194390
0.786914 0.169364 0.198688
0.834337 0.173662 0.202987
0.116198 0.188648 0.165078
0.160788 0.190113 0.167403
0.205378 0.191578 0.169728
0.249969 0.193044 0.172053
0.294559 0.194509 0.174378
0.339150 0.195975 0.176703
0.383740 0.197440 0.179028
0.428330 0.198905 0.181353
0.472921 0.200371 0.183678
0.517511 0.201836 0.186003
0.562101 0.203301 0.188328
0.606692 0.204767 0.190653
0.653082 0.208032 0.194232
0.700505 0.212330 0.198530
0.747928 0.216628 0.202828
0.795352 0.220927 0.207127
0.842775 0.225225 0.211425
0.119075 0.234650 0.169643
0.163665 0.236115 0.171968
0.208255 0.237580 0.174293
0.252846 0.239046 0.176618
0.297436 0.240511 0.178943
0.342026 0.241976 0.181268
0.386617 0.243442 0.183593
0.431207 0.244907 0.185918
0.475798 0.246373 0.188243
0.520388 0.247838 0.190568
0.566674 0.250999 0.194074
0.614097 0.255297 0.198372
0.661520 0.259595 0.202670
0.708944 0.263894 0.206968
0.756367 0.268192 0.211267
0.803790 0.272490 0.215565
0.851213 0.276788 0.219863
0.121951 0.280651 0.174207
0.166542 0.282117 0.176532
0.211132 0.283582 0.178857
0.255722 0.285047 0.181182
0.300313 0.286513 0.183507
0.344903 0.287978 0.185832
0.389494 0.289444 0.188157
0.434084 0.290909 0.190482
0.480266 0.293966 0.193916
0.527689 0.298264 0.198214
0.575112 0.302562 0.202512
0.622535 0.306860 0.206810
0.669959 0.311159 0.211108
0.717382 0.315457 0.215407
0.764805 0.319755 0.219705
0.812228 0.324053 0.224003
0.859651 0.328351 0.228301
0.124828 0.326653 0.178772
0.169419 0.328119 0.181097
0.214009 0.329584 0.183422
0.258599 0.331049 0.185747
0.303190 0.332515 0.188072
0.347780 0.333980 0.190397
0.393858 0.336933 0.193758
0.441281 0.341231 0.198056
0.488704 0.345529 0.202354
0.536127 0.349827 0.206652
0.583550 0.354125 0.210950
0.630973 0.358424 0.215248
0.678397 0.362722 0.219547
0.725820 0.367020 0.223845
0.773243 0.371318 0.228143
0.820666 0.375616 0.232441
0.868089 0.379914 0.236739
0.127705 0.372655 0.183336
0.172295 0.374120 0.185661
0.216886 0.375586 0.187986
0.261476 0.377051 0.190311
0.307450 0.379900 0.193600
0.354873 0.384198 0.197898
0.402296 0.388496 0.202196
0.449719 0.392794 0.206494
0.497142 0.397092 0.210792
0.544565 0.401390 0.215090
0.591989 0.405689 0.219388
0.639412 0.409987 0.223687
0.686835 0.414285 0.227985
0.734258 0.418583 0.232283
0.781681 0.422881 0.236581
0.829104 0.427179 0.240879
0.876527 0.431477 0.245177
0.130582 0.418657 0.187901
0.175172 0.420122 0.190226
0.221042 0.422867 0.193442
0.268465 0.427165 0.197740
0.315888 0.431463 0.202038
0.363311 0.435761 0.206336
0.410734 0.440059 0.210634
0.458157 0.444357 0.214932
0.505580 0.448655 0.219230
0.553004 0.452954 0.223528
0.600427 0.457252 0.227827
0.647850 0.461550 0.232125
0.695273 0.465848 0.236423
0.742696 0.470146 0.240721
0.790119 0.474444 0.245019
0.837542 0.478742 0.249317
0.884965 0.483040 0.253615
0.134633 0.465834 0.193283
0.182057 0.470132 0.197582
0.229480 0.474430 0.201880
0.276903 0.478728 0.206178
0.324326 0.483026 0.210476
0.371749 0.487324 0.214774
0.419172 0.491622 0.219072
0.466595 0.495920 0.223370
0.514019 0.500219 0.227668
0.561442 0.504517 0.231967
0.608865 0.508815 0.236265
0.656288 0.513113 0.240563
0.703711 0.517411 0.244861
0.751134 0.521709 0.249159
0.798557 0.526007 0.253457
0.845980 0.530305 0.257755
0.893404 0.534604 0.262053
0.143072 0.517397 0.201722
0.190495 0.521695 0.206020
0.237918 0.525993 0.210318
0.285341 0.530291 0.214616
0.332764 0.534589 0.218914
0.380187 0.538887 0.223212
0.427610 0.543185 0.227510
0.475033 0.547484 0.231808
0.522457 0.551782 0.236107
0.569880 0.556080 0.240405
0.617303 0.560378 0.244703
0.664726 0.564676 0.249001
0.712149 0.568974 0.253299
0.759572 0.573272 0.257597
0.806995 0.577570 0.261895
0.854418 0.581869 0.266193
0.901842 0.586167 0.270492
0.151510 0.568960 0.210160
0.198933 0.573258 0.214458
0.246356 0.577556 0.218756
0.293779 0.581854 0.223054
0.341202 0.586152 0.227352
0.388625 0.590450 0.231650
0.436049 0.594749 0.235949
0.483472 0.599047 0.240247
0.530895 0.603345 0.244545
0.578318 0.607643 0.248843
0.625741 0.611941 0.253141
0.673164 0.616239 0.257439
0.720587 0.620537 0.261737
0.768010 0.624835 0.266035
0.815434 0.629134 0.270334
0.862857 0.633432 0.274632
0.910280 0.637730 0.278930
0.159948 0.620523 0.218598
0.207371 0.624821 0.222896
0.254794 0.629119 0.227194
0.302217 0.633417 0.231492
0.349640 0.637715 0.235790
0.397063 0.642014 0.240088
0.444487 0.646312 0.244387
0.491910 0.650610 0.248685
0.539333 0.654908 0.252983
0.586756 0.659206 0.257281
0.634179 0.663504 0.261579
0.681602 0.667802 0.265877
0.729025 0.672100 0.270175
0.776449 0.676399 0.274473
0.823872 0.680697 0.278772
0.871295 0.684995 0.283070
0.918278 0.689240 0.286928
0.168386 0.672086 0.227036
0.215809 0.676384 0.231334
0.263232 0.680682 0.235632
0.310655 0.684980 0.239930
0.358079 0.689279 0.244229
0.405502 0.693577 0.248527
0.452925 0.697875 0.252825
0.500348 0.702173 0.257123
0.547771 0.706471 0.261421
0.595194 0.710769 0.265719
0.642617 0.715067 0.270017
0.690040 0.719365 0.274315
0.737463 0.723664 0.278613
0.784887 0.727962 0.282912
0.831888 0.732209 0.286788
0.878822 0.736448 0.290597
0.925756 0.740687 0.294406
0.176824 0.723649 0.235474
0.224247 0.727947 0.239772
0.271670 0.732245 0.244070
0.319093 0.736544 0.248368
0.366517 0.740842 0.252667
0.413940 0.745140 0.256965
0.461363 0.749438 0.261263
0.508786 0.753736 0.265561
0.556209 0.758034 0.269859
0.603632 0.762332 0.274157
0.651055 0.766630 0.278455
0.698479 0.770929 0.282753
0.745498 0.775178 0.286648
0.792432 0.779417 0.290457
0.839366 0.783656 0.294266
0.886300 0.787895 0.298075
0.933234 0.792134 0.301884
0.185262 0.775212 0.243912
0.232685 0.779510 0.248210
0.280108 0.783809 0.252508
0.327532 0.788107 0.256807
0.374955 0.792405 0.261105
0.422378 0.796703 0.265403
0.469801 0.801001 0.269701
0.517224 0.805299 0.273999
0.564647 0.809597 0.278297
0.612070 0.813895 0.282595
0.659108 0.818147 0.286508
0.706042 0.822386 0.290317
0.752976 0.826625 0.294126
0.799910 0.830864 0.297935
0.846844 0.835103 0.301744
0.893778 0.839342 0.305553
0.940712 0.843581 0.309362
0.193700 0.826775 0.252350
0.241123 0.831074 0.256648
0.288547 0.835372 0.260947
0.335970 0.839670 0.265245
0.383393 0.843968 0.269543
0.430816 0.848266 0.273841
0.478239 0.852564 0.278139
0.525662 0.856862 0.282437
0.572717 0.861116 0.286367
0.619652 0.865355 0.290177
0.666586 0.869594 0.293986
0.713520 0.873833 0.297795
0.760454 0.878072 0.301604
0.807388 0.882311 0.305413
0.854322 0.886550 0.309222
0.901256 0.890789 0.313031
0.948191 0.895027 0.316841
0.202139 0.878339 0.260788
0.249562 0.882637 0.265087
0.296985 0.886935 0.269385
0.344408 0.891233 0.273683
0.391831 0.895531 0.277981
0.439254 0.899829 0.282279
0.486327 0.904085 0.286227
0.533261 0.908324 0.290036
0.580196 0.912563 0.293846
0.627130 0.916802 0.297655
0.674064 0.921041 0.301464
0.720998 0.925280 0.305273
0.767932 0.929519 0.309082
0.814866 0.933758 0.312891
0.861800 0.937997 0.316700
0.908735 0.942235 0.320510
0.955669 0.946474 0.324319
0.111003 0.097203 0.199961
0.155593 0.098668 0.202286
0.200183 0.100133 0.204611
0.244774 0.101599 0.206936
0.289364 0.103064 0.209261
0.333955 0.104530 0.211586
0.378545 0.105995 0.213911
0.423135 0.107460 0.216236
0.467726 0.108926 0.218561
0.512316 0.110391 0.220886
0.556906 0.111856 0.223211
0.601497 0.113322 0.225536
0.646087 0.114787 0.227861
0.690678 0.116253 0.230186
0.735268 0.117718 0.232511
0.780114 0.119439 0.235014
0.827537 0.123737 0.239312
0.113880 0.143205 0.204525
0.158470 0.144670 0.206850
0.203060 0.146135 0.209175
