assets/luts/nostalgic-lifted.cube
TITLE "nostalgic-lifted"
LUT_3D_SIZE 9
0.109327 0.095527 0.067927
0.198507 0.098457 0.072577
0.287688 0.101388 0.077227
0.376869 0.104319 0.081877
0.466050 0.107250 0.086527
0.555230 0.110180 0.091177
0.644411 0.113111 0.095827
0.733592 0.116042 0.100477
0.822773 0.118973 0.105127
0.115080 0.187530 0.077056
0.204261 0.190461 0.081706
0.293442 0.193392 0.086356
0.382623 0.196323 0.091006
0.471803 0.199253 0.095656
0.560984 0.202184 0.100306
0.650165 0.205115 0.104956
0.744651 0.213351 0.113301
0.839497 0.221947 0.121897
0.120834 0.279534 0.086184
0.210015 0.282465 0.090834
0.299195 0.285395 0.095484
0.388376 0.288326 0.100134
0.477557 0.291257 0.104784
0.571835 0.299285 0.112985
0.666681 0.307881 0.121581
0.761527 0.316477 0.130177
0.856374 0.325074 0.138773
0.126588 0.371538 0.095313
0.215768 0.374468 0.099963
0.304949 0.377399 0.104613
0.399018 0.385219 0.112668
0.493865 0.393815 0.121265
0.588711 0.402411 0.129861
0.683557 0.411007 0.138457
0.778404 0.419604 0.147054
0.873250 0.428200 0.155650
0.132341 0.463541 0.104442
0.226202 0.471152 0.112352
0.321049 0.479749 0.120948
0.415895 0.488345 0.129545
0.510741 0.496941 0.138141
0.605587 0.505537 0.146737
0.700434 0.514133 0.155333
0.795280 0.522730 0.163930
0.890126 0.531326 0.172526
0.148232 0.565682 0.120632
0.243078 0.574279 0.129228
0.337925 0.582875 0.137825
0.432771 0.591471 0.146421
0.527617 0.600067 0.155017
0.622463 0.608664 0.163613
0.717310 0.617260 0.172210
0.812156 0.625856 0.180806
0.907002 0.634452 0.189402
0.165109 0.668809 0.137508
0.259955 0.677405 0.146105
0.354801 0.686001 0.154701
0.449647 0.694597 0.163297
0.544493 0.703194 0.171893
0.639340 0.711790 0.180490
0.734186 0.720386 0.189086
0.828983 0.728976 0.197633
0.922851 0.737454 0.205251
0.181985 0.771935 0.154385
0.276831 0.780531 0.162981
0.371677 0.789127 0.171577
0.466523 0.797724 0.180173
0.561370 0.806320 0.188770
0.656203 0.814914 0.197353
0.750071 0.823392 0.204971
0.843939 0.831870 0.212589
0.937808 0.840348 0.220208
0.198861 0.875061 0.171261
0.293707 0.883657 0.179857
0.388553 0.892254 0.188453
0.483400 0.900850 0.197050
0.577291 0.909330 0.204691
0.671159 0.917808 0.212309
0.765027 0.926286 0.219927
0.858896 0.934764 0.227546
0.952764 0.943242 0.235164
0.110444 0.096644 0.155950
0.199625 0.099575 0.160600
0.288806 0.102506 0.165250
0.377986 0.105436 0.169900
0.467167 0.108367 0.174550
0.556348 0.111298 0.179199
0.645528 0.114228 0.183849
0.734709 0.117159 0.188499
0.825898 0.122098 0.194549
0.116198 0.188648 0.165078
0.205378 0.191578 0.169728
0.294559 0.194509 0.174378
0.383740 0.197440 0.179028
0.472921 0.200371 0.183678
0.562101 0.203301 0.188328
0.653082 0.208032 0.194232
0.747928 0.216628 0.202828
0.842775 0.225225 0.211425
0.121951 0.280651 0.174207
0.211132 0.283582 0.178857
0.300313 0.286513 0.183507
0.389494 0.289444 0.188157
0.480266 0.293966 0.193916
0.575112 0.302562 0.202512
0.669959 0.311159 0.211108
0.764805 0.319755 0.219705
0.859651 0.328351 0.228301
0.127705 0.372655 0.183336
0.216886 0.375586 0.187986
0.307450 0.379900 0.193600
0.402296 0.388496 0.202196
0.497142 0.397092 0.210792
0.591989 0.405689 0.219388
0.686835 0.414285 0.227985
0.781681 0.422881 0.236581
0.876527 0.431477 0.245177
0.134633 0.465834 0.193283
0.229480 0.474430 0.201880
0.324326 0.483026 0.210476
0.419172 0.491622 0.219072
0.514019 0.500219 0.227668
0.608865 0.508815 0.236265
0.703711 0.517411 0.244861
0.798557 0.526007 0.253457
0.893404 0.534604 0.262053
0.151510 0.568960 0.210160
0.246356 0.577556 0.218756
0.341202 0.586152 0.227352
0.436049 0.594749 0.235949
0.530895 0.603345 0.244545
0.625741 0.611941 0.253141
0.720587 0.620537 0.261737
0.815434 0.629134 0.270334
0.910280 0.637730 0.278930
0.168386 0.672086 0.227036
0.263232 0.680682 0.235632
0.358079 0.689279 0.244229
0.452925 0.697875 0.252825
0.547771 0.706471 0.261421
0.642617 0.715067 0.270017
0.737463 0.723664 0.278613
0.831888 0.732209 0.286788
0.925756 0.740687 0.294406
0.185262 0.775212 0.243912
0.280108 0.783809 0.252508
0.374955 0.792405 0.261105
0.469801 0.801001 0.269701
0.564647 0.809597 0.278297
0.659108 0.818147 0.286508
0.752976 0.826625 0.294126
0.846844 0.835103 0.301744
0.940712 0.843581 0.309362
0.202139 0.878339 0.260788
0.296985 0.886935 0.269385
0.391831 0.895531 0.277981
0.486327 0.904085 0.286227
0.580196 0.912563 0.293846
0.674064 0.921041 0.301464
0.767932 0.929519 0.309082
0.861800 0.937997 0.316700
0.955669 0.946474 0.324319
0.111561 0.097761 0.243972
0.200742 0.100692 0.248622
0.289923 0.103623 0.253272
0.379104 0.106554 0.257922
0.468284 0.109484 0.262572
0.557465 0.112415 0.267222
0.646646 0.115346 0.271872
0.735827 0.118277 0.276522
0.829176 0.125376 0.284076
0.117315 0.189765 0.253101
0.206496 0.192696 0.257751
0.295677 0.195627 0.262401
0.384857 0.198557 0.267051
0.474038 0.201488 0.271701
0.563219 0.204419 0.276351
0.656360 0.211310 0.283760
0.751206 0.219906 0.292356
0.846052 0.228502 0.300952
0.123069 0.281769 0.262230
0.212250 0.284700 0.266880
0.301430 0.287630 0.271530
0.390611 0.290561 0.276180
0.483544 0.297243 0.283443
0.578390 0.305840 0.292040
0.673236 0.314436 0.300636
0.768082 0.323032 0.309232
0.862928 0.331628 0.317829
0.128822 0.373772 0.271359
0.218003 0.376703 0.276009
0.310727 0.383177 0.283127
0.405574 0.391773 0.291723
0.500420 0.400370 0.300320
0.595266 0.408966 0.308916
0.690112 0.417562 0.317512
0.784959 0.426158 0.326108
0.879805 0.434755 0.334705
0.137911 0.469111 0.282811
0.232757 0.477707 0.291407
0.327604 0.486303 0.300003
0.422450 0.494900 0.308600
0.517296 0.503496 0.317196
0.612142 0.512092 0.325792
0.706989 0.520688 0.334388
0.801835 0.529285 0.342985
0.896681 0.537881 0.351581
0.154787 0.572237 0.299687
0.249633 0.580834 0.308283
0.344480 0.589430 0.316880
0.439326 0.598026 0.325476
0.534172 0.606622 0.334072
0.629019 0.615219 0.342668
0.723865 0.623815 0.351265
0.818711 0.632411 0.359861
0.913557 0.641007 0.368457
0.171663 0.675364 0.316563
0.266510 0.683960 0.325160
0.361356 0.692556 0.333756
0.456202 0.701152 0.342352
0.551049 0.709749 0.350948
0.645895 0.718345 0.359545
0.740741 0.726941 0.368141
0.834792 0.735441 0.375942
0.928661 0.743919 0.383561
0.188540 0.778490 0.333440
0.283386 0.787086 0.342036
0.378232 0.795682 0.350632
0.473079 0.804279 0.359229
0.567925 0.812875 0.367825
0.662012 0.821379 0.375662
0.755880 0.829857 0.383280
0.849749 0.838335 0.390899
0.943617 0.846813 0.398517
0.205416 0.881616 0.350316
0.300262 0.890212 0.358912
0.395109 0.898809 0.367509
0.489232 0.907317 0.375382
0.583100 0.915795 0.383000
0.676968 0.924273 0.390618
0.770837 0.932751 0.398237
0.864705 0.941229 0.405855
0.958573 0.949707 0.413473
0.112679 0.098879 0.331995
0.201860 0.101810 0.336645
0.291040 0.104740 0.341295
0.380221 0.107671 0.345945
0.469402 0.110602 0.350595
0.558583 0.113533 0.355245
0.647763 0.116463 0.359895
0.737607 0.120057 0.365007
0.832454 0.128653 0.373603
0.118433 0.190883 0.341124
0.207613 0.193813 0.345774
0.296794 0.196744 0.350424
0.385975 0.199675 0.355074
0.475155 0.202605 0.359724
0.564791 0.205991 0.364691
0.659637 0.214587 0.373287
0.754484 0.223184 0.381883
0.849330 0.231780 0.390480
0.124186 0.282886 0.350253
0.213367 0.285817 0.354903
0.302548 0.288748 0.359553
0.391975 0.291925 0.364375
0.486821 0.300521 0.372971
0.581667 0.309117 0.381567
0.676513 0.317713 0.390163
0.771360 0.326310 0.398760
0.866206 0.334906 0.407356
0.129940 0.374890 0.359382
0.219158 0.377858 0.364058
0.314005 0.386455 0.372655
0.408851 0.395051 0.381251
0.503697 0.403647 0.389847
0.598543 0.412243 0.398443
0.693390 0.420840 0.407040
0.788236 0.429436 0.415636
0.883082 0.438032 0.424232
0.141188 0.472388 0.372339
0.236035 0.480985 0.380935
0.330881 0.489581 0.389531
0.425727 0.498177 0.398127
0.520574 0.506773 0.406723
0.615420 0.515370 0.415320
0.710266 0.523966 0.423916
0.805112 0.532562 0.432512
0.899958 0.541158 0.441108
0.158065 0.575515 0.389215
0.252911 0.584111 0.397811
0.347757 0.592707 0.406407
0.442604 0.601304 0.415003
0.537450 0.609900 0.423600
0.632296 0.618496 0.432196
0.727142 0.627092 0.440792
0.821989 0.635688 0.449388
0.916609 0.644257 0.457759
0.174941 0.678641 0.406091
0.269787 0.687237 0.414687
0.364634 0.695833 0.423283
0.459480 0.704430 0.431880
0.554326 0.713026 0.440476
0.649172 0.721622 0.449072
0.743829 0.730196 0.457479
0.837697 0.738673 0.465097
0.931565 0.747151 0.472715
0.191817 0.781767 0.422967
0.286663 0.790363 0.431563
0.381510 0.798960 0.440160
0.476356 0.807556 0.448756
0.571049 0.816134 0.457199
0.664917 0.824612 0.464817
0.758785 0.833089 0.472435
0.852653 0.841567 0.480053
0.946522 0.850045 0.487672
0.208694 0.884893 0.439843
0.303540 0.893490 0.448440
0.398268 0.902072 0.456918
0.492137 0.910550 0.464537
0.586005 0.919028 0.472155
0.679873 0.927505 0.479773
0.773741 0.935983 0.487391
0.867610 0.944461 0.495010
0.961478 0.952939 0.502628
0.113796 0.099996 0.420018
0.202977 0.102927 0.424668
0.292158 0.105858 0.429318
0.381338 0.108788 0.433968
0.470519 0.111719 0.438618
0.559700 0.114650 0.443268
0.648881 0.117581 0.447918
0.740885 0.123335 0.454535
0.835731 0.131931 0.463131
0.119550 0.192000 0.429147
0.208731 0.194931 0.433797
0.297911 0.197861 0.438447
0.387092 0.200792 0.443097
0.476273 0.203723 0.447747
0.568069 0.209269 0.454219
0.662915 0.217865 0.462815
0.757761 0.226461 0.471411
0.852607 0.235057 0.480007
0.125304 0.284004 0.438276
0.214484 0.286934 0.442926
0.303665 0.289865 0.447576
0.395252 0.295202 0.453902
0.490098 0.303798 0.462498
0.584945 0.312395 0.471095
0.679791 0.320991 0.479691
0.774637 0.329587 0.488287
0.869484 0.338184 0.496884
0.131057 0.376007 0.447405
0.222436 0.381136 0.453586
0.317282 0.389732 0.462182
0.412129 0.398328 0.470778
0.506975 0.406925 0.479375
0.601821 0.415521 0.487971
0.696667 0.424117 0.496567
0.791513 0.432714 0.505163
0.886360 0.441310 0.513760
0.144466 0.475666 0.461866
0.239312 0.484262 0.470462
0.334159 0.492858 0.479058
0.429005 0.501455 0.487655
0.523851 0.510051 0.496251
0.618697 0.518647 0.504847
0.713544 0.527244 0.513444
0.808390 0.535840 0.522040
0.903236 0.544436 0.530636
0.161342 0.578792 0.478742
0.256189 0.587388 0.487339
0.351035 0.595985 0.495935
0.445881 0.604581 0.504531
0.540727 0.613177 0.513127
0.635574 0.621773 0.521724
0.730420 0.630370 0.530320
0.825266 0.638966 0.538916
0.919514 0.647490 0.546914
0.178219 0.681918 0.495619
0.273065 0.690515 0.504215
0.367911 0.699111 0.512811
0.462757 0.707707 0.521407
0.557603 0.716304 0.530003
0.652450 0.724900 0.538600
0.746733 0.733428 0.546633
0.840602 0.741906 0.554252
0.934470 0.750384 0.561870
0.195095 0.785045 0.512495
0.289941 0.793641 0.521091
0.384787 0.802237 0.529687
0.479634 0.810833 0.538284
0.573953 0.819366 0.546353
0.667821 0.827844 0.553971
0.761690 0.836322 0.561590
0.855558 0.844800 0.569208
0.949426 0.853278 0.576826
0.211971 0.888171 0.529371
0.306817 0.896767 0.537967
0.401173 0.905304 0.546073
0.495041 0.913782 0.553691
0.588909 0.922260 0.561309
0.682778 0.930738 0.568928
0.776646 0.939216 0.576546
0.870514 0.947694 0.584164
0.964383 0.956172 0.591783
0.114914 0.101114 0.508041
0.204094 0.104044 0.512691
0.293275 0.106975 0.517341
0.382456 0.109906 0.521991
0.471637 0.112837 0.526641
0.560817 0.115767 0.531291
0.649998 0.118698 0.535941
0.744162 0.126612 0.544062
0.839009 0.135209 0.552659
0.120667 0.193117 0.517170
0.209848 0.196048 0.521820
0.299029 0.198979 0.526470
0.388210 0.201910 0.531120
0.477390 0.204840 0.535770
0.571346 0.212546 0.543746
0.666192 0.221142 0.552342
0.761038 0.229739 0.560939
0.855885 0.238335 0.569535
0.126421 0.285121 0.526299
0.215602 0.288052 0.530949
0.304782 0.290982 0.535599
0.398530 0.298480 0.543430
0.493376 0.307076 0.552026
0.588222 0.315672 0.560622
0.683069 0.324269 0.569218
0.777915 0.332865 0.577815
0.872761 0.341461 0.586411
0.132175 0.377125 0.535428
0.225714 0.384414 0.543114
0.320560 0.393010 0.551710
0.415406 0.401606 0.560306
0.510252 0.410202 0.568902
0.605098 0.418798 0.577498
0.699945 0.427395 0.586095
0.794791 0.435991 0.594691
0.889637 0.444587 0.603287
0.147743 0.478943 0.551393
0.242590 0.487540 0.559990
0.337436 0.496136 0.568586
0.432282 0.504732 0.577182
0.527128 0.513328 0.585778
0.621975 0.521925 0.594375
0.716821 0.530521 0.602971
0.811667 0.539117 0.611567
0.906514 0.547714 0.620163
0.164620 0.582070 0.568270
0.259466 0.590666 0.576866
0.354312 0.599262 0.585462
0.449159 0.607858 0.594059
0.544005 0.616455 0.602655
0.638851 0.625051 0.611251
0.733697 0.633647 0.619847
0.828544 0.642244 0.628444
0.922418 0.650722 0.636068
0.181496 0.685196 0.585146
0.276342 0.693792 0.593742
0.371189 0.702388 0.602338
0.466035 0.710985 0.610935
0.560881 0.719581 0.619531
0.655727 0.728177 0.628127
0.749638 0.736660 0.635788
0.843506 0.745138 0.643406
0.937375 0.753616 0.651025
0.198372 0.788322 0.602022
0.293219 0.796919 0.610618
0.388065 0.805515 0.619215
0.482911 0.814111 0.627811
0.576858 0.822598 0.635508
0.670726 0.831076 0.643126
0.764594 0.839554 0.650744
0.858463 0.848032 0.658363
0.952331 0.856510 0.665981
0.215249 0.891449 0.618899
0.310095 0.900045 0.627495
0.404078 0.908537 0.635228
0.497946 0.917014 0.642846
0.591814 0.925492 0.650464
0.685682 0.933970 0.658082
0.779551 0.942448 0.665701
0.873419 0.950926 0.673319
0.967287 0.959404 0.680937
0.116031 0.102231 0.596064
0.205212 0.105162 0.600714
0.294393 0.108093 0.605364
0.383573 0.111023 0.610014
0.472754 0.113954 0.614664
0.561935 0.116885 0.619314
0.652594 0.121293 0.624993
0.747440 0.129890 0.633590
0.842286 0.138486 0.642186
0.121785 0.194235 0.605193
0.210965 0.197165 0.609843
0.300146 0.200096 0.614493
0.389327 0.203027 0.619143
0.479777 0.207227 0.624677
0.574624 0.215824 0.633274
0.669470 0.224420 0.641870
0.764316 0.233016 0.650466
0.859162 0.241612 0.659062
0.127538 0.286238 0.614322
0.216719 0.289169 0.618972
0.306961 0.293161 0.624361
0.401807 0.301757 0.632957
0.496654 0.310354 0.641553
0.591500 0.318950 0.650150
0.686346 0.327546 0.658746
0.781192 0.336142 0.667342
0.876038 0.344739 0.675938
0.134145 0.379095 0.624045
0.228991 0.387691 0.632641
0.323837 0.396287 0.641237
0.418684 0.404884 0.649834
0.513530 0.413480 0.658430
0.608376 0.422076 0.667026
0.703222 0.430672 0.675622
0.798069 0.439268 0.684218
0.892915 0.447865 0.692815
0.151021 0.482221 0.640921
0.245867 0.490817 0.649517
0.340714 0.499414 0.658114
0.435560 0.508010 0.666710
0.530406 0.516606 0.675306
0.625252 0.525202 0.683902
0.720098 0.533798 0.692499
0.814945 0.542395 0.701095
0.909791 0.550991 0.709691
0.167897 0.585347 0.657797
0.262744 0.593944 0.666393
0.357590 0.602540 0.674990
0.452436 0.611136 0.683586
0.547282 0.619732 0.692182
0.642128 0.628328 0.700778
0.736975 0.636925 0.709375
0.831455 0.645477 0.717605
0.925323 0.653955 0.725223
0.184773 0.688473 0.674674
0.279620 0.697070 0.683270
0.374466 0.705666 0.691866
0.469312 0.714262 0.700462
0.564159 0.722859 0.709059
0.658674 0.731415 0.717324
0.752543 0.739893 0.724943
0.846411 0.748371 0.732561
0.940279 0.756848 0.740179
0.201650 0.791600 0.691550
0.296496 0.800196 0.700146
0.391342 0.808792 0.708742
0.485894 0.817353 0.717044
0.579762 0.825831 0.724662
0.673631 0.834309 0.732281
0.767499 0.842787 0.739899
0.861367 0.851265 0.747517
0.955236 0.859742 0.755136
0.218526 0.894726 0.708426
0.313114 0.903291 0.716764
0.406982 0.911769 0.724382
0.500850 0.920247 0.732000
0.594719 0.928725 0.739619
0.688587 0.937203 0.747237
0.782455 0.945681 0.754855
0.876324 0.954158 0.762474
0.970192 0.962636 0.770092
0.117148 0.103348 0.684087
0.206329 0.106279 0.688737
0.295510 0.109210 0.693387
0.384691 0.112141 0.698037
0.473871 0.115071 0.702687
0.563052 0.118002 0.707337
0.655871 0.124571 0.714521
0.750717 0.133167 0.723117
0.845564 0.141763 0.731714
0.122902 0.195352 0.693216
0.212083 0.198283 0.697866
0.301264 0.201214 0.702516
0.390444 0.204144 0.707166
0.483055 0.210505 0.714205
0.577901 0.219101 0.722801
0.672747 0.227697 0.731397
0.767594 0.236293 0.739993
0.862440 0.244890 0.748590
0.128656 0.287356 0.702345
0.217837 0.290287 0.706995
0.310238 0.296438 0.713888
0.405085 0.305035 0.722485
0.499931 0.313631 0.731081
0.594777 0.322227 0.739677
0.689624 0.330824 0.748274
0.784470 0.339420 0.756870
0.879316 0.348016 0.765466
0.137422 0.382372 0.713572
0.232268 0.390968 0.722168
0.327115 0.399565 0.730765
0.421961 0.408161 0.739361
0.516807 0.416757 0.747957
0.611654 0.425354 0.756554
0.706500 0.433950 0.765150
0.801346 0.442546 0.773746
0.896192 0.451142 0.782342
0.154299 0.485498 0.730448
0.249145 0.494095 0.739045
0.343991 0.502691 0.747641
0.438837 0.511287 0.756237
0.533684 0.519884 0.764834
0.628530 0.528480 0.773430
0.723376 0.537076 0.782026
0.818222 0.545672 0.790622
0.913069 0.554268 0.799219
0.171175 0.588625 0.747325
0.266021 0.597221 0.755921
0.360867 0.605817 0.764517
0.455714 0.614414 0.773114
0.550560 0.623010 0.781710
0.645406 0.631606 0.790306
0.740252 0.640202 0.798902
0.834359 0.648709 0.806759
0.928228 0.657187 0.814378
0.188051 0.691751 0.764201
0.282897 0.700347 0.772797
0.377744 0.708944 0.781393
0.472590 0.717540 0.789990
0.567436 0.726136 0.798586
0.661579 0.734647 0.806479
0.755447 0.743125 0.814097
0.849316 0.751603 0.821716
0.943184 0.760081 0.829334
0.204927 0.794877 0.781077
0.299773 0.803473 0.789673
0.394620 0.812070 0.798270
0.488799 0.820585 0.806199
0.582667 0.829063 0.813817
0.676535 0.837541 0.821435
0.770404 0.846019 0.829054
0.864272 0.854497 0.836672
0.958140 0.862975 0.844290
0.221803 0.898004 0.797953
0.316018 0.906523 0.805918
0.409887 0.915001 0.813537
0.503755 0.923479 0.821155
0.597623 0.931957 0.828773
0.691492 0.940435 0.836392
0.785360 0.948913 0.844010
0.879228 0.957391 0.851628
0.973096 0.965869 0.859246
0.118266 0.104466 0.772110
0.207447 0.107397 0.776760
0.296627 0.110327 0.781410
0.385808 0.113258 0.786060
0.474989 0.116189 0.790710
0.564302 0.119252 0.795452
0.659149 0.127848 0.804049
0.753995 0.136445 0.812645
0.848841 0.145041 0.821241
0.124020 0.196470 0.781239
0.213200 0.199400 0.785889
0.302381 0.202331 0.790539
0.391562 0.205262 0.795189
0.486332 0.213782 0.803732
0.581178 0.222378 0.812329
0.676025 0.230975 0.820925
0.770871 0.239571 0.829521
0.865717 0.248167 0.838117
0.129773 0.288473 0.790368
0.218954 0.291404 0.795018
0.313516 0.299716 0.803416
0.408362 0.308312 0.812012
0.503208 0.316909 0.820608
0.598055 0.325505 0.829205
0.692901 0.334101 0.837801
0.787747 0.342697 0.846397
0.882594 0.351294 0.854993
0.140700 0.385650 0.803100
0.235546 0.394246 0.811696
0.330392 0.402842 0.820292
0.425239 0.411439 0.828888
0.520085 0.420035 0.837485
0.614931 0.428631 0.846081
0.709777 0.437227 0.854677
0.804624 0.445824 0.863274
0.899470 0.454420 0.871870
0.157576 0.488776 0.819976
0.252422 0.497372 0.828572
0.347268 0.505968 0.837168
0.442115 0.514565 0.845765
0.536961 0.523161 0.854361
0.631807 0.531757 0.862957
0.726654 0.540354 0.871554
0.821500 0.548950 0.880150
0.916176 0.557525 0.888576
0.174452 0.591902 0.836852
0.269298 0.600499 0.845449
0.364145 0.609095 0.854045
0.458991 0.617691 0.862641
0.553837 0.626287 0.871237
0.648683 0.634884 0.879833
0.743396 0.643464 0.888296
0.837264 0.651941 0.895914
0.931132 0.660419 0.903532
0.191329 0.695029 0.853729
0.286175 0.703625 0.862325
0.381021 0.712221 0.870921
0.475867 0.720817 0.879517
0.570615 0.729402 0.888015
0.664484 0.737880 0.895634
0.758352 0.746357 0.903252
0.852220 0.754835 0.910870
0.946089 0.763313 0.918489
0.208205 0.798155 0.870605
0.303051 0.806751 0.879201
0.397835 0.815340 0.887735
0.491703 0.823818 0.895353
0.585572 0.832296 0.902972
0.679440 0.840773 0.910590
0.773308 0.849251 0.918208
0.867177 0.857729 0.925827
0.961045 0.866207 0.933445
0.225055 0.901278 0.887455
0.318923 0.909756 0.895073
0.412791 0.918234 0.902691
0.506660 0.926712 0.910310
0.600528 0.935189 0.917928
0.694396 0.943667 0.925546
0.788265 0.952145 0.933165
0.882133 0.960623 0.940783
0.976001 0.969101 0.948401
