assets/luts/nostalgic-lifted.cube
TITLE "nostalgic-lifted"
LUT_3D_SIZE 5
0.109327 0.095527 0.067927
0.287688 0.101388 0.077227
0.466050 0.107250 0.086527
0.644411 0.113111 0.095827
0.822773 0.118973 0.105127
0.120834 0.279534 0.086184
0.299195 0.285395 0.095484
0.477557 0.291257 0.104784
0.666681 0.307881 0.121581
0.856374 0.325074 0.138773
0.132341 0.463541 0.104442
0.321049 0.479749 0.120948
0.510741 0.496941 0.138141
0.700434 0.514133 0.155333
0.890126 0.531326 0.172526
0.165109 0.668809 0.137508
0.354801 0.686001 0.154701
0.544493 0.703194 0.171893
0.734186 0.720386 0.189086
0.922851 0.737454 0.205251
0.198861 0.875061 0.171261
0.388553 0.892254 0.188453
0.577291 0.909330 0.204691
0.765027 0.926286 0.219927
0.952764 0.943242 0.235164
0.111561 0.097761 0.243972
0.289923 0.103623 0.253272
0.468284 0.109484 0.262572
0.646646 0.115346 0.271872
0.829176 0.125376 0.284076
0.123069 0.281769 0.262230
0.301430 0.287630 0.271530
0.483544 0.297243 0.283443
0.673236 0.314436 0.300636
0.862928 0.331628 0.317829
0.137911 0.469111 0.282811
0.327604 0.486303 0.300003
0.517296 0.503496 0.317196
0.706989 0.520688 0.334388
0.896681 0.537881 0.351581
0.171663 0.675364 0.316563
0.361356 0.692556 0.333756
0.551049 0.709749 0.350948
0.740741 0.726941 0.368141
0.928661 0.743919 0.383561
0.205416 0.881616 0.350316
0.395109 0.898809 0.367509
0.583100 0.915795 0.383000
0.770837 0.932751 0.398237
0.958573 0.949707 0.413473
0.113796 0.099996 0.420018
0.292158 0.105858 0.429318
0.470519 0.111719 0.438618
0.648881 0.117581 0.447918
0.835731 0.131931 0.463131
0.125304 0.284004 0.438276
0.303665 0.289865 0.447576
0.490098 0.303798 0.462498
0.679791 0.320991 0.479691
0.869484 0.338184 0.496884
0.144466 0.475666 0.461866
0.334159 0.492858 0.479058
0.523851 0.510051 0.496251
0.713544 0.527244 0.513444
0.903236 0.544436 0.530636
0.178219 0.681918 0.495619
0.367911 0.699111 0.512811
0.557603 0.716304 0.530003
0.746733 0.733428 0.546633
0.934470 0.750384 0.561870
0.211971 0.888171 0.529371
0.401173 0.905304 0.546073
0.588909 0.922260 0.561309
0.776646 0.939216 0.576546
0.964383 0.956172 0.591783
0.116031 0.102231 0.596064
0.294393 0.108093 0.605364
0.472754 0.113954 0.614664
0.652594 0.121293 0.624993
0.842286 0.138486 0.642186
0.127538 0.286238 0.614322
0.306961 0.293161 0.624361
0.496654 0.310354 0.641553
0.686346 0.327546 0.658746
0.876038 0.344739 0.675938
0.151021 0.482221 0.640921
0.340714 0.499414 0.658114
0.530406 0.516606 0.675306
0.720098 0.533798 0.692499
0.909791 0.550991 0.709691
0.184773 0.688473 0.674674
0.374466 0.705666 0.691866
0.564159 0.722859 0.709059
0.752543 0.739893 0.724943
0.940279 0.756848 0.740179
0.218526 0.894726 0.708426
0.406982 0.911769 0.724382
0.594719 0.928725 0.739619
0.782455 0.945681 0.754855
0.970192 0.962636 0.770092
0.118266 0.104466 0.772110
0.296627 0.110327 0.781410
0.474989 0.116189 0.790710
0.659149 0.127848 0.804049
0.848841 0.145041 0.821241
0.129773 0.288473 0.790368
0.313516 0.299716 0.803416
0.503208 0.316909 0.820608
0.692901 0.334101 0.837801
0.882594 0.351294 0.854993
0.157576 0.488776 0.819976
0.347268 0.505968 0.837168
0.536961 0.523161 0.854361
0.726654 0.540354 0.871554
0.916176 0.557525 0.888576
0.191329 0.695029 0.853729
0.381021 0.712221 0.870921
0.570615 0.729402 0.888015
0.758352 0.746357 0.903252
0.946089 0.763313 0.918489
0.225055 0.901278 0.887455
0.412791 0.918234 0.902691
0.600528 0.935189 0.917928
0.788265 0.952145 0.933165
0.976001 0.969101 0.948401
