assets/luts/vendetta-noir.cube
TITLE "vendetta-noir"
LUT_3D_SIZE 5
0.000000 0.000000 0.000000
0.122988 0.000000 0.000000
0.403891 0.000000 0.000000
0.684794 0.000000 0.000000
0.965697 0.000000 0.000000
0.000000 0.162279 0.000000
0.182184 0.187433 0.000000
0.463087 0.212588 0.000000
0.727917 0.226417 0.000000
0.991898 0.239648 0.000000
0.000000 0.462413 0.000000
0.225930 0.476680 0.000000
0.489911 0.489911 0.000000
0.753892 0.503142 0.001642
1.000000 0.516373 0.014873
0.000000 0.740174 0.000000
0.251905 0.753405 0.001155
0.515886 0.766636 0.014386
0.779867 0.779867 0.027616
1.000000 0.793183 0.038308
0.013899 1.000000 0.013899
0.277880 1.000000 0.027130
0.544381 1.000000 0.038000
0.813523 1.000000 0.046395
1.000000 1.000000 0.054791
0.000000 0.000000 0.140640
0.134484 0.000000 0.160796
0.415387 0.000000 0.180953
0.696290 0.000000 0.201109
0.970967 0.000000 0.218718
0.000000 0.171870 0.180211
0.193681 0.197024 0.200368
0.468981 0.218231 0.218231
0.732961 0.231462 0.231462
0.996942 0.244692 0.244692
0.000000 0.468494 0.217744
0.230975 0.481725 0.230975
0.494955 0.494955 0.244206
0.758936 0.508186 0.257436
1.000000 0.521417 0.270667
0.000000 0.745219 0.243719
0.256949 0.758449 0.256949
0.520930 0.771680 0.270180
0.784911 0.784911 0.283411
1.000000 0.798290 0.292259
0.018944 1.000000 0.269694
0.282924 1.000000 0.282924
0.551393 1.000000 0.291951
0.820535 1.000000 0.300346
1.000000 1.000000 0.308742
0.000000 0.000000 0.399075
0.145981 0.000000 0.419231
0.426884 0.000000 0.439388
0.707787 0.000000 0.459544
0.976012 0.000000 0.474512
0.000000 0.181460 0.438646
0.205177 0.206615 0.458803
0.474025 0.223275 0.474025
0.738006 0.236506 0.487256
1.000000 0.249737 0.500487
0.000000 0.473538 0.473538
0.236019 0.486769 0.486769
0.500000 0.500000 0.500000
0.763981 0.513231 0.513231
1.000000 0.526462 0.526462
0.000000 0.750263 0.499513
0.261994 0.763494 0.512744
0.525975 0.776725 0.525975
0.791440 0.790002 0.537815
1.000000 0.803396 0.546210
0.023988 1.000000 0.525488
0.289263 1.000000 0.537506
0.558406 1.000000 0.545902
0.827548 1.000000 0.554297
1.000000 1.000000 0.562693
0.000000 0.000000 0.657510
0.157477 0.000000 0.677666
0.438380 0.000000 0.697823
0.717076 0.000000 0.717076
0.981056 0.000000 0.730306
0.000000 0.191051 0.697081
0.215089 0.215089 0.716589
0.479070 0.228320 0.729820
0.743051 0.241551 0.743051
1.000000 0.254781 0.756281
0.000000 0.478583 0.729333
0.241064 0.491814 0.742564
0.505045 0.505045 0.755794
0.769025 0.518275 0.769025
1.000000 0.531506 0.782256
0.003058 0.755308 0.755308
0.267039 0.768539 0.768539
0.531019 0.781769 0.781769
0.798452 0.795109 0.791766
1.000000 0.808503 0.800161
0.029033 1.000000 0.781282
0.296276 1.000000 0.791457
0.565418 1.000000 0.799853
0.834560 1.000000 0.808248
1.000000 1.000000 0.816644
0.000000 0.000000 0.915945
0.168974 0.000000 0.936101
0.449877 0.000000 0.956258
0.722120 0.000000 0.972870
0.986101 0.000000 0.986101
0.000000 0.200642 0.955516
0.220133 0.220133 0.972384
0.484114 0.233364 0.985614
0.748095 0.246595 0.998845
1.000000 0.259826 1.000000
0.000000 0.483627 0.985127
0.246108 0.496858 0.998358
0.510089 0.510089 1.000000
0.774070 0.523320 1.000000
1.000000 0.536565 1.000000
0.008102 0.760352 1.000000
0.272083 0.773583 1.000000
0.536323 0.786822 1.000000
0.805465 0.800216 1.000000
1.000000 0.813610 1.000000
0.034146 1.000000 1.000000
0.303288 1.000000 1.000000
0.572430 1.000000 1.000000
0.841573 1.000000 1.000000
1.000000 1.000000 1.000000
