assets/luts/vendetta-noir.cube
TITLE "vendetta-noir"
LUT_3D_SIZE 17
0.000000 0.000000 0.000000
0.000000 0.000000 0.000000
0.000000 0.000000 0.000000
0.052762 0.000000 0.000000
0.122988 0.000000 0.000000
0.193214 0.000000 0.000000
0.263439 0.000000 0.000000
0.333665 0.000000 0.000000
0.403891 0.000000 0.000000
0.474117 0.000000 0.000000
0.544342 0.000000 0.000000
0.614568 0.000000 0.000000
0.684794 0.000000 0.000000
0.755019 0.000000 0.000000
0.825245 0.000000 0.000000
0.895471 0.000000 0.000000
0.965697 0.000000 0.000000
0.000000 0.000000 0.000000
0.000000 0.000000 0.000000
0.000000 0.000000 0.000000
0.067561 0.000000 0.000000
0.137787 0.000000 0.000000
0.208013 0.000000 0.000000
0.278239 0.000000 0.000000
0.348464 0.000000 0.000000
0.418690 0.000000 0.000000
0.488916 0.000000 0.000000
0.559141 0.000065 0.000000
0.629367 0.006354 0.000000
0.699593 0.012642 0.000000
0.769819 0.018931 0.000000
0.840044 0.025220 0.000000
0.906421 0.028797 0.000000
0.972417 0.032104 0.000000
0.000000 0.012212 0.000000
0.000000 0.018501 0.000000
0.012135 0.024789 0.000000
0.082360 0.031078 0.000000
0.152586 0.037367 0.000000
0.222812 0.043655 0.000000
0.293038 0.049944 0.000000
0.363263 0.056233 0.000000
0.433489 0.062521 0.000000
0.503715 0.068810 0.000000
0.573941 0.075098 0.000000
0.644166 0.081387 0.000000
0.714392 0.087676 0.000000
0.780925 0.091362 0.000000
0.846920 0.094670 0.000000
0.912915 0.097978 0.000000
0.978910 0.101285 0.000000
0.000000 0.087245 0.000000
0.000000 0.093534 0.000000
0.026934 0.099823 0.000000
0.097160 0.106111 0.000000
0.167385 0.112400 0.000000
0.237611 0.118689 0.000000
0.307837 0.124977 0.000000
0.378062 0.131266 0.000000
0.448288 0.137555 0.000000
0.518514 0.143843 0.000000
0.588740 0.150132 0.000000
0.655428 0.153928 0.000000
0.721423 0.157236 0.000000
0.787419 0.160544 0.000000
0.853414 0.163851 0.000000
0.919409 0.167159 0.000000
0.985404 0.170467 0.000000
0.000000 0.162279 0.000000
0.000000 0.168568 0.000000
0.041733 0.174856 0.000000
0.111959 0.181145 0.000000
0.182184 0.187433 0.000000
0.252410 0.193722 0.000000
0.322636 0.200011 0.000000
0.392862 0.206299 0.000000
0.463087 0.212588 0.000000
0.529931 0.216494 0.000000
0.595927 0.219802 0.000000
0.661922 0.223109 0.000000
0.727917 0.226417 0.000000
0.793912 0.229725 0.000000
0.859907 0.233032 0.000000
0.925903 0.236340 0.000000
0.991898 0.239648 0.000000
0.000000 0.237312 0.000000
0.000000 0.243601 0.000000
0.056532 0.249890 0.000000
0.126758 0.256178 0.000000
0.196984 0.262467 0.000000
0.267209 0.268756 0.000000
0.337435 0.275044 0.000000
0.404435 0.279060 0.000000
0.470430 0.282367 0.000000
0.536425 0.285675 0.000000
0.602420 0.288983 0.000000
0.668415 0.292291 0.000000
0.734411 0.295598 0.000000
0.800406 0.298906 0.000000
0.866401 0.302214 0.000000
0.932396 0.305521 0.000000
0.998391 0.308829 0.000000
0.000000 0.312346 0.000000
0.001106 0.318634 0.000000
0.071331 0.324923 0.000000
0.141557 0.331212 0.000000
0.211783 0.337500 0.000000
0.278938 0.341626 0.000000
0.344933 0.344933 0.000000
0.410928 0.348241 0.000000
0.476924 0.351549 0.000000
0.542919 0.354856 0.000000
0.608914 0.358164 0.000000
0.674909 0.361472 0.000000
0.740904 0.364779 0.000000
0.806900 0.368087 0.000000
0.872895 0.371395 0.000000
0.938890 0.374702 0.000000
1.000000 0.378010 0.001885
0.000000 0.387379 0.000000
0.015905 0.393668 0.000000
0.086130 0.399956 0.000000
0.153441 0.404191 0.000000
0.219437 0.407499 0.000000
0.285432 0.410807 0.000000
0.351427 0.414114 0.000000
0.417422 0.417422 0.000000
0.483417 0.420730 0.000000
0.549412 0.424037 0.000000
0.615408 0.427345 0.000000
0.681403 0.430653 0.000000
0.747398 0.433961 0.000000
0.813393 0.437268 0.000000
0.879388 0.440576 0.001763
0.945384 0.443884 0.005071
1.000000 0.447191 0.008379
0.000000 0.462413 0.000000
0.027945 0.466757 0.000000
0.093940 0.470065 0.000000
0.159935 0.473373 0.000000
0.225930 0.476680 0.000000
0.291925 0.479988 0.000000
0.357921 0.483296 0.000000
0.423916 0.486603 0.000000
0.489911 0.489911 0.000000
0.555906 0.493219 0.000000
0.621901 0.496526 0.000000
0.687897 0.499834 0.000000
0.753892 0.503142 0.001642
0.819887 0.506449 0.004949
0.885882 0.509757 0.008257
0.951877 0.513065 0.011565
1.000000 0.516373 0.014873
0.000000 0.532631 0.000000
0.034438 0.535938 0.000000
0.100434 0.539246 0.000000
0.166429 0.542554 0.000000
0.232424 0.545861 0.000000
0.298419 0.549169 0.000000
0.364414 0.552477 0.000000
0.430410 0.555784 0.000000
0.496405 0.559092 0.000000
0.562400 0.562400 0.000000
0.628395 0.565708 0.001520
0.694390 0.569015 0.004828
0.760385 0.572323 0.008135
0.826381 0.575631 0.011443
0.892376 0.578938 0.014751
0.958371 0.582246 0.018058
1.000000 0.585554 0.021366
0.000000 0.601812 0.000000
0.040932 0.605120 0.000000
0.106927 0.608427 0.000000
0.172922 0.611735 0.000000
0.238918 0.615043 0.000000
0.304913 0.618350 0.000000
0.370908 0.621658 0.000000
0.436903 0.624966 0.000000
0.502898 0.628273 0.001398
0.568894 0.631581 0.004706
0.634889 0.634889 0.008014
0.700884 0.638196 0.011321
0.766879 0.641504 0.014629
0.832874 0.644812 0.017937
0.898869 0.648119 0.021244
0.964865 0.651427 0.024552
1.000000 0.654735 0.027860
0.000000 0.670993 0.000000
0.047426 0.674301 0.000000
0.113421 0.677608 0.000000
0.179416 0.680916 0.000000
0.245411 0.684224 0.000000
0.311407 0.687531 0.000000
0.377402 0.690839 0.001277
0.443397 0.694147 0.004584
0.509392 0.697455 0.007892
0.575387 0.700762 0.011200
0.641382 0.704070 0.014507
0.707378 0.707378 0.017815
0.773373 0.710685 0.021123
0.839368 0.713993 0.024431
0.905363 0.717301 0.027738
0.971358 0.720608 0.031046
1.000000 0.723922 0.034188
0.000000 0.740174 0.000000
0.053919 0.743482 0.000000
0.119915 0.746790 0.000000
0.185910 0.750097 0.000000
0.251905 0.753405 0.001155
0.317900 0.756713 0.004463
0.383895 0.760020 0.007770
0.449891 0.763328 0.011078
0.515886 0.766636 0.014386
0.581881 0.769943 0.017693
0.647876 0.773251 0.021001
0.713871 0.776559 0.024309
0.779867 0.779867 0.027616
0.845862 0.783174 0.030924
0.911986 0.786486 0.034111
0.979272 0.789834 0.036210
1.000000 0.793183 0.038308
0.000000 0.809355 0.000000
0.060413 0.812663 0.000000
0.126408 0.815971 0.001033
0.192404 0.819279 0.004341
0.258399 0.822586 0.007649
0.324394 0.825894 0.010956
0.390389 0.829202 0.014264
0.456384 0.832509 0.017572
0.522379 0.835817 0.020879
0.588375 0.839125 0.024187
0.654370 0.842432 0.027495
0.720365 0.845740 0.030803
0.786442 0.849050 0.034033
0.853728 0.852399 0.036132
0.921013 0.855747 0.038231
0.988299 0.859096 0.040330
1.000000 0.862444 0.042429
0.000912 0.878537 0.000912
0.066907 0.881844 0.004219
0.132902 0.885152 0.007527
0.198897 0.888460 0.010835
0.264892 0.891767 0.014142
0.330888 0.895075 0.017450
0.396883 0.898383 0.020758
0.462878 0.901690 0.024065
0.528873 0.904998 0.027373
0.594868 0.908306 0.030681
0.660898 0.911615 0.033956
0.728184 0.914963 0.036055
0.795469 0.918312 0.038154
0.862755 0.921660 0.040253
0.930040 0.925009 0.042352
0.997326 0.928357 0.044451
1.000000 0.931705 0.046550
0.007405 0.947718 0.007405
0.073401 0.951026 0.010713
0.139396 0.954333 0.014021
0.205391 0.957641 0.017328
0.271386 0.960949 0.020636
0.337381 0.964256 0.023944
0.403376 0.967564 0.027251
0.469372 0.970872 0.030559
0.535367 0.974179 0.033867
0.602639 0.977527 0.035978
0.669925 0.980876 0.038077
0.737211 0.984224 0.040176
0.804496 0.987573 0.042275
0.871782 0.990921 0.044373
0.939067 0.994270 0.046472
1.000000 0.997618 0.048571
1.000000 1.000000 0.050670
0.013899 1.000000 0.013899
0.079894 1.000000 0.017207
0.145889 1.000000 0.020514
0.211885 1.000000 0.023822
0.277880 1.000000 0.027130
0.343875 1.000000 0.030437
0.409870 1.000000 0.033745
0.477095 1.000000 0.035901
0.544381 1.000000 0.038000
0.611666 1.000000 0.040098
0.678952 1.000000 0.042197
0.746237 1.000000 0.044296
0.813523 1.000000 0.046395
0.880809 1.000000 0.048494
0.948094 1.000000 0.050593
1.000000 1.000000 0.052692
1.000000 1.000000 0.054791
0.000000 0.000000 0.000000
0.000000 0.000000 0.000000
0.000000 0.000000 0.000000
0.055636 0.000000 0.000000
0.125862 0.000000 0.000000
0.196088 0.000000 0.000000
0.266314 0.000000 0.000000
0.336539 0.000000 0.000000
0.406765 0.000000 0.000000
0.476991 0.000000 0.000000
0.547216 0.000000 0.000000
0.617442 0.000000 0.002244
0.687668 0.000000 0.007283
0.757894 0.000000 0.012322
0.828119 0.000000 0.017361
0.898345 0.000000 0.022400
0.967184 0.000000 0.026872
0.000000 0.000000 0.000000
0.000000 0.000000 0.000000
0.000210 0.000000 0.000000
0.070435 0.000000 0.000000
0.140661 0.000000 0.000000
0.210887 0.000000 0.000000
0.281113 0.000000 0.000000
0.351338 0.000000 0.000000
0.421564 0.000000 0.000000
0.491790 0.000000 0.002058
0.562016 0.002463 0.007097
0.632241 0.008751 0.012136
0.702467 0.015040 0.017176
0.772693 0.021329 0.022215
0.841687 0.026750 0.026750
0.907683 0.030058 0.030058
0.973678 0.033365 0.033365
0.000000 0.014610 0.000000
0.000000 0.020898 0.000000
0.015009 0.027187 0.000000
0.085235 0.033476 0.000000
0.155460 0.039764 0.000000
0.225686 0.046053 0.000000
0.295912 0.052342 0.000000
0.366137 0.058630 0.001873
0.436363 0.064919 0.006912
0.506589 0.071208 0.011951
0.576815 0.077496 0.016990
0.647040 0.083785 0.022029
0.716191 0.089316 0.026628
0.782186 0.092623 0.029936
0.848181 0.095931 0.033244
0.914176 0.099239 0.036551
0.980171 0.102547 0.039859
0.000000 0.089643 0.000000
0.000000 0.095932 0.000000
0.029808 0.102220 0.000000
0.100034 0.108509 0.000000
0.170259 0.114798 0.000000
0.240485 0.121086 0.001688
0.310711 0.127375 0.006727
0.380937 0.133664 0.011766
0.451162 0.139952 0.016805
0.521388 0.146241 0.021844
0.590694 0.151882 0.026507
0.656689 0.155189 0.029814
0.722684 0.158497 0.033122
0.788680 0.161805 0.036430
0.854675 0.165112 0.039737
0.920670 0.168420 0.043045
0.986665 0.171728 0.046353
0.000000 0.164677 0.000000
0.000000 0.170965 0.000000
0.044607 0.177254 0.000000
0.114833 0.183542 0.001502
0.185059 0.189831 0.006541
0.255284 0.196120 0.011580
0.325510 0.202408 0.016619
0.395736 0.208697 0.021658
0.465197 0.214447 0.026385
0.531193 0.217755 0.029693
0.597188 0.221063 0.033000
0.663183 0.224370 0.036308
0.729178 0.227678 0.039616
0.795173 0.230986 0.042923
0.861169 0.234293 0.046231
0.927164 0.237601 0.049539
0.993159 0.240909 0.052846
0.000000 0.239710 0.000000
0.000000 0.245999 0.001317
0.059406 0.252287 0.006356
0.129632 0.258576 0.011395
0.199858 0.264865 0.016434
0.270083 0.271153 0.021473
0.339701 0.277013 0.026263
0.405696 0.280321 0.029571
0.471691 0.283629 0.032879
0.537686 0.286936 0.036186
0.603681 0.290244 0.039494
0.669677 0.293552 0.042802
0.735672 0.296859 0.046109
0.801667 0.300167 0.049417
0.867662 0.303475 0.052725
0.933657 0.306782 0.056032
0.999653 0.310090 0.059340
0.000000 0.314743 0.006170
0.003980 0.321032 0.011210
0.074205 0.327321 0.016249
0.144431 0.333609 0.021288
0.214204 0.339579 0.026141
0.280199 0.342887 0.029449
0.346194 0.346194 0.032757
0.412190 0.349502 0.036065
0.478185 0.352810 0.039372
0.544180 0.356117 0.042680
0.610175 0.359425 0.045988
0.676170 0.362733 0.049295
0.742166 0.366040 0.052603
0.808161 0.369348 0.055911
0.874156 0.372656 0.059218
0.940151 0.375964 0.062526
1.000000 0.379271 0.065834
0.000000 0.389777 0.016063
0.018779 0.396066 0.021102
0.088707 0.402145 0.026020
0.154702 0.405452 0.029328
0.220698 0.408760 0.032635
0.286693 0.412068 0.035943
0.352688 0.415376 0.039251
0.418683 0.418683 0.042558
0.484678 0.421991 0.045866
0.550674 0.425299 0.049174
0.616669 0.428606 0.052481
0.682664 0.431914 0.055789
0.748659 0.435222 0.059097
0.814654 0.438529 0.062404
0.880650 0.441837 0.065712
0.946645 0.445145 0.069020
1.000000 0.448452 0.072327
0.000000 0.464711 0.025898
0.029206 0.468018 0.029206
0.095201 0.471326 0.032514
0.161196 0.474634 0.035821
0.227191 0.477941 0.039129
0.293187 0.481249 0.042437
0.359182 0.484557 0.045744
0.425177 0.487864 0.049052
0.491172 0.491172 0.052360
0.557167 0.494480 0.055667
0.623162 0.497787 0.058975
0.689158 0.501095 0.062283
0.755153 0.504403 0.065590
0.821148 0.507711 0.068898
0.887143 0.511018 0.072206
0.953138 0.514326 0.075513
1.000000 0.517634 0.078821
0.000000 0.533892 0.032392
0.035699 0.537200 0.035699
0.101695 0.540507 0.039007
0.167690 0.543815 0.042315
0.233685 0.547123 0.045623
0.299680 0.550430 0.048930
0.365675 0.553738 0.052238
0.431671 0.557046 0.055546
0.497666 0.560353 0.058853
0.563661 0.563661 0.062161
0.629656 0.566969 0.065469
0.695651 0.570276 0.068776
0.761647 0.573584 0.072084
0.827642 0.576892 0.075392
0.893637 0.580199 0.078699
0.959632 0.583507 0.082007
1.000000 0.586815 0.085315
0.000000 0.603073 0.038886
0.042193 0.606381 0.042193
0.108188 0.609688 0.045501
0.174184 0.612996 0.048809
0.240179 0.616304 0.052116
0.306174 0.619611 0.055424
0.372169 0.622919 0.058732
0.438164 0.626227 0.062039
0.504159 0.629534 0.065347
0.570155 0.632842 0.068655
0.636150 0.636150 0.071962
0.702145 0.639458 0.075270
0.768140 0.642765 0.078578
0.834135 0.646073 0.081885
0.900131 0.649381 0.085193
0.966126 0.652688 0.088501
1.000000 0.655996 0.091809
0.000000 0.672254 0.045379
0.048687 0.675562 0.048687
0.114682 0.678870 0.051995
0.180677 0.682177 0.055302
0.246672 0.685485 0.058610
0.312668 0.688793 0.061918
0.378663 0.692100 0.065225
0.444658 0.695408 0.068533
0.510653 0.698716 0.071841
0.576648 0.702023 0.075148
0.642644 0.705331 0.078456
0.708639 0.708639 0.081764
0.774634 0.711946 0.085071
0.840629 0.715254 0.088379
0.906624 0.718562 0.091687
0.972619 0.721869 0.094995
1.000000 0.725198 0.097676
0.000000 0.741435 0.051873
0.055181 0.744743 0.055181
0.121176 0.748051 0.058488
0.187171 0.751358 0.061796
0.253166 0.754666 0.065104
0.319161 0.757974 0.068411
0.385157 0.761281 0.071719
0.451152 0.764589 0.075027
0.517147 0.767897 0.078334
0.583142 0.771205 0.081642
0.649137 0.774512 0.084950
0.715132 0.777820 0.088257
0.781128 0.781128 0.091565
0.847123 0.784435 0.094873
0.913739 0.787763 0.097598
0.981025 0.791111 0.099697
1.000000 0.794460 0.101796
0.000000 0.810617 0.058367
0.061674 0.813924 0.061674
0.127669 0.817232 0.064982
0.193665 0.820540 0.068290
0.259660 0.823847 0.071597
0.325655 0.827155 0.074905
0.391650 0.830463 0.078213
0.457645 0.833770 0.081520
0.523641 0.837078 0.084828
0.589636 0.840386 0.088136
0.655631 0.843693 0.091443
0.721626 0.847001 0.094751
0.788195 0.850327 0.097521
0.855481 0.853675 0.099620
0.922766 0.857024 0.101719
0.990052 0.860372 0.103818
1.000000 0.863721 0.105917
0.002173 0.879798 0.064860
0.068168 0.883105 0.068168
0.134163 0.886413 0.071476
0.200158 0.889721 0.074783
0.266154 0.893029 0.078091
0.332149 0.896336 0.081399
0.398144 0.899644 0.084706
0.464139 0.902952 0.088014
0.530134 0.906259 0.091322
0.596129 0.909567 0.094629
0.662651 0.912891 0.097444
0.729937 0.916240 0.099543
0.797222 0.919588 0.101642
0.864508 0.922937 0.103741
0.931793 0.926285 0.105840
0.999079 0.929634 0.107938
1.000000 0.932982 0.110037
0.008666 0.948979 0.071354
0.074662 0.952287 0.074662
0.140657 0.955594 0.077969
0.206652 0.958902 0.081277
0.272647 0.962210 0.084585
0.338642 0.965517 0.087892
0.404638 0.968825 0.091200
0.470633 0.972133 0.094508
0.537107 0.975456 0.097367
0.604393 0.978804 0.099466
0.671678 0.982153 0.101565
0.738964 0.985501 0.103663
0.806249 0.988850 0.105762
0.873535 0.992198 0.107861
0.940820 0.995546 0.109960
1.000000 0.998895 0.112059
1.000000 1.000000 0.114158
0.015160 1.000000 0.077848
0.081155 1.000000 0.081155
0.147151 1.000000 0.084463
0.213146 1.000000 0.087771
0.279141 1.000000 0.091078
0.345136 1.000000 0.094386
0.411563 1.000000 0.097289
0.478848 1.000000 0.099388
0.546134 1.000000 0.101487
0.613419 1.000000 0.103586
0.680705 1.000000 0.105685
0.747991 1.000000 0.107784
0.815276 1.000000 0.109883
0.882562 1.000000 0.111982
0.949847 1.000000 0.114081
1.000000 1.000000 0.116180
1.000000 1.000000 0.118279
0.000000 0.000000 0.011423
0.000000 0.000000 0.016462
0.000000 0.000000 0.021501
0.058510 0.000000 0.026540
0.128736 0.000000 0.031579
0.198962 0.000000 0.036618
0.269188 0.000000 0.041657
0.339413 0.000000 0.046696
0.409639 0.000000 0.051735
0.479865 0.000000 0.056774
0.550091 0.000000 0.061813
0.620316 0.000000 0.066852
0.690542 0.000000 0.071892
0.760768 0.000000 0.076931
0.830993 0.000000 0.081970
0.901219 0.000000 0.087009
0.968445 0.000000 0.090820
0.000000 0.000000 0.021315
0.000000 0.000000 0.026354
0.003084 0.000000 0.031394
0.073310 0.000000 0.036433
0.143535 0.000000 0.041472
0.213761 0.000000 0.046511
0.283987 0.000000 0.051550
0.354212 0.000000 0.056589
0.424438 0.000000 0.061628
0.494664 0.000000 0.066667
0.564890 0.004860 0.071706
0.635115 0.011149 0.076745
0.705341 0.017438 0.081784
0.775567 0.023726 0.086823
0.842949 0.028011 0.090699
0.908944 0.031319 0.094006
0.974939 0.034626 0.097314
0.000000 0.017007 0.031208
0.000000 0.023296 0.036247
0.017883 0.029585 0.041286
0.088109 0.035873 0.046325
0.158334 0.042162 0.051364
0.228560 0.048451 0.056404
0.298786 0.054739 0.061443
0.369012 0.061028 0.066482
0.439237 0.067317 0.071521
0.509463 0.073605 0.076560
0.579689 0.079894 0.081599
0.649914 0.086182 0.086638
0.717452 0.090577 0.090577
0.783447 0.093885 0.093885
0.849442 0.097192 0.097192
0.915437 0.100500 0.100500
0.981433 0.103808 0.103808
0.000000 0.092041 0.041101
0.000000 0.098329 0.046140
0.032682 0.104618 0.051179
0.102908 0.110907 0.056218
0.173134 0.117195 0.061257
0.243359 0.123484 0.066296
0.313585 0.129773 0.071335
0.383811 0.136061 0.076374
0.454036 0.142350 0.081414
0.524262 0.148639 0.086453
0.591955 0.153143 0.090455
0.657950 0.156450 0.093763
0.723946 0.159758 0.097071
0.789941 0.163066 0.100378
0.855936 0.166373 0.103686
0.921931 0.169681 0.106994
0.987926 0.172989 0.110301
0.000000 0.167074 0.050994
0.000000 0.173363 0.056033
0.047481 0.179652 0.061072
0.117707 0.185940 0.066111
0.187933 0.192229 0.071150
0.258158 0.198517 0.076189
0.328384 0.204806 0.081228
0.398610 0.211095 0.086267
0.466458 0.215709 0.090334
0.532454 0.219016 0.093641
0.598449 0.222324 0.096949
0.664444 0.225632 0.100257
0.730439 0.228939 0.103564
0.796434 0.232247 0.106872
0.862430 0.235555 0.110180
0.928425 0.238862 0.113487
0.994420 0.242170 0.116795
0.000000 0.242108 0.060886
0.000000 0.248396 0.065926
0.062280 0.254685 0.070965
0.132506 0.260974 0.076004
0.202732 0.267262 0.081043
0.272957 0.273551 0.086082
0.340962 0.278274 0.090212
0.406957 0.281582 0.093520
0.472952 0.284890 0.096827
0.538947 0.288197 0.100135
0.604943 0.291505 0.103443
0.670938 0.294813 0.106750
0.736933 0.298120 0.110058
0.802928 0.301428 0.113366
0.868923 0.304736 0.116673
0.934918 0.308044 0.119981
1.000000 0.311351 0.123289
0.000000 0.317141 0.070779
0.006854 0.323430 0.075818
0.077079 0.329718 0.080857
0.147305 0.336007 0.085896
0.215465 0.340840 0.090090
0.281460 0.344148 0.093398
0.347455 0.347455 0.096705
0.413451 0.350763 0.100013
0.479446 0.354071 0.103321
0.545441 0.357379 0.106629
0.611436 0.360686 0.109936
0.677431 0.363994 0.113244
0.743427 0.367302 0.116552
0.809422 0.370609 0.119859
0.875417 0.373917 0.123167
0.941412 0.377225 0.126475
1.000000 0.380532 0.129782
0.000000 0.392175 0.080672
0.021653 0.398463 0.085711
0.089968 0.403406 0.089968
0.155964 0.406714 0.093276
0.221959 0.410021 0.096584
0.287954 0.413329 0.099892
0.353949 0.416637 0.103199
0.419944 0.419944 0.106507
0.485940 0.423252 0.109815
0.551935 0.426560 0.113122
0.617930 0.429867 0.116430
0.683925 0.433175 0.119738
0.749920 0.436483 0.123045
0.815916 0.439791 0.126353
0.881911 0.443098 0.129661
0.947906 0.446406 0.132968
1.000000 0.449714 0.136276
0.000000 0.465972 0.089847
0.030467 0.469279 0.093154
0.096462 0.472587 0.096462
0.162457 0.475895 0.099770
0.228453 0.479202 0.103078
0.294448 0.482510 0.106385
0.360443 0.485818 0.109693
0.426438 0.489126 0.113001
0.492433 0.492433 0.116308
0.558428 0.495741 0.119616
0.624424 0.499049 0.122924
0.690419 0.502356 0.126231
0.756414 0.505664 0.129539
0.822409 0.508972 0.132847
0.888404 0.512279 0.136154
0.954400 0.515587 0.139462
1.000000 0.518895 0.142770
0.000000 0.535153 0.096340
0.036961 0.538461 0.099648
0.102956 0.541768 0.102956
0.168951 0.545076 0.106264
0.234946 0.548384 0.109571
0.300941 0.551691 0.112879
0.366937 0.554999 0.116187
0.432932 0.558307 0.119494
0.498927 0.561614 0.122802
0.564922 0.564922 0.126110
0.630917 0.568230 0.129417
0.696913 0.571538 0.132725
0.762908 0.574845 0.136033
0.828903 0.578153 0.139340
0.894898 0.581461 0.142648
0.960893 0.584768 0.145956
1.000000 0.588076 0.149263
0.000000 0.604334 0.102834
0.043454 0.607642 0.106142
0.109449 0.610950 0.109449
0.175445 0.614257 0.112757
0.241440 0.617565 0.116065
0.307435 0.620873 0.119373
0.373430 0.624180 0.122680
0.439425 0.627488 0.125988
0.505421 0.630796 0.129296
0.571416 0.634103 0.132603
0.637411 0.637411 0.135911
0.703406 0.640719 0.139219
0.769401 0.644026 0.142526
0.835397 0.647334 0.145834
0.901392 0.650642 0.149142
0.967387 0.653949 0.152449
1.000000 0.657257 0.155757
0.000000 0.673515 0.109328
0.049948 0.676823 0.112636
0.115943 0.680131 0.115943
0.181938 0.683438 0.119251
0.247934 0.686746 0.122559
0.313929 0.690054 0.125866
0.379924 0.693361 0.129174
0.445919 0.696669 0.132482
0.511914 0.699977 0.135789
0.577909 0.703284 0.139097
0.643905 0.706592 0.142405
0.709900 0.709900 0.145712
0.775895 0.713208 0.149020
0.841890 0.716515 0.152328
0.907885 0.719823 0.155635
0.973881 0.723131 0.158943
1.000000 0.726475 0.161163
0.000000 0.742697 0.115822
0.056442 0.746004 0.119129
0.122437 0.749312 0.122437
0.188432 0.752620 0.125745
0.254427 0.755927 0.129052
0.320422 0.759235 0.132360
0.386418 0.762543 0.135668
0.452413 0.765850 0.138975
0.518408 0.769158 0.142283
0.584403 0.772466 0.145591
0.650398 0.775773 0.148898
0.716394 0.779081 0.152206
0.782389 0.782389 0.155514
0.848384 0.785696 0.158821
0.915493 0.789039 0.161086
0.982778 0.792388 0.163185
1.000000 0.795736 0.165284
0.000000 0.811878 0.122315
0.062935 0.815185 0.125623
0.128931 0.818493 0.128931
0.194926 0.821801 0.132238
0.260921 0.825108 0.135546
0.326916 0.828416 0.138854
0.392911 0.831724 0.142161
0.458906 0.835031 0.145469
0.524902 0.838339 0.148777
0.590897 0.841647 0.152084
0.656892 0.844955 0.155392
0.722887 0.848262 0.158700
0.789948 0.851604 0.161009
0.857234 0.854952 0.163108
0.924519 0.858301 0.165207
0.991805 0.861649 0.167306
1.000000 0.864998 0.169405
0.003434 0.881059 0.128809
0.069429 0.884367 0.132117
0.135424 0.887674 0.135424
0.201419 0.890982 0.138732
0.267415 0.894290 0.142040
0.333410 0.897597 0.145347
0.399405 0.900905 0.148655
0.465400 0.904213 0.151963
0.531395 0.907520 0.155270
0.597391 0.910828 0.158578
0.664404 0.914168 0.160932
0.731690 0.917516 0.163031
0.798975 0.920865 0.165129
0.866261 0.924213 0.167228
0.933546 0.927562 0.169327
1.000000 0.930910 0.171426
1.000000 0.934259 0.173525
0.009928 0.950240 0.135303
0.075923 0.953548 0.138610
0.141918 0.956855 0.141918
0.207913 0.960163 0.145226
0.273908 0.963471 0.148533
0.339904 0.966778 0.151841
0.405899 0.970086 0.155149
0.471894 0.973394 0.158456
0.538860 0.976732 0.160854
0.606146 0.980081 0.162953
0.673431 0.983429 0.165052
0.740717 0.986778 0.167151
0.808002 0.990126 0.169250
0.875288 0.993475 0.171349
0.942573 0.996823 0.173448
1.000000 1.000000 0.175547
1.000000 1.000000 0.177646
0.016421 1.000000 0.141796
0.082416 1.000000 0.145104
0.148412 1.000000 0.148412
0.214407 1.000000 0.151719
0.280402 1.000000 0.155027
0.346397 1.000000 0.158335
0.413316 1.000000 0.160777
0.480601 1.000000 0.162876
0.547887 1.000000 0.164975
0.615173 1.000000 0.167074
0.682458 1.000000 0.169173
0.749744 1.000000 0.171272
0.817029 1.000000 0.173371
0.884315 1.000000 0.175470
0.951600 1.000000 0.177569
1.000000 1.000000 0.179667
1.000000 1.000000 0.181766
0.000000 0.000000 0.076031
0.000000 0.000000 0.081070
0.000000 0.000000 0.086110
0.061385 0.000000 0.091149
0.131610 0.000000 0.096188
0.201836 0.000000 0.101227
0.272062 0.000000 0.106266
0.342287 0.000000 0.111305
0.412513 0.000000 0.116344
0.482739 0.000000 0.121383
0.552965 0.000000 0.126422
0.623190 0.000000 0.131461
0.693416 0.000000 0.136500
0.763642 0.000000 0.141539
0.833867 0.000000 0.146578
0.903711 0.000000 0.151461
0.969706 0.000000 0.154769
0.000000 0.000000 0.085924
0.000000 0.000000 0.090963
0.005958 0.000000 0.096002
