assets/luts/vendetta-noir.cube
TITLE "vendetta-noir"
LUT_3D_SIZE 9
0.000000 0.000000 0.000000
0.000000 0.000000 0.000000
0.122988 0.000000 0.000000
0.263439 0.000000 0.000000
0.403891 0.000000 0.000000
0.544342 0.000000 0.000000
0.684794 0.000000 0.000000
0.825245 0.000000 0.000000
0.965697 0.000000 0.000000
0.000000 0.012212 0.000000
0.012135 0.024789 0.000000
0.152586 0.037367 0.000000
0.293038 0.049944 0.000000
0.433489 0.062521 0.000000
0.573941 0.075098 0.000000
0.714392 0.087676 0.000000
0.846920 0.094670 0.000000
0.978910 0.101285 0.000000
0.000000 0.162279 0.000000
0.041733 0.174856 0.000000
0.182184 0.187433 0.000000
0.322636 0.200011 0.000000
0.463087 0.212588 0.000000
0.595927 0.219802 0.000000
0.727917 0.226417 0.000000
0.859907 0.233032 0.000000
0.991898 0.239648 0.000000
0.000000 0.312346 0.000000
0.071331 0.324923 0.000000
0.211783 0.337500 0.000000
0.344933 0.344933 0.000000
0.476924 0.351549 0.000000
0.608914 0.358164 0.000000
0.740904 0.364779 0.000000
0.872895 0.371395 0.000000
1.000000 0.378010 0.001885
0.000000 0.462413 0.000000
0.093940 0.470065 0.000000
0.225930 0.476680 0.000000
0.357921 0.483296 0.000000
0.489911 0.489911 0.000000
0.621901 0.496526 0.000000
0.753892 0.503142 0.001642
0.885882 0.509757 0.008257
1.000000 0.516373 0.014873
0.000000 0.601812 0.000000
0.106927 0.608427 0.000000
0.238918 0.615043 0.000000
0.370908 0.621658 0.000000
0.502898 0.628273 0.001398
0.634889 0.634889 0.008014
0.766879 0.641504 0.014629
0.898869 0.648119 0.021244
1.000000 0.654735 0.027860
0.000000 0.740174 0.000000
0.119915 0.746790 0.000000
0.251905 0.753405 0.001155
0.383895 0.760020 0.007770
0.515886 0.766636 0.014386
0.647876 0.773251 0.021001
0.779867 0.779867 0.027616
0.911986 0.786486 0.034111
1.000000 0.793183 0.038308
0.000912 0.878537 0.000912
0.132902 0.885152 0.007527
0.264892 0.891767 0.014142
0.396883 0.898383 0.020758
0.528873 0.904998 0.027373
0.660898 0.911615 0.033956
0.795469 0.918312 0.038154
0.930040 0.925009 0.042352
1.000000 0.931705 0.046550
0.013899 1.000000 0.013899
0.145889 1.000000 0.020514
0.277880 1.000000 0.027130
0.409870 1.000000 0.033745
0.544381 1.000000 0.038000
0.678952 1.000000 0.042197
0.813523 1.000000 0.046395
0.948094 1.000000 0.050593
1.000000 1.000000 0.054791
0.000000 0.000000 0.011423
0.000000 0.000000 0.021501
0.128736 0.000000 0.031579
0.269188 0.000000 0.041657
0.409639 0.000000 0.051735
0.550091 0.000000 0.061813
0.690542 0.000000 0.071892
0.830993 0.000000 0.081970
0.968445 0.000000 0.090820
0.000000 0.017007 0.031208
0.017883 0.029585 0.041286
0.158334 0.042162 0.051364
0.298786 0.054739 0.061443
0.439237 0.067317 0.071521
0.579689 0.079894 0.081599
0.717452 0.090577 0.090577
0.849442 0.097192 0.097192
0.981433 0.103808 0.103808
0.000000 0.167074 0.050994
0.047481 0.179652 0.061072
0.187933 0.192229 0.071150
0.328384 0.204806 0.081228
0.466458 0.215709 0.090334
0.598449 0.222324 0.096949
0.730439 0.228939 0.103564
0.862430 0.235555 0.110180
0.994420 0.242170 0.116795
0.000000 0.317141 0.070779
0.077079 0.329718 0.080857
0.215465 0.340840 0.090090
0.347455 0.347455 0.096705
0.479446 0.354071 0.103321
0.611436 0.360686 0.109936
0.743427 0.367302 0.116552
0.875417 0.373917 0.123167
1.000000 0.380532 0.129782
0.000000 0.465972 0.089847
0.096462 0.472587 0.096462
0.228453 0.479202 0.103078
0.360443 0.485818 0.109693
0.492433 0.492433 0.116308
0.624424 0.499049 0.122924
0.756414 0.505664 0.129539
0.888404 0.512279 0.136154
1.000000 0.518895 0.142770
0.000000 0.604334 0.102834
0.109449 0.610950 0.109449
0.241440 0.617565 0.116065
0.373430 0.624180 0.122680
0.505421 0.630796 0.129296
0.637411 0.637411 0.135911
0.769401 0.644026 0.142526
0.901392 0.650642 0.149142
1.000000 0.657257 0.155757
0.000000 0.742697 0.115822
0.122437 0.749312 0.122437
0.254427 0.755927 0.129052
0.386418 0.762543 0.135668
0.518408 0.769158 0.142283
0.650398 0.775773 0.148898
0.782389 0.782389 0.155514
0.915493 0.789039 0.161086
1.000000 0.795736 0.165284
0.003434 0.881059 0.128809
0.135424 0.887674 0.135424
0.267415 0.894290 0.142040
0.399405 0.900905 0.148655
0.531395 0.907520 0.155270
0.664404 0.914168 0.160932
0.798975 0.920865 0.165129
0.933546 0.927562 0.169327
1.000000 0.934259 0.173525
0.016421 1.000000 0.141796
0.148412 1.000000 0.148412
0.280402 1.000000 0.155027
0.413316 1.000000 0.160777
0.547887 1.000000 0.164975
0.682458 1.000000 0.169173
0.817029 1.000000 0.173371
0.951600 1.000000 0.177569
1.000000 1.000000 0.181766
0.000000 0.000000 0.140640
0.000000 0.000000 0.150718
0.134484 0.000000 0.160796
0.274936 0.000000 0.170875
0.415387 0.000000 0.180953
0.555839 0.000000 0.191031
0.696290 0.000000 0.201109
0.836742 0.000000 0.211187
0.970967 0.000000 0.218718
0.000000 0.021803 0.160426
0.023631 0.034380 0.170504
0.164083 0.046957 0.180582
0.304534 0.059535 0.190660
0.444986 0.072112 0.200738
0.585437 0.084689 0.210816
0.719974 0.093099 0.218474
0.851965 0.099715 0.225090
0.983955 0.106330 0.231705
0.000000 0.171870 0.180211
0.053229 0.184447 0.190289
0.193681 0.197024 0.200368
0.334132 0.209601 0.210446
0.468981 0.218231 0.218231
0.600971 0.224846 0.224846
0.732961 0.231462 0.231462
0.864952 0.238077 0.238077
0.996942 0.244692 0.244692
0.000000 0.321936 0.199997
0.082828 0.334514 0.210075
0.217987 0.343362 0.217987
0.349978 0.349978 0.224603
0.481968 0.356593 0.231218
0.613958 0.363209 0.237833
0.745949 0.369824 0.244449
0.877939 0.376439 0.251064
1.000000 0.383055 0.257680
0.000000 0.468494 0.217744
0.098984 0.475109 0.224359
0.230975 0.481725 0.230975
0.362965 0.488340 0.237590
0.494955 0.494955 0.244206
0.626946 0.501571 0.250821
0.758936 0.508186 0.257436
0.890927 0.514802 0.264052
1.000000 0.521417 0.270667
0.000000 0.606856 0.230731
0.111972 0.613472 0.237347
0.243962 0.620087 0.243962
0.375952 0.626702 0.250578
0.507943 0.633318 0.257193
0.639933 0.639933 0.263808
0.771924 0.646549 0.270424
0.903914 0.653164 0.277039
1.000000 0.659779 0.283654
0.000000 0.745219 0.243719
0.124959 0.751834 0.250334
0.256949 0.758449 0.256949
0.388940 0.765065 0.263565
0.520930 0.771680 0.270180
0.652921 0.778296 0.276796
0.784911 0.784911 0.283411
0.918999 0.791593 0.288062
1.000000 0.798290 0.292259
0.005956 0.883581 0.256706
0.137947 0.890197 0.263321
0.269937 0.896812 0.269937
0.401927 0.903427 0.276552
0.533918 0.910043 0.283168
0.667910 0.916721 0.287907
0.802482 0.923418 0.292105
0.937053 0.930115 0.296303
1.000000 0.936812 0.300501
0.018944 1.000000 0.269694
0.150934 1.000000 0.276309
0.282924 1.000000 0.282924
0.416822 1.000000 0.287753
0.551393 1.000000 0.291951
0.685964 1.000000 0.296148
0.820535 1.000000 0.300346
0.955107 1.000000 0.304544
1.000000 1.000000 0.308742
0.000000 0.000000 0.269858
0.000000 0.000000 0.279936
0.140233 0.000000 0.290014
0.280684 0.000000 0.300092
0.421135 0.000000 0.310170
0.561587 0.000000 0.320248
0.702038 0.000000 0.330327
0.841499 0.000000 0.339999
0.973490 0.000000 0.346615
0.000000 0.026598 0.289643
0.029379 0.039175 0.299721
0.169831 0.051753 0.309799
0.310282 0.064330 0.319878
0.450734 0.076907 0.329956
0.590506 0.089006 0.339756
0.722496 0.095621 0.346371
0.854487 0.102237 0.352987
0.986477 0.108852 0.359602
0.000000 0.176665 0.309429
0.058978 0.189242 0.319507
0.199429 0.201820 0.329585
0.339513 0.214138 0.339513
0.471503 0.220753 0.346128
0.603493 0.227368 0.352743
0.735484 0.233984 0.359359
0.867474 0.240599 0.365974
0.999464 0.247215 0.372590
0.000000 0.326732 0.329214
0.088519 0.339269 0.339269
0.220510 0.345885 0.345885
0.352500 0.352500 0.352500
0.484490 0.359115 0.359115
0.616481 0.365731 0.365731
0.748471 0.372346 0.372346
0.880462 0.378962 0.378962
1.000000 0.385577 0.385577
0.000000 0.471016 0.345641
0.101507 0.477632 0.352257
0.233497 0.484247 0.358872
0.365487 0.490862 0.365487
0.497478 0.497478 0.372103
0.629468 0.504093 0.378718
0.761458 0.510708 0.385333
0.893449 0.517324 0.391949
1.000000 0.523939 0.398564
0.000000 0.609379 0.358629
0.114494 0.615994 0.365244
0.246484 0.622609 0.371859
0.378475 0.629225 0.378475
0.510465 0.635840 0.385090
0.642455 0.642455 0.391706
0.774446 0.649071 0.398321
0.906436 0.655686 0.404936
1.000000 0.662320 0.410994
0.000000 0.747741 0.371616
0.127481 0.754356 0.378231
0.259472 0.760972 0.384847
0.391462 0.767587 0.391462
0.523452 0.774202 0.398078
0.655443 0.780818 0.404693
0.787934 0.787449 0.410839
0.922505 0.794146 0.415037
1.000000 0.800843 0.419235
0.008478 0.886103 0.384603
0.140469 0.892719 0.391219
0.272459 0.899334 0.397834
0.404449 0.905949 0.404449
0.536846 0.912578 0.410685
0.671417 0.919275 0.414883
0.805988 0.925972 0.419081
0.940559 0.932669 0.423278
1.000000 0.939366 0.427476
0.021466 1.000000 0.397591
0.153456 1.000000 0.404206
0.285757 1.000000 0.410530
0.420328 1.000000 0.414728
0.554899 1.000000 0.418926
0.689471 1.000000 0.423124
0.824042 1.000000 0.427322
0.958613 1.000000 0.431520
1.000000 1.000000 0.435717
0.000000 0.000000 0.399075
0.005529 0.000000 0.409153
0.145981 0.000000 0.419231
0.286432 0.000000 0.429310
0.426884 0.000000 0.439388
0.567335 0.000000 0.449466
0.707787 0.000000 0.459544
0.844022 0.000000 0.467897
0.976012 0.000000 0.474512
0.000000 0.031393 0.418861
0.035128 0.043971 0.428939
0.175579 0.056548 0.439017
0.316030 0.069125 0.449095
0.456482 0.081703 0.459173
0.593028 0.091528 0.467653
0.725019 0.098144 0.474269
0.857009 0.104759 0.480884
0.988999 0.111374 0.487499
0.000000 0.181460 0.438646
0.064726 0.194038 0.448724
0.205177 0.206615 0.458803
0.342035 0.216660 0.467410
0.474025 0.223275 0.474025
0.606016 0.229891 0.480641
0.738006 0.236506 0.487256
0.869996 0.243121 0.493871
1.000000 0.249737 0.500487
0.000000 0.331527 0.458432
0.091042 0.341792 0.467167
0.223032 0.348407 0.473782
0.355022 0.355022 0.480397
0.487013 0.361638 0.487013
0.619003 0.368253 0.493628
0.750993 0.374868 0.500243
0.882984 0.381484 0.506859
1.000000 0.388099 0.513474
0.000000 0.473538 0.473538
0.104029 0.480154 0.480154
0.236019 0.486769 0.486769
0.368010 0.493385 0.493385
0.500000 0.500000 0.500000
0.631990 0.506615 0.506615
0.763981 0.513231 0.513231
0.895971 0.519846 0.519846
1.000000 0.526462 0.526462
0.000000 0.611901 0.486526
0.117016 0.618516 0.493141
0.249007 0.625132 0.499757
0.380997 0.631747 0.506372
0.512987 0.638362 0.512987
0.644978 0.644978 0.519603
0.776968 0.651593 0.526218
0.908959 0.658208 0.532833
1.000000 0.664874 0.537969
0.000000 0.750263 0.499513
0.130004 0.756879 0.506129
0.261994 0.763494 0.512744
0.393984 0.770109 0.519359
0.525975 0.776725 0.525975
0.657965 0.783340 0.532590
0.791440 0.790002 0.537815
0.926011 0.796699 0.542013
1.000000 0.803396 0.546210
0.011001 0.888626 0.512501
0.142991 0.895241 0.519116
0.274981 0.901856 0.525731
0.406972 0.908472 0.532347
0.540352 0.915131 0.537660
0.674923 0.921828 0.541858
0.809494 0.928525 0.546056
0.944065 0.935222 0.550254
1.000000 0.941919 0.554452
0.023988 1.000000 0.525488
0.155978 1.000000 0.532103
0.289263 1.000000 0.537506
0.423835 1.000000 0.541704
0.558406 1.000000 0.545902
0.692977 1.000000 0.550099
0.827548 1.000000 0.554297
0.962119 1.000000 0.558495
1.000000 1.000000 0.562693
0.000000 0.000000 0.528293
0.011278 0.000000 0.538371
0.151729 0.000000 0.548449
0.292180 0.000000 0.558527
0.432632 0.000000 0.568605
0.573083 0.000000 0.578683
0.713535 0.000000 0.588762
0.846544 0.000000 0.595794
0.978534 0.000000 0.602409
0.000000 0.036189 0.548078
0.040876 0.048766 0.558156
0.181327 0.061343 0.568234
0.321779 0.073921 0.578313
0.462230 0.086498 0.588391
0.595550 0.094050 0.595550
0.727541 0.100666 0.602166
0.859531 0.107281 0.608781
0.991522 0.113897 0.615397
0.000000 0.186256 0.567864
0.070474 0.198833 0.577942
0.210925 0.211410 0.588020
0.344557 0.219182 0.595307
0.476548 0.225798 0.601922
0.608538 0.232413 0.608538
0.740528 0.239028 0.615153
0.872519 0.245644 0.621769
1.000000 0.252259 0.628384
0.000000 0.336323 0.587649
0.093564 0.344314 0.595064
0.225554 0.350929 0.601679
0.357544 0.357544 0.608294
0.489535 0.364160 0.614910
0.621525 0.370775 0.621525
0.753516 0.377391 0.628141
0.885506 0.384006 0.634756
1.000000 0.390621 0.641371
0.000000 0.476061 0.601436
0.106551 0.482676 0.608051
0.238542 0.489291 0.614667
0.370532 0.495907 0.621282
0.502522 0.502522 0.627897
0.634513 0.509138 0.634513
0.766503 0.515753 0.641128
0.898493 0.522368 0.647743
1.000000 0.528984 0.654359
0.000000 0.614423 0.614423
0.119538 0.621038 0.621038
0.251529 0.627654 0.627654
0.383519 0.634269 0.634269
0.515510 0.640885 0.640885
0.647500 0.647500 0.647500
0.779490 0.654115 0.654115
0.911481 0.660731 0.660731
1.000000 0.667427 0.664945
0.000536 0.752785 0.627410
0.132526 0.759401 0.634026
0.264516 0.766016 0.640641
0.396507 0.772632 0.647257
0.528497 0.779247 0.653872
0.660487 0.785862 0.660487
0.794946 0.792556 0.664790
0.929517 0.799253 0.668988
1.000000 0.805950 0.673186
0.013523 0.891148 0.640398
0.145513 0.897763 0.647013
0.277504 0.904379 0.653629
0.409494 0.910994 0.660244
0.543858 0.917684 0.664636
0.678429 0.924381 0.668834
0.813000 0.931078 0.673032
0.947571 0.937775 0.677229
1.000000 0.944472 0.681427
0.026510 1.000000 0.653385
0.158501 1.000000 0.660001
0.292770 1.000000 0.664481
0.427341 1.000000 0.668679
0.561912 1.000000 0.672877
0.696483 1.000000 0.677075
0.831054 1.000000 0.681273
0.965625 1.000000 0.685471
1.000000 1.000000 0.689668
0.000000 0.000000 0.657510
0.017026 0.000000 0.667588
0.157477 0.000000 0.677666
0.297929 0.000000 0.687745
0.438380 0.000000 0.697823
0.578832 0.000000 0.707901
0.717076 0.000000 0.717076
0.849066 0.000000 0.723691
0.981056 0.000000 0.730306
0.000000 0.040984 0.677296
0.046624 0.053561 0.687374
0.187075 0.066139 0.697452
0.327527 0.078716 0.707530
0.466082 0.089957 0.716832
0.598073 0.096573 0.723448
0.730063 0.103188 0.730063
0.862054 0.109803 0.736678
0.994044 0.116419 0.743294
0.000000 0.191051 0.697081
0.076222 0.203628 0.707159
0.215089 0.215089 0.716589
0.347079 0.221704 0.723204
0.479070 0.228320 0.729820
0.611060 0.234935 0.736435
0.743051 0.241551 0.743051
0.875041 0.248166 0.749666
1.000000 0.254781 0.756281
0.000000 0.340221 0.716346
0.096086 0.346836 0.722961
0.228076 0.353451 0.729576
0.360067 0.360067 0.736192
0.492057 0.366682 0.742807
0.624047 0.373298 0.749422
0.756038 0.379913 0.756038
0.888028 0.386528 0.762653
1.000000 0.393144 0.769269
0.000000 0.478583 0.729333
0.109073 0.485198 0.735948
0.241064 0.491814 0.742564
0.373054 0.498429 0.749179
0.505045 0.505045 0.755794
0.637035 0.511660 0.762410
0.769025 0.518275 0.769025
0.901016 0.524891 0.775641
1.000000 0.531506 0.782256
0.000000 0.616945 0.742320
0.122061 0.623561 0.748936
0.254051 0.630176 0.755551
0.386042 0.636792 0.762166
0.518032 0.643407 0.768782
0.650022 0.650022 0.775397
0.782013 0.656638 0.782013
0.914970 0.663284 0.787722
1.000000 0.669981 0.791920
0.003058 0.755308 0.755308
0.135048 0.761923 0.761923
0.267039 0.768539 0.768539
0.399029 0.775154 0.775154
0.531019 0.781769 0.781769
0.663881 0.788412 0.787568
0.798452 0.795109 0.791766
0.933024 0.801806 0.795964
1.000000 0.808503 0.800161
0.016045 0.893670 0.768295
0.148036 0.900285 0.774911
0.280026 0.906901 0.781526
0.412793 0.913541 0.787414
0.547364 0.920238 0.791611
0.681935 0.926935 0.795809
0.816506 0.933632 0.800007
0.951077 0.940329 0.804205
1.000000 0.947026 0.808403
0.029033 1.000000 0.781282
0.161705 1.000000 0.787259
0.296276 1.000000 0.791457
0.430847 1.000000 0.795655
0.565418 1.000000 0.799853
0.699989 1.000000 0.804050
0.834560 1.000000 0.808248
0.969131 1.000000 0.812446
1.000000 1.000000 0.816644
0.000000 0.000000 0.786728
0.022774 0.000000 0.796806
0.163225 0.000000 0.806884
0.303677 0.000000 0.816962
0.444128 0.000000 0.827040
0.584580 0.000000 0.837118
0.719598 0.000000 0.844973
0.851588 0.000000 0.851588
0.983579 0.000000 0.858204
0.000000 0.045779 0.806513
0.052372 0.058357 0.816591
0.192824 0.070934 0.826670
0.333275 0.083511 0.836748
0.468605 0.092480 0.844730
0.600595 0.099095 0.851345
0.732585 0.105710 0.857960
0.864576 0.112326 0.864576
0.996566 0.118941 0.871191
0.000000 0.195846 0.826299
0.081970 0.208424 0.836377
0.217611 0.217611 0.844486
0.349602 0.224227 0.851102
0.481592 0.230842 0.857717
0.613582 0.237457 0.864332
0.745573 0.244073 0.870948
0.877563 0.250688 0.877563
1.000000 0.257304 0.884178
0.000000 0.342743 0.844243
0.098608 0.349358 0.850858
0.230599 0.355974 0.857474
0.362589 0.362589 0.864089
0.494579 0.369204 0.870704
0.626570 0.375820 0.877320
0.758560 0.382435 0.883935
0.890551 0.389050 0.890551
1.000000 0.395666 0.897166
0.000000 0.481105 0.857230
0.111596 0.487721 0.863846
0.243586 0.494336 0.870461
0.375576 0.500951 0.877076
0.507567 0.507567 0.883692
0.639557 0.514182 0.890307
0.771548 0.520798 0.896922
0.903538 0.527413 0.903538
1.000000 0.534028 0.910153
0.000000 0.619468 0.870218
0.124583 0.626083 0.876833
0.256573 0.632698 0.883448
0.388564 0.639314 0.890064
0.520554 0.645929 0.896679
0.652545 0.652545 0.903294
0.784535 0.659160 0.909910
0.918476 0.665837 0.914698
1.000000 0.672534 0.918896
0.005580 0.757830 0.883205
0.137570 0.764445 0.889820
0.269561 0.771061 0.896436
0.401551 0.777676 0.903051
0.533542 0.784292 0.909666
0.667388 0.790966 0.914544
0.801959 0.797663 0.918741
0.936530 0.804359 0.922939
1.000000 0.811056 0.927137
0.018567 0.896192 0.896192
0.150558 0.902808 0.902808
0.282548 0.909423 0.909423
0.416299 0.916094 0.914389
0.550870 0.922791 0.918587
0.685441 0.929488 0.922785
0.820013 0.936185 0.926983
0.954584 0.942882 0.931180
1.000000 0.949579 0.935378
0.031555 1.000000 0.909180
0.165211 1.000000 0.914235
0.299782 1.000000 0.918432
0.434353 1.000000 0.922630
0.568924 1.000000 0.926828
0.703495 1.000000 0.931026
0.838066 1.000000 0.935224
0.972638 1.000000 0.939422
1.000000 1.000000 0.943619
0.000000 0.000000 0.915945
0.028522 0.000000 0.926023
0.168974 0.000000 0.936101
0.309425 0.000000 0.946180
0.449877 0.000000 0.956258
0.590130 0.000000 0.966255
0.722120 0.000000 0.972870
0.854111 0.000000 0.979486
0.986101 0.000000 0.986101
0.000000 0.050575 0.935731
0.058120 0.063152 0.945809
0.198572 0.075729 0.955887
0.339023 0.088307 0.965965
0.471127 0.095002 0.972627
0.603117 0.101617 0.979242
0.735108 0.108233 0.985858
0.867098 0.114848 0.992473
0.999088 0.121463 0.999088
0.000000 0.200642 0.955516
0.087719 0.213219 0.965594
0.220133 0.220133 0.972384
0.352124 0.226749 0.978999
0.484114 0.233364 0.985614
0.616105 0.239980 0.992230
0.748095 0.246595 0.998845
0.880085 0.253210 1.000000
1.000000 0.259826 1.000000
0.000000 0.345265 0.972140
0.101131 0.351881 0.978756
0.233121 0.358496 0.985371
0.365111 0.365111 0.991986
0.497102 0.371727 0.998602
0.629092 0.378342 1.000000
0.761082 0.384957 1.000000
0.893073 0.391573 1.000000
1.000000 0.398188 1.000000
0.000000 0.483627 0.985127
0.114118 0.490243 0.991743
0.246108 0.496858 0.998358
0.378099 0.503474 1.000000
0.510089 0.510089 1.000000
0.642079 0.516704 1.000000
0.774070 0.523320 1.000000
0.906060 0.529935 1.000000
1.000000 0.536565 1.000000
0.000000 0.621990 0.998115
0.127105 0.628605 1.000000
0.259096 0.635221 1.000000
0.391086 0.641836 1.000000
0.523076 0.648451 1.000000
0.655067 0.655067 1.000000
0.787411 0.661693 1.000000
0.921982 0.668390 1.000000
1.000000 0.675087 1.000000
0.008102 0.760352 1.000000
0.140093 0.766968 1.000000
0.272083 0.773583 1.000000
0.404073 0.780198 1.000000
0.536323 0.786822 1.000000
0.670894 0.793519 1.000000
0.805465 0.800216 1.000000
0.940036 0.806913 1.000000
1.000000 0.813610 1.000000
0.021090 0.898715 1.000000
0.153080 0.905330 1.000000
0.285234 0.911951 1.000000
0.419805 0.918648 1.000000
0.554377 0.925344 1.000000
0.688948 0.932041 1.000000
0.823519 0.938738 1.000000
0.958090 0.945435 1.000000
1.000000 0.952132 1.000000
0.034146 1.000000 1.000000
0.168717 1.000000 1.000000
0.303288 1.000000 1.000000
0.437859 1.000000 1.000000
0.572430 1.000000 1.000000
0.707002 1.000000 1.000000
0.841573 1.000000 1.000000
0.976144 1.000000 1.000000
1.000000 1.000000 1.000000
