assets/luts/villeneuve-amber.cube
TITLE "villeneuve-amber"
LUT_3D_SIZE 9
0.000000 0.000000 0.000000
0.076335 0.000000 0.000000
0.204036 0.000000 0.000000
0.331738 0.000000 0.000000
0.459439 0.000000 0.000000
0.587140 0.000000 0.000000
0.714842 0.000000 0.000000
0.842543 0.008880 0.000000
0.970245 0.018820 0.000000
0.000000 0.075418 0.000000
0.098129 0.085358 0.000000
0.225831 0.095297 0.000000
0.353532 0.105236 0.000000
0.481233 0.115175 0.000000
0.608935 0.125115 0.000000
0.736636 0.135054 0.000000
0.858394 0.140138 0.000000
0.979748 0.144892 0.000308
0.000000 0.211531 0.000000
0.119924 0.221471 0.000000
0.247625 0.231410 0.000000
0.375326 0.241349 0.000000
0.503028 0.251288 0.000000
0.625019 0.256563 0.000000
0.746373 0.261317 0.000133
0.867727 0.266071 0.004887
0.989081 0.270825 0.009641
0.014017 0.347644 0.000000
0.141718 0.357583 0.000000
0.269419 0.367523 0.000000
0.391644 0.372988 0.000000
0.512998 0.377742 0.000000
0.634352 0.382496 0.004712
0.755706 0.387250 0.009466
0.877060 0.392004 0.014220
0.998414 0.396758 0.018974
0.035811 0.483757 0.000000
0.158269 0.489413 0.000000
0.279623 0.494167 0.000000
0.400977 0.498921 0.004537
0.522331 0.503675 0.009291
0.643685 0.508429 0.014045
0.765039 0.513183 0.018799
0.886394 0.517938 0.023554
1.000000 0.522692 0.028308
0.046248 0.610592 0.000000
0.167602 0.615346 0.004362
0.288956 0.620100 0.009116
0.410310 0.624854 0.013870
0.531665 0.629609 0.018625
0.653019 0.634363 0.023379
0.774373 0.639117 0.028133
0.895727 0.643871 0.032887
1.000000 0.648625 0.037641
0.055581 0.736525 0.008941
0.176936 0.741280 0.013696
0.298290 0.746034 0.018450
0.419644 0.750788 0.023204
0.540998 0.755542 0.027958
0.662352 0.760296 0.032712
0.783706 0.765050 0.037466
0.905435 0.770004 0.042012
1.000000 0.778735 0.042608
0.064915 0.862459 0.018275
0.186269 0.867213 0.023029
0.307623 0.871967 0.027783
0.428977 0.876721 0.032537
0.550331 0.881475 0.037291
0.671785 0.886282 0.041990
0.800603 0.895014 0.042586
0.929421 0.903746 0.043183
1.000000 0.912477 0.043780
0.074248 0.988392 0.027608
0.195602 0.993146 0.032362
0.316956 0.997900 0.037116
0.438310 1.000000 0.041870
0.566953 1.000000 0.042564
0.695771 1.000000 0.043161
0.824589 1.000000 0.043758
0.953407 1.000000 0.044355
1.000000 1.000000 0.044951
0.000000 0.000000 0.102790
0.080567 0.000000 0.103433
0.208269 0.000000 0.104075
0.335970 0.000000 0.104717
0.463672 0.000000 0.105360
0.591373 0.000000 0.106002
0.719074 0.002731 0.106645
0.846776 0.012670 0.107287
0.972227 0.020771 0.109387
0.000000 0.079208 0.104051
0.102362 0.089147 0.104694
0.230063 0.099086 0.105336
0.357765 0.109026 0.105979
0.485466 0.118965 0.106621
0.613167 0.128904 0.107263
0.738852 0.137196 0.109212
0.860206 0.141950 0.113966
0.981560 0.146704 0.118720
0.000000 0.215321 0.105313
0.124156 0.225260 0.105955
0.251858 0.235199 0.106597
0.379559 0.245139 0.107240
0.505477 0.253621 0.109037
0.626831 0.258375 0.113791
0.748185 0.263129 0.118545
0.869540 0.267884 0.123300
0.990894 0.272638 0.128054
0.018249 0.351434 0.106574
0.145951 0.361373 0.107216
0.272102 0.370046 0.108862
0.393456 0.374800 0.113616
0.514811 0.379555 0.118371
0.636165 0.384309 0.123125
0.757519 0.389063 0.127879
0.878873 0.393817 0.132633
1.000000 0.398571 0.137387
0.038727 0.486471 0.108687
0.160082 0.491226 0.113442
0.281436 0.495980 0.118196
0.402790 0.500734 0.122950
0.524144 0.505488 0.127704
0.645498 0.510242 0.132458
0.766852 0.514996 0.137212
0.888206 0.519750 0.141966
1.000000 0.524504 0.146720
0.048061 0.612405 0.118021
0.169415 0.617159 0.122775
0.290769 0.621913 0.127529
0.412123 0.626667 0.132283
0.533477 0.631421 0.137037
0.654831 0.636175 0.141791
0.776185 0.640929 0.146545
0.897539 0.645683 0.151299
1.000000 0.650438 0.156054
0.057394 0.738338 0.127354
0.178748 0.743092 0.132108
0.300102 0.747846 0.136862
0.421456 0.752600 0.141616
0.542810 0.757354 0.146370
0.664165 0.762109 0.151125
0.785519 0.766863 0.155879
0.910093 0.773333 0.158839
1.000000 0.782064 0.159436
0.066727 0.864271 0.136687
0.188081 0.869025 0.141441
0.309436 0.873780 0.146196
0.430790 0.878534 0.150950
0.552144 0.883288 0.155704
0.676443 0.889612 0.158817
0.805261 0.898343 0.159414
0.934079 0.907075 0.160011
1.000000 0.915806 0.160607
0.076061 0.990205 0.146021
0.197415 0.994959 0.150775
0.318769 0.999713 0.155529
0.442794 1.000000 0.158795
0.571612 1.000000 0.159392
0.700430 1.000000 0.159989
0.829248 1.000000 0.160585
0.958065 1.000000 0.161182
1.000000 1.000000 0.161779
0.000000 0.000000 0.219635
0.084800 0.000000 0.220278
0.212501 0.000000 0.220920
0.340203 0.000000 0.221562
0.467904 0.000000 0.222205
0.595606 0.000000 0.222847
0.723307 0.006520 0.223490
0.851008 0.016460 0.224132
0.974040 0.022584 0.227800
0.000000 0.082997 0.220896
0.106594 0.092937 0.221539
0.234296 0.102876 0.222181
0.361997 0.112815 0.222824
0.489699 0.122755 0.223466
0.617400 0.132694 0.224108
0.740665 0.139009 0.227625
0.862019 0.143763 0.232379
0.983373 0.148517 0.237133
0.000687 0.219110 0.222157
0.128389 0.229050 0.222800
0.256090 0.238989 0.223442
0.383792 0.248928 0.224085
0.507290 0.255434 0.227450
0.628644 0.260188 0.232204
0.749998 0.264942 0.236958
0.871352 0.269696 0.241712
0.992706 0.274450 0.246466
0.022482 0.355223 0.223419
0.150183 0.365163 0.224061
0.273915 0.371859 0.227275
0.395269 0.376613 0.232029
0.516623 0.381367 0.236783
0.637977 0.386121 0.241537
0.759331 0.390875 0.246291
0.880685 0.395629 0.251045
1.000000 0.400384 0.255800
0.040540 0.488284 0.227100
0.161894 0.493038 0.231854
0.283248 0.497792 0.236608
0.404602 0.502546 0.241362
0.525956 0.507300 0.246116
0.647311 0.512055 0.250871
0.768665 0.516809 0.255625
0.890019 0.521563 0.260379
1.000000 0.526317 0.265133
0.049873 0.614217 0.236433
0.171227 0.618971 0.241187
0.292582 0.623726 0.245942
0.413936 0.628480 0.250696
0.535290 0.633234 0.255450
0.656644 0.637988 0.260204
0.777998 0.642742 0.264958
0.899352 0.647496 0.269712
1.000000 0.652250 0.274466
0.059207 0.740151 0.245767
0.180561 0.744905 0.250521
0.301915 0.749659 0.255275
0.423269 0.754413 0.260029
0.544623 0.759167 0.264783
0.665977 0.763921 0.269537
0.787331 0.768675 0.274291
0.914751 0.776662 0.275667
1.000000 0.785393 0.276263
0.068540 0.866084 0.255100
0.189894 0.870838 0.259854
0.311248 0.875592 0.264608
0.432602 0.880346 0.269362
0.553956 0.885100 0.274116
0.681102 0.892941 0.275645
0.809920 0.901672 0.276241
0.938737 0.910404 0.276838
1.000000 0.919135 0.277435
0.077873 0.992017 0.264433
0.199227 0.996771 0.269187
0.320581 1.000000 0.273941
0.447452 1.000000 0.275623
0.576270 1.000000 0.276219
0.705088 1.000000 0.276816
0.833906 1.000000 0.277413
0.962724 1.000000 0.278010
1.000000 1.000000 0.278606
0.000000 0.000000 0.336480
0.089033 0.000000 0.337123
0.216734 0.000000 0.337765
0.344436 0.000000 0.338407
0.472137 0.000000 0.339050
0.599838 0.000371 0.339692
0.727540 0.010310 0.340334
0.854498 0.019642 0.341458
0.975852 0.024396 0.346212
0.000000 0.086787 0.337741
0.110827 0.096726 0.338384
0.238529 0.106666 0.339026
0.366230 0.116605 0.339668
0.493931 0.126544 0.340311
0.621123 0.136067 0.341283
0.742477 0.140821 0.346037
0.863831 0.145575 0.350791
0.985186 0.150330 0.355546
0.004920 0.222900 0.339002
0.132621 0.232839 0.339645
0.260323 0.242778 0.340287
0.387748 0.252492 0.341108
0.509102 0.257246 0.345862
0.630457 0.262001 0.350617
0.751811 0.266755 0.355371
0.873165 0.271509 0.360125
0.994519 0.276263 0.364879
0.026714 0.359013 0.340264
0.154373 0.368917 0.340933
0.275728 0.373672 0.345688
0.397082 0.378426 0.350442
0.518436 0.383180 0.355196
0.639790 0.387934 0.359950
0.761144 0.392688 0.364704
0.882498 0.397442 0.369458
1.000000 0.402196 0.374212
0.042353 0.490097 0.345513
0.163707 0.494851 0.350267
0.285061 0.499605 0.355021
0.406415 0.504359 0.359775
0.527769 0.509113 0.364529
0.649123 0.513867 0.369283
0.770477 0.518621 0.374037
0.891831 0.523375 0.378791
1.000000 0.528129 0.383545
0.051686 0.616030 0.354846
0.173040 0.620784 0.359600
0.294394 0.625538 0.364354
0.415748 0.630292 0.369108
0.537102 0.635046 0.373862
0.658456 0.639800 0.378616
0.779811 0.644555 0.383371
0.901165 0.649309 0.388125
1.000000 0.654981 0.391919
0.061019 0.741963 0.364179
0.182373 0.746717 0.368933
0.303727 0.751471 0.373687
0.425082 0.756226 0.378442
0.546436 0.760980 0.383196
0.667790 0.765734 0.387950
0.790592 0.771259 0.391897
0.919410 0.779991 0.392494
1.000000 0.788722 0.393091
0.070353 0.867897 0.373513
0.191707 0.872651 0.378267
0.313061 0.877405 0.383021
0.434415 0.882159 0.387775
0.556942 0.887538 0.391875
0.685760 0.896270 0.392472
0.814578 0.905001 0.393069
0.943396 0.913733 0.393666
1.000000 0.922464 0.394262
0.079686 0.993830 0.382846
0.201040 0.998584 0.387600
0.323293 1.000000 0.391853
0.452111 1.000000 0.392450
0.580928 1.000000 0.393047
0.709746 1.000000 0.393644
0.838564 1.000000 0.394240
0.967382 1.000000 0.394837
1.000000 1.000000 0.395434
0.000000 0.000000 0.453325
0.093265 0.000000 0.453967
0.220967 0.000000 0.454610
0.348668 0.000000 0.455252
0.476370 0.000000 0.455895
0.604071 0.004160 0.456537
0.731772 0.014099 0.457179
0.856311 0.021455 0.459871
0.977665 0.026209 0.464625
0.000000 0.090577 0.454586
0.115060 0.100516 0.455229
0.242761 0.110455 0.455871
0.370463 0.120394 0.456513
0.498164 0.130334 0.457156
0.622936 0.137880 0.459696
0.744290 0.142634 0.464450
0.865644 0.147388 0.469204
0.986998 0.152142 0.473958
0.009153 0.226689 0.455847
0.136854 0.236629 0.456490
0.264556 0.246568 0.457132
0.389561 0.254305 0.459521
0.510915 0.259059 0.464275
0.632269 0.263813 0.469029
0.753623 0.268567 0.473783
0.874977 0.273321 0.478537
0.996331 0.278075 0.483291
0.030947 0.362802 0.457108
0.156186 0.370730 0.459346
0.277540 0.375484 0.464100
0.398894 0.380238 0.468854
0.520248 0.384992 0.473608
0.641602 0.389746 0.478362
0.762957 0.394501 0.483117
0.884311 0.399255 0.487871
1.000000 0.404009 0.492625
0.044165 0.491909 0.463925
0.165519 0.496663 0.468679
0.286873 0.501417 0.473433
0.408228 0.506172 0.478188
0.529582 0.510926 0.482942
0.650936 0.515680 0.487696
0.772290 0.520434 0.492450
0.893644 0.525188 0.497204
1.000000 0.529942 0.501958
0.053499 0.617843 0.473259
0.174853 0.622597 0.478013
0.296207 0.627351 0.482767
0.417561 0.632105 0.487521
0.538915 0.636859 0.492275
0.660269 0.641613 0.497029
0.781623 0.646367 0.501783
0.902977 0.651121 0.506537
1.000000 0.658310 0.508747
0.062832 0.743776 0.482592
0.184186 0.748530 0.487346
0.305540 0.753284 0.492100
0.426894 0.758038 0.496854
0.548248 0.762792 0.501608
0.669602 0.767546 0.506362
0.795250 0.774588 0.508725
0.924068 0.783320 0.509322
1.000000 0.792052 0.509918
0.072165 0.869709 0.491925
0.193519 0.874463 0.496679
0.314873 0.879217 0.501433
0.436227 0.883971 0.506187
0.561600 0.890867 0.508703
0.690418 0.899599 0.509300
0.819236 0.908330 0.509896
0.948054 0.917062 0.510493
1.000000 0.925793 0.511090
0.081498 0.995642 0.501258
0.202853 1.000000 0.506013
0.327951 1.000000 0.508681
0.456769 1.000000 0.509278
0.585587 1.000000 0.509874
0.714405 1.000000 0.510471
0.843223 1.000000 0.511068
0.972040 1.000000 0.511665
1.000000 1.000000 0.512261
0.000000 0.000000 0.570170
0.097498 0.000000 0.570812
0.225199 0.000000 0.571455
0.352901 0.000000 0.572097
0.480602 0.000000 0.572740
0.608304 0.007950 0.573382
0.736005 0.017889 0.574024
0.858123 0.023267 0.578283
0.979477 0.028021 0.583037
0.000000 0.094366 0.571431
0.119292 0.104305 0.572074
0.246994 0.114245 0.572716
0.374695 0.124184 0.573358
0.502397 0.134123 0.574001
0.624748 0.139692 0.578108
0.746103 0.144447 0.582863
0.867457 0.149201 0.587617
0.988811 0.153955 0.592371
0.013385 0.230479 0.572692
0.141087 0.240418 0.573335
0.268788 0.250358 0.573977
0.391374 0.256118 0.577934
0.512728 0.260872 0.582688
0.634082 0.265626 0.587442
0.755436 0.270380 0.592196
0.876790 0.275134 0.596950
0.998144 0.279888 0.601704
0.035180 0.366592 0.573953
0.157999 0.372543 0.577759
0.279353 0.377297 0.582513
0.400707 0.382051 0.587267
0.522061 0.386805 0.592021
0.643415 0.391559 0.596775
0.764769 0.396313 0.601529
0.886123 0.401067 0.606283
1.000000 0.405821 0.611037
0.045978 0.493722 0.582338
0.167332 0.498476 0.587092
0.288686 0.503230 0.591846
0.410040 0.507984 0.596600
0.531394 0.512738 0.601354
0.652748 0.517492 0.606108
0.774102 0.522246 0.610862
0.895457 0.527001 0.615617
1.000000 0.531755 0.620371
0.055311 0.619655 0.591671
0.176665 0.624409 0.596425
0.298019 0.629163 0.601179
0.419373 0.633917 0.605933
0.540728 0.638672 0.610688
0.662082 0.643426 0.615442
0.783436 0.648180 0.620196
0.904790 0.652934 0.624950
1.000000 0.661639 0.625574
0.064644 0.745588 0.601004
0.185999 0.750343 0.605759
0.307353 0.755097 0.610513
0.428707 0.759851 0.615267
0.550061 0.764605 0.620021
0.671415 0.769359 0.624775
0.799908 0.777918 0.625552
0.928726 0.786649 0.626149
1.000000 0.795381 0.626746
0.073978 0.871522 0.610338
0.195332 0.876276 0.615092
0.316686 0.881030 0.619846
0.438040 0.885784 0.624600
0.566259 0.894196 0.625530
0.695077 0.902928 0.626127
0.823895 0.911659 0.626724
0.952712 0.920391 0.627321
1.000000 0.929122 0.627917
0.083311 0.997455 0.619671
0.204665 1.000000 0.624425
0.332609 1.000000 0.625509
0.461427 1.000000 0.626105
0.590245 1.000000 0.626702
0.719063 1.000000 0.627299
0.847881 1.000000 0.627896
0.976699 1.000000 0.628492
1.000000 1.000000 0.629089
0.000000 0.000000 0.687015
0.101731 0.000000 0.687657
0.229432 0.000000 0.688300
0.357133 0.000000 0.688942
0.484835 0.001800 0.689584
0.612536 0.011739 0.690227
0.738582 0.020326 0.691942
0.859936 0.025080 0.696696
0.981290 0.029834 0.701450
0.000000 0.098156 0.688276
0.123525 0.108095 0.688918
0.251226 0.118034 0.689561
0.378928 0.127974 0.690203
0.505207 0.136751 0.691767
0.626561 0.141505 0.696521
0.747915 0.146259 0.701275
0.869269 0.151013 0.706029
0.990623 0.155767 0.710783
0.017618 0.234269 0.689537
0.145319 0.244208 0.690180
0.271832 0.253176 0.691592
0.393186 0.257930 0.696346
0.514540 0.262684 0.701100
0.635894 0.267438 0.705854
0.757248 0.272192 0.710608
0.878603 0.276947 0.715363
0.999957 0.281701 0.720117
0.038457 0.369601 0.691417
0.159811 0.374355 0.696171
0.281165 0.379109 0.700925
0.402519 0.383863 0.705679
0.523874 0.388618 0.710434
0.645228 0.393372 0.715188
0.766582 0.398126 0.719942
0.887936 0.402880 0.724696
1.000000 0.407634 0.729450
0.047790 0.495534 0.700750
0.169145 0.500289 0.705505
0.290499 0.505043 0.710259
0.411853 0.509797 0.715013
0.533207 0.514551 0.719767
0.654561 0.519305 0.724521
0.775915 0.524059 0.729275
0.897269 0.528813 0.734029
1.000000 0.533567 0.738783
0.057124 0.621468 0.710084
0.178478 0.626222 0.714838
0.299832 0.630976 0.719592
0.421186 0.635730 0.724346
0.542540 0.640484 0.729100
0.663894 0.645238 0.733854
0.785248 0.649992 0.738608
0.909398 0.656236 0.741805
1.000000 0.664968 0.742402
0.066457 0.747401 0.719417
0.187811 0.752155 0.724171
0.309165 0.756909 0.728925
0.430519 0.761663 0.733679
0.551873 0.766417 0.738433
0.675749 0.772515 0.741783
0.804567 0.781247 0.742380
0.933384 0.789978 0.742977
1.000000 0.798710 0.743573
0.075790 0.873334 0.728750
0.197144 0.878088 0.733504
0.318499 0.882843 0.738259
0.442099 0.888794 0.741761
0.570917 0.897525 0.742358
0.699735 0.906257 0.742955
0.828553 0.914988 0.743551
0.957371 0.923720 0.744148
1.000000 0.932452 0.744745
0.085124 0.999268 0.738084
0.208450 1.000000 0.741739
0.337268 1.000000 0.742336
0.466086 1.000000 0.742933
0.594903 1.000000 0.743530
0.723721 1.000000 0.744126
0.852539 1.000000 0.744723
0.981357 1.000000 0.745320
1.000000 1.000000 0.745917
0.000000 0.000000 0.803860
0.105963 0.000000 0.804502
0.233665 0.000000 0.805145
0.361366 0.000000 0.805787
0.489067 0.005589 0.806429
0.616769 0.015529 0.807072
0.740394 0.022138 0.810354
0.861749 0.026893 0.815109
0.983103 0.031647 0.819863
0.000056 0.101945 0.805121
0.127758 0.111885 0.805763
0.255459 0.121824 0.806406
0.383160 0.131763 0.807048
0.507020 0.138564 0.810180
0.628374 0.143318 0.814934
0.749728 0.148072 0.819688
0.871082 0.152826 0.824442
0.992436 0.157580 0.829196
0.021851 0.238058 0.806382
0.149552 0.247997 0.807024
0.273645 0.254989 0.810005
0.394999 0.259743 0.814759
0.516353 0.264497 0.819513
0.637707 0.269251 0.824267
0.759061 0.274005 0.829021
0.880415 0.278759 0.833775
1.000000 0.283513 0.838529
0.040270 0.371414 0.809830
0.161624 0.376168 0.814584
0.282978 0.380922 0.819338
0.404332 0.385676 0.824092
0.525686 0.390430 0.828846
0.647040 0.395184 0.833600
0.768394 0.399938 0.838354
0.889748 0.404692 0.843108
1.000000 0.409447 0.847863
0.049603 0.497347 0.819163
0.170957 0.502101 0.823917
0.292311 0.506855 0.828671
0.413665 0.511609 0.833425
0.535019 0.516363 0.838179
0.656374 0.521118 0.842934
0.777728 0.525872 0.847688
0.899082 0.530626 0.852442
1.000000 0.535380 0.857196
0.058936 0.623280 0.828496
0.180290 0.628034 0.833250
0.301645 0.632789 0.838005
0.422999 0.637543 0.842759
0.544353 0.642297 0.847513
0.665707 0.647051 0.852267
0.787061 0.651805 0.857021
0.914057 0.659565 0.858633
1.000000 0.668297 0.859229
0.068270 0.749214 0.837830
0.189624 0.753968 0.842584
0.310978 0.758722 0.847338
0.432332 0.763476 0.852092
0.553686 0.768230 0.856846
0.680407 0.775844 0.858611
0.809225 0.784576 0.859207
0.938043 0.793307 0.859804
1.000000 0.802039 0.860401
0.077603 0.875147 0.847163
0.198957 0.879901 0.851917
0.320311 0.884655 0.856671
0.446758 0.892123 0.858589
0.575575 0.900854 0.859186
0.704393 0.909586 0.859782
0.833211 0.918318 0.860379
0.962029 0.927049 0.860976
1.000000 0.935781 0.861573
0.086936 1.000000 0.856496
0.213108 1.000000 0.858567
0.341926 1.000000 0.859164
0.470744 1.000000 0.859760
0.599562 1.000000 0.860357
0.728380 1.000000 0.860954
0.857197 1.000000 0.861551
0.986015 1.000000 0.862147
1.000000 1.000000 0.862744
0.000000 0.000000 0.920705
0.110196 0.000000 0.921347
0.237897 0.000000 0.921990
0.365599 0.000000 0.922632
0.493300 0.009379 0.923274
0.620853 0.019197 0.924013
0.742207 0.023951 0.928767
0.863561 0.028705 0.933521
0.984915 0.033459 0.938275
0.004289 0.105735 0.921966
0.131990 0.115674 0.922608
0.259692 0.125613 0.923251
0.387393 0.135553 0.923893
0.508832 0.140376 0.928592
0.630186 0.145130 0.933346
0.751540 0.149884 0.938100
0.872894 0.154638 0.942854
0.994249 0.159393 0.947609
0.026083 0.241848 0.923227
0.153785 0.251787 0.923869
0.275457 0.256801 0.928417
0.396811 0.261555 0.933171
0.518165 0.266309 0.937925
0.639520 0.271064 0.942680
0.760874 0.275818 0.947434
0.882228 0.280572 0.952188
1.000000 0.285326 0.956942
0.042082 0.373226 0.928242
0.163436 0.377980 0.932996
0.284791 0.382735 0.937751
0.406145 0.387489 0.942505
0.527499 0.392243 0.947259
0.648853 0.396997 0.952013
0.770207 0.401751 0.956767
0.891561 0.406505 0.961521
1.000000 0.411259 0.966275
0.051416 0.499160 0.937576
0.172770 0.503914 0.942330
0.294124 0.508668 0.947084
0.415478 0.513422 0.951838
0.536832 0.518176 0.956592
0.658186 0.522930 0.961346
0.779540 0.527684 0.966100
0.900894 0.532438 0.970854
1.000000 0.537884 0.974885
0.060749 0.625093 0.946909
0.182103 0.629847 0.951663
0.303457 0.634601 0.956417
0.424811 0.639355 0.961171
0.546165 0.644109 0.965925
0.667519 0.648863 0.970679
0.789897 0.654163 0.974863
0.918715 0.662894 0.975460
1.000000 0.671626 0.976057
0.070082 0.751026 0.956242
0.191436 0.755780 0.960996
0.312790 0.760534 0.965750
0.434145 0.765289 0.970505
0.556248 0.770442 0.974842
0.685065 0.779173 0.975438
0.813883 0.787905 0.976035
0.942701 0.796636 0.976632
1.000000 0.805368 0.977228
0.079416 0.876960 0.965576
0.200770 0.881714 0.970330
0.322598 0.886720 0.974820
0.451416 0.895452 0.975416
0.580234 0.904184 0.976013
0.709052 0.912915 0.976610
0.837870 0.921647 0.977207
0.966687 0.930378 0.977803
1.000000 0.939110 0.978400
0.088949 1.000000 0.974798
0.217766 1.000000 0.975394
0.346584 1.000000 0.975991
0.475402 1.000000 0.976588
0.604220 1.000000 0.977185
0.733038 1.000000 0.977781
0.861856 1.000000 0.978378
0.990674 1.000000 0.978975
1.000000 1.000000 0.979572
