assets/luts/villeneuve-amber.cube
TITLE "villeneuve-amber"
LUT_3D_SIZE 5
0.000000 0.000000 0.000000
0.204036 0.000000 0.000000
0.459439 0.000000 0.000000
0.714842 0.000000 0.000000
0.970245 0.018820 0.000000
0.000000 0.211531 0.000000
0.247625 0.231410 0.000000
0.503028 0.251288 0.000000
0.746373 0.261317 0.000133
0.989081 0.270825 0.009641
0.035811 0.483757 0.000000
0.279623 0.494167 0.000000
0.522331 0.503675 0.009291
0.765039 0.513183 0.018799
1.000000 0.522692 0.028308
0.055581 0.736525 0.008941
0.298290 0.746034 0.018450
0.540998 0.755542 0.027958
0.783706 0.765050 0.037466
1.000000 0.778735 0.042608
0.074248 0.988392 0.027608
0.316956 0.997900 0.037116
0.566953 1.000000 0.042564
0.824589 1.000000 0.043758
1.000000 1.000000 0.044951
0.000000 0.000000 0.219635
0.212501 0.000000 0.220920
0.467904 0.000000 0.222205
0.723307 0.006520 0.223490
0.974040 0.022584 0.227800
0.000687 0.219110 0.222157
0.256090 0.238989 0.223442
0.507290 0.255434 0.227450
0.749998 0.264942 0.236958
0.992706 0.274450 0.246466
0.040540 0.488284 0.227100
0.283248 0.497792 0.236608
0.525956 0.507300 0.246116
0.768665 0.516809 0.255625
1.000000 0.526317 0.265133
0.059207 0.740151 0.245767
0.301915 0.749659 0.255275
0.544623 0.759167 0.264783
0.787331 0.768675 0.274291
1.000000 0.785393 0.276263
0.077873 0.992017 0.264433
0.320581 1.000000 0.273941
0.576270 1.000000 0.276219
0.833906 1.000000 0.277413
1.000000 1.000000 0.278606
0.000000 0.000000 0.453325
0.220967 0.000000 0.454610
0.476370 0.000000 0.455895
0.731772 0.014099 0.457179
0.977665 0.026209 0.464625
0.009153 0.226689 0.455847
0.264556 0.246568 0.457132
0.510915 0.259059 0.464275
0.753623 0.268567 0.473783
0.996331 0.278075 0.483291
0.044165 0.491909 0.463925
0.286873 0.501417 0.473433
0.529582 0.510926 0.482942
0.772290 0.520434 0.492450
1.000000 0.529942 0.501958
0.062832 0.743776 0.482592
0.305540 0.753284 0.492100
0.548248 0.762792 0.501608
0.795250 0.774588 0.508725
1.000000 0.792052 0.509918
0.081498 0.995642 0.501258
0.327951 1.000000 0.508681
0.585587 1.000000 0.509874
0.843223 1.000000 0.511068
1.000000 1.000000 0.512261
0.000000 0.000000 0.687015
0.229432 0.000000 0.688300
0.484835 0.001800 0.689584
0.738582 0.020326 0.691942
0.981290 0.029834 0.701450
0.017618 0.234269 0.689537
0.271832 0.253176 0.691592
0.514540 0.262684 0.701100
0.757248 0.272192 0.710608
0.999957 0.281701 0.720117
0.047790 0.495534 0.700750
0.290499 0.505043 0.710259
0.533207 0.514551 0.719767
0.775915 0.524059 0.729275
1.000000 0.533567 0.738783
0.066457 0.747401 0.719417
0.309165 0.756909 0.728925
0.551873 0.766417 0.738433
0.804567 0.781247 0.742380
1.000000 0.798710 0.743573
0.085124 0.999268 0.738084
0.337268 1.000000 0.742336
0.594903 1.000000 0.743530
0.852539 1.000000 0.744723
1.000000 1.000000 0.745917
0.000000 0.000000 0.920705
0.237897 0.000000 0.921990
0.493300 0.009379 0.923274
0.742207 0.023951 0.928767
0.984915 0.033459 0.938275
0.026083 0.241848 0.923227
0.275457 0.256801 0.928417
0.518165 0.266309 0.937925
0.760874 0.275818 0.947434
1.000000 0.285326 0.956942
0.051416 0.499160 0.937576
0.294124 0.508668 0.947084
0.536832 0.518176 0.956592
0.779540 0.527684 0.966100
1.000000 0.537884 0.974885
0.070082 0.751026 0.956242
0.312790 0.760534 0.965750
0.556248 0.770442 0.974842
0.813883 0.787905 0.976035
1.000000 0.805368 0.977228
0.088949 1.000000 0.974798
0.346584 1.000000 0.975991
0.604220 1.000000 0.977185
0.861856 1.000000 0.978378
1.000000 1.000000 0.979572
