assets/luts/villeneuve-amber.cube
TITLE "villeneuve-amber"
LUT_3D_SIZE 17
0.000000 0.000000 0.000000
0.012484 0.000000 0.000000
0.076335 0.000000 0.000000
0.140185 0.000000 0.000000
0.204036 0.000000 0.000000
0.267887 0.000000 0.000000
0.331738 0.000000 0.000000
0.395588 0.000000 0.000000
0.459439 0.000000 0.000000
0.523290 0.000000 0.000000
0.587140 0.000000 0.000000
0.650991 0.000000 0.000000
0.714842 0.000000 0.000000
0.778692 0.003911 0.000000
0.842543 0.008880 0.000000
0.906394 0.013850 0.000000
0.970245 0.018820 0.000000
0.000000 0.007362 0.000000
0.023381 0.012331 0.000000
0.087232 0.017301 0.000000
0.151083 0.022271 0.000000
0.214933 0.027240 0.000000
0.278784 0.032210 0.000000
0.342635 0.037180 0.000000
0.406485 0.042149 0.000000
0.470336 0.047119 0.000000
0.534187 0.052089 0.000000
0.598038 0.057058 0.000000
0.661888 0.062028 0.000000
0.725739 0.066998 0.000000
0.789590 0.071967 0.000000
0.853440 0.076937 0.000000
0.914404 0.079548 0.000000
0.975081 0.081925 0.000000
0.000000 0.075418 0.000000
0.034278 0.080388 0.000000
0.098129 0.085358 0.000000
0.161980 0.090327 0.000000
0.225831 0.095297 0.000000
0.289681 0.100267 0.000000
0.353532 0.105236 0.000000
0.417383 0.110206 0.000000
0.481233 0.115175 0.000000
0.545084 0.120145 0.000000
0.608935 0.125115 0.000000
0.672785 0.130084 0.000000
0.736636 0.135054 0.000000
0.797717 0.137761 0.000000
0.858394 0.140138 0.000000
0.919071 0.142515 0.000000
0.979748 0.144892 0.000308
0.000000 0.143475 0.000000
0.045176 0.148444 0.000000
0.109026 0.153414 0.000000
0.172877 0.158384 0.000000
0.236728 0.163353 0.000000
0.300578 0.168323 0.000000
0.364429 0.173293 0.000000
0.428280 0.178262 0.000000
0.492131 0.183232 0.000000
0.555981 0.188202 0.000000
0.619832 0.193171 0.000000
0.681029 0.195973 0.000000
0.741706 0.198350 0.000000
0.802383 0.200727 0.000000
0.863060 0.203104 0.000220
0.923737 0.205481 0.002597
0.984414 0.207858 0.004974
0.000000 0.211531 0.000000
0.056073 0.216501 0.000000
0.119924 0.221471 0.000000
0.183774 0.226440 0.000000
0.247625 0.231410 0.000000
0.311476 0.236379 0.000000
0.375326 0.241349 0.000000
0.439177 0.246319 0.000000
0.503028 0.251288 0.000000
0.564342 0.254186 0.000000
0.625019 0.256563 0.000000
0.685696 0.258940 0.000000
0.746373 0.261317 0.000133
0.807050 0.263694 0.002510
0.867727 0.266071 0.004887
0.928404 0.268448 0.007264
0.989081 0.270825 0.009641
0.003119 0.279588 0.000000
0.066970 0.284557 0.000000
0.130821 0.289527 0.000000
0.194671 0.294497 0.000000
0.258522 0.299466 0.000000
0.322373 0.304436 0.000000
0.386224 0.309406 0.000000
0.447654 0.312398 0.000000
0.508331 0.314775 0.000000
0.569008 0.317152 0.000000
0.629685 0.319529 0.000045
0.690362 0.321906 0.002422
0.751039 0.324283 0.004799
0.811717 0.326661 0.007177
0.872394 0.329038 0.009554
0.933071 0.331415 0.011931
0.993748 0.333792 0.014308
0.014017 0.347644 0.000000
0.077867 0.352614 0.000000
0.141718 0.357583 0.000000
0.205569 0.362553 0.000000
0.269419 0.367523 0.000000
0.330967 0.370611 0.000000
0.391644 0.372988 0.000000
0.452321 0.375365 0.000000
0.512998 0.377742 0.000000
0.573675 0.380119 0.002335
0.634352 0.382496 0.004712
0.695029 0.384873 0.007089
0.755706 0.387250 0.009466
0.816383 0.389627 0.011843
0.877060 0.392004 0.014220
0.937737 0.394381 0.016597
0.998414 0.396758 0.018974
0.024914 0.415701 0.000000
0.088764 0.420670 0.000000
0.152615 0.425640 0.000000
0.214279 0.428823 0.000000
0.274956 0.431200 0.000000
0.335633 0.433577 0.000000
0.396310 0.435954 0.000000
0.456988 0.438332 0.002248
0.517665 0.440709 0.004625
0.578342 0.443086 0.007002
0.639019 0.445463 0.009379
0.699696 0.447840 0.011756
0.760373 0.450217 0.014133
0.821050 0.452594 0.016510
0.881727 0.454971 0.018887
0.942404 0.457348 0.021264
1.000000 0.459725 0.023641
0.035811 0.483757 0.000000
0.097592 0.487036 0.000000
0.158269 0.489413 0.000000
0.218946 0.491790 0.000000
0.279623 0.494167 0.000000
0.340300 0.496544 0.002160
0.400977 0.498921 0.004537
0.461654 0.501298 0.006914
0.522331 0.503675 0.009291
0.583008 0.506052 0.011668
0.643685 0.508429 0.014045
0.704362 0.510806 0.016422
0.765039 0.513183 0.018799
0.825716 0.515560 0.021176
0.886394 0.517938 0.023554
0.947071 0.520315 0.025931
1.000000 0.522692 0.028308
0.041581 0.547625 0.000000
0.102259 0.550003 0.000000
0.162936 0.552380 0.000000
0.223613 0.554757 0.002073
0.284290 0.557134 0.004450
0.344967 0.559511 0.006827
0.405644 0.561888 0.009204
0.466321 0.564265 0.011581
0.526998 0.566642 0.013958
0.587675 0.569019 0.016335
0.648352 0.571396 0.018712
0.709029 0.573773 0.021089
0.769706 0.576150 0.023466
0.830383 0.578527 0.025843
0.891060 0.580904 0.028220
0.951737 0.583281 0.030597
1.000000 0.585658 0.032974
0.046248 0.610592 0.000000
0.106925 0.612969 0.001985
0.167602 0.615346 0.004362
0.228279 0.617723 0.006739
0.288956 0.620100 0.009116
0.349633 0.622477 0.011493
0.410310 0.624854 0.013870
0.470987 0.627231 0.016247
0.531665 0.629609 0.018625
0.592342 0.631986 0.021002
0.653019 0.634363 0.023379
0.713696 0.636740 0.025756
0.774373 0.639117 0.028133
0.835050 0.641494 0.030510
0.895727 0.643871 0.032887
0.956404 0.646248 0.035264
1.000000 0.648625 0.037641
0.050915 0.673559 0.004275
0.111592 0.675936 0.006652
0.172269 0.678313 0.009029
0.232946 0.680690 0.011406
0.293623 0.683067 0.013783
0.354300 0.685444 0.016160
0.414977 0.687821 0.018537
0.475654 0.690198 0.020914
0.536331 0.692575 0.023291
0.597008 0.694952 0.025668
0.657685 0.697329 0.028045
0.718362 0.699706 0.030422
0.779039 0.702083 0.032799
0.839716 0.704460 0.035176
0.900393 0.706837 0.037553
0.961071 0.709215 0.039931
1.000000 0.711864 0.042023
0.055581 0.736525 0.008941
0.116258 0.738902 0.011318
0.176936 0.741280 0.013696
0.237613 0.743657 0.016073
0.298290 0.746034 0.018450
0.358967 0.748411 0.020827
0.419644 0.750788 0.023204
0.480321 0.753165 0.025581
0.540998 0.755542 0.027958
0.601675 0.757919 0.030335
0.662352 0.760296 0.032712
0.723029 0.762673 0.035089
0.783706 0.765050 0.037466
0.844383 0.767427 0.039843
0.905435 0.770004 0.042012
0.969844 0.774369 0.042310
1.000000 0.778735 0.042608
0.060248 0.799492 0.013608
0.120925 0.801869 0.015985
0.181602 0.804246 0.018362
0.242279 0.806623 0.020739
0.302956 0.809000 0.023116
0.363633 0.811377 0.025493
0.424310 0.813754 0.027870
0.484987 0.816131 0.030247
0.545664 0.818508 0.032624
0.606342 0.820886 0.035002
0.667019 0.823263 0.037379
0.727696 0.825640 0.039756
0.788610 0.828143 0.042001
0.853019 0.832509 0.042299
0.917428 0.836875 0.042597
0.981837 0.841240 0.042896
1.000000 0.845606 0.043194
0.064915 0.862459 0.018275
0.125592 0.864836 0.020652
0.186269 0.867213 0.023029
0.246946 0.869590 0.025406
0.307623 0.871967 0.027783
0.368300 0.874344 0.030160
0.428977 0.876721 0.032537
0.489654 0.879098 0.034914
0.550331 0.881475 0.037291
0.611008 0.883852 0.039668
0.671785 0.886282 0.041990
0.736194 0.890648 0.042288
0.800603 0.895014 0.042586
0.865012 0.899380 0.042885
0.929421 0.903746 0.043183
0.993830 0.908111 0.043481
1.000000 0.912477 0.043780
0.069581 0.925425 0.022941
0.130258 0.927802 0.025318
0.190935 0.930179 0.027695
0.251613 0.932557 0.030073
0.312290 0.934934 0.032450
0.372967 0.937311 0.034827
0.433644 0.939688 0.037204
0.494321 0.942065 0.039581
0.554998 0.944442 0.041958
0.619369 0.948788 0.042277
0.683778 0.953153 0.042575
0.748187 0.957519 0.042874
0.812596 0.961885 0.043172
0.877005 0.966251 0.043471
0.941414 0.970616 0.043769
1.000000 0.974982 0.044067
1.000000 0.979348 0.044366
0.074248 0.988392 0.027608
0.134925 0.990769 0.029985
0.195602 0.993146 0.032362
0.256279 0.995523 0.034739
0.316956 0.997900 0.037116
0.377633 1.000000 0.039493
0.438310 1.000000 0.041870
0.502545 1.000000 0.042266
0.566953 1.000000 0.042564
0.631362 1.000000 0.042863
0.695771 1.000000 0.043161
0.760180 1.000000 0.043460
0.824589 1.000000 0.043758
0.888998 1.000000 0.044056
0.953407 1.000000 0.044355
1.000000 1.000000 0.044653
1.000000 1.000000 0.044951
0.000000 0.000000 0.044368
0.014600 0.000000 0.044689
0.078451 0.000000 0.045010
0.142302 0.000000 0.045331
0.206152 0.000000 0.045653
0.270003 0.000000 0.045974
0.333854 0.000000 0.046295
0.397705 0.000000 0.046616
0.461555 0.000000 0.046937
0.525406 0.000000 0.047259
0.589257 0.000000 0.047580
0.653107 0.000000 0.047901
0.716958 0.000836 0.048222
0.780809 0.005806 0.048543
0.844660 0.010775 0.048865
0.908510 0.015745 0.049186
0.971321 0.019865 0.050181
0.000000 0.009257 0.044998
0.025498 0.014226 0.045320
0.089348 0.019196 0.045641
0.153199 0.024166 0.045962
0.217050 0.029135 0.046283
0.280900 0.034105 0.046604
0.344751 0.039074 0.046926
0.408602 0.044044 0.047247
0.472453 0.049014 0.047568
0.536303 0.053983 0.047889
0.600154 0.058953 0.048210
0.664005 0.063923 0.048532
0.727855 0.068892 0.048853
0.791706 0.073862 0.049174
0.854633 0.078077 0.050093
0.915310 0.080454 0.052470
0.975987 0.082831 0.054847
0.000000 0.077313 0.045629
0.036395 0.082283 0.045950
0.100245 0.087252 0.046271
0.164096 0.092222 0.046593
0.227947 0.097192 0.046914
0.291798 0.102161 0.047235
0.355648 0.107131 0.047556
0.419499 0.112101 0.047877
0.483350 0.117070 0.048199
0.547200 0.122040 0.048520
0.611051 0.127010 0.048841
0.674902 0.131979 0.049162
0.737946 0.136290 0.050006
0.798623 0.138667 0.052383
0.859300 0.141044 0.054760
0.919977 0.143421 0.057137
0.980654 0.145798 0.059514
0.000000 0.145370 0.046260
0.047292 0.150339 0.046581
0.111143 0.155309 0.046902
0.174993 0.160278 0.047223
0.238844 0.165248 0.047544
0.302695 0.170218 0.047865
0.366545 0.175187 0.048187
0.430396 0.180157 0.048508
0.494247 0.185127 0.048829
0.558098 0.190096 0.049150
0.621258 0.194502 0.049918
0.681935 0.196879 0.052295
0.742612 0.199256 0.054672
0.803290 0.201634 0.057050
0.863967 0.204011 0.059427
0.924644 0.206388 0.061804
0.985321 0.208765 0.064181
0.000000 0.213426 0.046890
0.058189 0.218396 0.047211
0.122040 0.223365 0.047532
0.185891 0.228335 0.047854
0.249741 0.233305 0.048175
0.313592 0.238274 0.048496
0.377443 0.243244 0.048817
0.441293 0.248214 0.049138
0.504571 0.252715 0.049831
0.565248 0.255092 0.052208
0.625925 0.257469 0.054585
0.686602 0.259846 0.056962
0.747279 0.262223 0.059339
0.807956 0.264600 0.061716
0.868633 0.266977 0.064093
0.929310 0.269354 0.066470
0.989987 0.271731 0.068847
0.005236 0.281482 0.047521
0.069086 0.286452 0.047842
0.132937 0.291422 0.048163
0.196788 0.296391 0.048484
0.260638 0.301361 0.048805
0.324489 0.306331 0.049127
0.387883 0.310927 0.049743
0.448561 0.313305 0.052121
0.509238 0.315682 0.054498
0.569915 0.318059 0.056875
0.630592 0.320436 0.059252
0.691269 0.322813 0.061629
0.751946 0.325190 0.064006
0.812623 0.327567 0.066383
0.873300 0.329944 0.068760
0.933977 0.332321 0.071137
0.994654 0.334698 0.073514
0.016133 0.349539 0.048151
0.079984 0.354509 0.048472
0.143834 0.359478 0.048794
0.207685 0.364448 0.049115
0.271196 0.369140 0.049656
0.331873 0.371517 0.052033
0.392550 0.373894 0.054410
0.453227 0.376271 0.056787
0.513904 0.378648 0.059164
0.574581 0.381025 0.061541
0.635258 0.383402 0.063918
0.695935 0.385779 0.066295
0.756612 0.388156 0.068672
0.817289 0.390533 0.071049
0.877967 0.392911 0.073427
0.938644 0.395288 0.075804
0.999321 0.397665 0.078181
0.027030 0.417595 0.048782
0.090881 0.422565 0.049103
0.154509 0.427353 0.049569
0.215186 0.429730 0.051946
0.275863 0.432107 0.054323
0.336540 0.434484 0.056700
0.397217 0.436861 0.059077
0.457894 0.439238 0.061454
0.518571 0.441615 0.063831
0.579248 0.443992 0.066208
0.639925 0.446369 0.068585
0.700602 0.448746 0.070962
0.761279 0.451123 0.073339
0.821956 0.453500 0.075716
0.882633 0.455877 0.078093
0.943310 0.458254 0.080470
1.000000 0.460631 0.082847
0.037821 0.485565 0.049481
0.098498 0.487942 0.051858
0.159175 0.490319 0.054235
0.219852 0.492696 0.056612
0.280529 0.495073 0.058989
0.341206 0.497450 0.061366
0.401883 0.499827 0.063743
0.462560 0.502204 0.066120
0.523238 0.504582 0.068498
0.583915 0.506959 0.070875
0.644592 0.509336 0.073252
0.705269 0.511713 0.075629
0.765946 0.514090 0.078006
0.826623 0.516467 0.080383
0.887300 0.518844 0.082760
0.947977 0.521221 0.085137
1.000000 0.523598 0.087514
0.042488 0.548532 0.054148
0.103165 0.550909 0.056525
0.163842 0.553286 0.058902
0.224519 0.555663 0.061279
0.285196 0.558040 0.063656
0.345873 0.560417 0.066033
0.406550 0.562794 0.068410
0.467227 0.565171 0.070787
0.527904 0.567548 0.073164
0.588581 0.569925 0.075541
0.649258 0.572302 0.077918
0.709935 0.574679 0.080295
0.770612 0.577056 0.082672
0.831289 0.579433 0.085049
0.891966 0.581810 0.087426
0.952644 0.584188 0.089804
1.000000 0.586565 0.092181
0.047154 0.611498 0.058814
0.107831 0.613875 0.061191
0.168509 0.616253 0.063569
0.229186 0.618630 0.065946
0.289863 0.621007 0.068323
0.350540 0.623384 0.070700
0.411217 0.625761 0.073077
0.471894 0.628138 0.075454
0.532571 0.630515 0.077831
0.593248 0.632892 0.080208
0.653925 0.635269 0.082585
0.714602 0.637646 0.084962
0.775279 0.640023 0.087339
0.835956 0.642400 0.089716
0.896633 0.644777 0.092093
0.957310 0.647154 0.094470
1.000000 0.649531 0.096847
0.051821 0.674465 0.063481
0.112498 0.676842 0.065858
0.173175 0.679219 0.068235
0.233852 0.681596 0.070612
0.294529 0.683973 0.072989
0.355206 0.686350 0.075366
0.415883 0.688727 0.077743
0.476560 0.691104 0.080120
0.537237 0.693481 0.082497
0.597915 0.695859 0.084875
0.658592 0.698236 0.087252
0.719269 0.700613 0.089629
0.779946 0.702990 0.092006
0.840623 0.705367 0.094383
0.901300 0.707744 0.096760
0.961977 0.710121 0.099137
1.000000 0.713529 0.100436
0.056488 0.737432 0.068148
0.117165 0.739809 0.070525
0.177842 0.742186 0.072902
0.238519 0.744563 0.075279
0.299196 0.746940 0.077656
0.359873 0.749317 0.080033
0.420550 0.751694 0.082410
0.481227 0.754071 0.084787
0.541904 0.756448 0.087164
0.602581 0.758825 0.089541
0.663258 0.761202 0.091918
0.723935 0.763579 0.094295
0.784612 0.765956 0.096672
0.845289 0.768333 0.099049
0.907764 0.771668 0.100425
0.972173 0.776034 0.100724
1.000000 0.780400 0.101022
0.061154 0.800398 0.072814
0.121831 0.802775 0.075191
0.182508 0.805152 0.077568
0.243186 0.807530 0.079946
0.303863 0.809907 0.082323
0.364540 0.812284 0.084700
0.425217 0.814661 0.087077
0.485894 0.817038 0.089454
0.546571 0.819415 0.091831
0.607248 0.821792 0.094208
0.667925 0.824169 0.096585
0.728602 0.826546 0.098962
0.790939 0.829808 0.100414
0.855348 0.834173 0.100713
0.919757 0.838539 0.101011
0.984166 0.842905 0.101309
1.000000 0.847271 0.101608
0.065821 0.863365 0.077481
0.126498 0.865742 0.079858
0.187175 0.868119 0.082235
0.247852 0.870496 0.084612
0.308529 0.872873 0.086989
0.369206 0.875250 0.089366
0.429883 0.877627 0.091743
0.490560 0.880004 0.094120
0.551237 0.882381 0.096497
0.611914 0.884758 0.098874
0.674114 0.887947 0.100403
0.738523 0.892313 0.100702
0.802932 0.896679 0.101000
0.867341 0.901044 0.101298
0.931750 0.905410 0.101597
0.996159 0.909776 0.101895
1.000000 0.914142 0.102194
0.070488 0.926332 0.082148
0.131165 0.928709 0.084525
0.191842 0.931086 0.086902
0.252519 0.933463 0.089279
0.313196 0.935840 0.091656
0.373873 0.938217 0.094033
0.434550 0.940594 0.096410
0.495227 0.942971 0.098787
0.557289 0.946086 0.100392
0.621698 0.950452 0.100691
0.686107 0.954818 0.100989
0.750516 0.959184 0.101288
0.814925 0.963549 0.101586
0.879334 0.967915 0.101884
0.943743 0.972281 0.102183
1.000000 0.976647 0.102481
1.000000 0.981013 0.102779
0.075154 0.989298 0.086814
0.135831 0.991675 0.089191
0.196508 0.994052 0.091568
0.257185 0.996429 0.093945
0.317863 0.998807 0.096323
0.378540 1.000000 0.098700
0.440465 1.000000 0.100381
0.504874 1.000000 0.100680
0.569283 1.000000 0.100978
0.633692 1.000000 0.101277
0.698101 1.000000 0.101575
0.762509 1.000000 0.101873
0.826918 1.000000 0.102172
0.891327 1.000000 0.102470
0.955736 1.000000 0.102768
1.000000 1.000000 0.103067
1.000000 1.000000 0.103365
0.000000 0.000000 0.102790
0.016717 0.000000 0.103111
0.080567 0.000000 0.103433
0.144418 0.000000 0.103754
0.208269 0.000000 0.104075
0.272120 0.000000 0.104396
0.335970 0.000000 0.104717
0.399821 0.000000 0.105039
0.463672 0.000000 0.105360
0.527522 0.000000 0.105681
0.591373 0.000000 0.106002
0.655224 0.000000 0.106323
0.719074 0.002731 0.106645
0.782925 0.007700 0.106966
0.846776 0.012670 0.107287
0.910627 0.017640 0.107608
0.972227 0.020771 0.109387
0.000000 0.011151 0.103421
0.027614 0.016121 0.103742
0.091465 0.021091 0.104063
0.155315 0.026060 0.104384
0.219166 0.031030 0.104706
0.283017 0.036000 0.105027
0.346867 0.040969 0.105348
0.410718 0.045939 0.105669
0.474569 0.050909 0.105990
0.538420 0.055878 0.106312
0.602270 0.060848 0.106633
0.666121 0.065817 0.106954
0.729972 0.070787 0.107275
0.793822 0.075757 0.107596
0.855540 0.078984 0.109300
0.916217 0.081361 0.111677
0.976894 0.083738 0.114054
0.000000 0.079208 0.104051
0.038511 0.084177 0.104373
0.102362 0.089147 0.104694
0.166213 0.094117 0.105015
0.230063 0.099086 0.105336
0.293914 0.104056 0.105657
0.357765 0.109026 0.105979
0.421615 0.113995 0.106300
0.485466 0.118965 0.106621
0.549317 0.123935 0.106942
0.613167 0.128904 0.107263
0.677018 0.133874 0.107585
0.738852 0.137196 0.109212
0.799529 0.139573 0.111589
0.860206 0.141950 0.113966
0.920883 0.144327 0.116343
0.981560 0.146704 0.118720
0.000000 0.147264 0.104682
0.049408 0.152234 0.105003
0.113259 0.157204 0.105324
0.177110 0.162173 0.105646
0.240960 0.167143 0.105967
0.304811 0.172113 0.106288
0.368662 0.177082 0.106609
0.432513 0.182052 0.106930
0.496363 0.187021 0.107252
0.560214 0.191991 0.107573
0.622165 0.195409 0.109125
0.682842 0.197786 0.111502
0.743519 0.200163 0.113879
0.804196 0.202540 0.116256
0.864873 0.204917 0.118633
0.925550 0.207294 0.121010
0.986227 0.209671 0.123387
0.000000 0.215321 0.105313
0.060306 0.220290 0.105634
0.124156 0.225260 0.105955
0.188007 0.230230 0.106276
0.251858 0.235199 0.106597
0.315708 0.240169 0.106919
0.379559 0.245139 0.107240
0.443410 0.250108 0.107561
0.505477 0.253621 0.109037
0.566154 0.255998 0.111414
0.626831 0.258375 0.113791
0.687508 0.260752 0.116168
0.748185 0.263129 0.118545
0.808862 0.265506 0.120922
0.869540 0.267884 0.123300
0.930217 0.270261 0.125677
0.990894 0.272638 0.128054
0.007352 0.283377 0.105943
0.071203 0.288347 0.106264
0.135053 0.293317 0.106586
0.198904 0.298286 0.106907
0.262755 0.303256 0.107228
0.326606 0.308225 0.107549
0.388790 0.311834 0.108950
0.449467 0.314211 0.111327
0.510144 0.316588 0.113704
0.570821 0.318965 0.116081
0.631498 0.321342 0.118458
0.692175 0.323719 0.120835
0.752852 0.326096 0.123212
0.813529 0.328473 0.125589
0.874206 0.330850 0.127966
0.934883 0.333227 0.130343
0.995560 0.335604 0.132720
0.018249 0.351434 0.106574
0.082100 0.356403 0.106895
0.145951 0.361373 0.107216
0.209801 0.366343 0.107537
0.272102 0.370046 0.108862
0.332779 0.372423 0.111239
0.393456 0.374800 0.113616
0.454133 0.377177 0.115993
0.514811 0.379555 0.118371
0.575488 0.381932 0.120748
0.636165 0.384309 0.123125
0.696842 0.386686 0.125502
0.757519 0.389063 0.127879
0.818196 0.391440 0.130256
0.878873 0.393817 0.132633
0.939550 0.396194 0.135010
1.000000 0.398571 0.137387
0.029146 0.419490 0.107204
0.092997 0.424460 0.107525
0.155415 0.428259 0.108775
0.216092 0.430636 0.111152
0.276769 0.433013 0.113529
0.337446 0.435390 0.115906
0.398123 0.437767 0.118283
0.458800 0.440144 0.120660
0.519477 0.442521 0.123037
0.580154 0.444898 0.125414
0.640831 0.447275 0.127791
0.701508 0.449652 0.130168
0.762185 0.452029 0.132545
0.822862 0.454406 0.134922
0.883539 0.456783 0.137299
0.944217 0.459161 0.139677
1.000000 0.461538 0.142054
0.038727 0.486471 0.108687
0.099404 0.488848 0.111064
0.160082 0.491226 0.113442
0.220759 0.493603 0.115819
0.281436 0.495980 0.118196
0.342113 0.498357 0.120573
0.402790 0.500734 0.122950
0.463467 0.503111 0.125327
0.524144 0.505488 0.127704
0.584821 0.507865 0.130081
0.645498 0.510242 0.132458
0.706175 0.512619 0.134835
0.766852 0.514996 0.137212
0.827529 0.517373 0.139589
0.888206 0.519750 0.141966
0.948883 0.522127 0.144343
1.000000 0.524504 0.146720
0.043394 0.549438 0.113354
0.104071 0.551815 0.115731
0.164748 0.554192 0.118108
0.225425 0.556569 0.120485
0.286102 0.558946 0.122862
0.346779 0.561323 0.125239
0.407456 0.563700 0.127616
0.468133 0.566077 0.129993
0.528810 0.568454 0.132370
0.589488 0.570832 0.134748
0.650165 0.573209 0.137125
0.710842 0.575586 0.139502
0.771519 0.577963 0.141879
0.832196 0.580340 0.144256
0.892873 0.582717 0.146633
0.953550 0.585094 0.149010
1.000000 0.587471 0.151387
0.048061 0.612405 0.118021
0.108738 0.614782 0.120398
0.169415 0.617159 0.122775
0.230092 0.619536 0.125152
0.290769 0.621913 0.127529
0.351446 0.624290 0.129906
0.412123 0.626667 0.132283
0.472800 0.629044 0.134660
0.533477 0.631421 0.137037
0.594154 0.633798 0.139414
0.654831 0.636175 0.141791
0.715508 0.638552 0.144168
0.776185 0.640929 0.146545
0.836862 0.643306 0.148922
0.897539 0.645683 0.151299
0.958216 0.648060 0.153676
1.000000 0.650438 0.156054
0.052727 0.675371 0.122687
0.113404 0.677748 0.125064
0.174081 0.680125 0.127441
0.234759 0.682503 0.129819
0.295436 0.684880 0.132196
0.356113 0.687257 0.134573
0.416790 0.689634 0.136950
0.477467 0.692011 0.139327
0.538144 0.694388 0.141704
0.598821 0.696765 0.144081
0.659498 0.699142 0.146458
0.720175 0.701519 0.148835
0.780852 0.703896 0.151212
0.841529 0.706273 0.153589
0.902206 0.708650 0.155966
0.962883 0.711027 0.158343
1.000000 0.715193 0.158850
0.057394 0.738338 0.127354
0.118071 0.740715 0.129731
0.178748 0.743092 0.132108
0.239425 0.745469 0.134485
0.300102 0.747846 0.136862
0.360779 0.750223 0.139239
0.421456 0.752600 0.141616
0.482133 0.754977 0.143993
0.542810 0.757354 0.146370
0.603487 0.759731 0.148747
0.664165 0.762109 0.151125
0.724842 0.764486 0.153502
0.785519 0.766863 0.155879
0.846196 0.769240 0.158256
0.910093 0.773333 0.158839
0.974502 0.777699 0.159137
1.000000 0.782064 0.159436
0.062061 0.801305 0.132021
0.122738 0.803682 0.134398
0.183415 0.806059 0.136775
0.244092 0.808436 0.139152
0.304769 0.810813 0.141529
0.365446 0.813190 0.143906
0.426123 0.815567 0.146283
0.486800 0.817944 0.148660
0.547477 0.820321 0.151037
0.608154 0.822698 0.153414
0.668831 0.825075 0.155791
0.729508 0.827452 0.158168
0.793268 0.831472 0.158828
0.857677 0.835838 0.159126
0.922086 0.840204 0.159425
0.986495 0.844569 0.159723
1.000000 0.848935 0.160022
0.066727 0.864271 0.136687
0.127404 0.866648 0.139064
0.188081 0.869025 0.141441
0.248758 0.871402 0.143818
0.309436 0.873780 0.146196
0.370113 0.876157 0.148573
0.430790 0.878534 0.150950
0.491467 0.880911 0.153327
0.552144 0.883288 0.155704
0.612821 0.885665 0.158081
0.676443 0.889612 0.158817
0.740852 0.893977 0.159116
0.805261 0.898343 0.159414
0.869670 0.902709 0.159712
0.934079 0.907075 0.160011
0.998488 0.911440 0.160309
1.000000 0.915806 0.160607
0.071394 0.927238 0.141354
0.132071 0.929615 0.143731
0.192748 0.931992 0.146108
0.253425 0.934369 0.148485
0.314102 0.936746 0.150862
0.374779 0.939123 0.153239
0.435456 0.941500 0.155616
0.496133 0.943877 0.157993
0.559619 0.947751 0.158806
0.624028 0.952117 0.159105
0.688437 0.956482 0.159403
0.752845 0.960848 0.159701
0.817254 0.965214 0.160000
0.881663 0.969580 0.160298
0.946072 0.973946 0.160596
1.000000 0.978311 0.160895
1.000000 0.982677 0.161193
0.076061 0.990205 0.146021
0.136738 0.992582 0.148398
0.197415 0.994959 0.150775
0.258092 0.997336 0.153152
0.318769 0.999713 0.155529
0.379446 1.000000 0.157906
0.442794 1.000000 0.158795
0.507203 1.000000 0.159094
0.571612 1.000000 0.159392
0.636021 1.000000 0.159690
0.700430 1.000000 0.159989
0.764839 1.000000 0.160287
0.829248 1.000000 0.160585
0.893656 1.000000 0.160884
0.958065 1.000000 0.161182
1.000000 1.000000 0.161481
1.000000 1.000000 0.161779
0.000000 0.000000 0.161213
0.018833 0.000000 0.161534
0.082684 0.000000 0.161855
0.146534 0.000000 0.162176
0.210385 0.000000 0.162498
0.274236 0.000000 0.162819
0.338087 0.000000 0.163140
0.401937 0.000000 0.163461
0.465788 0.000000 0.163782
0.529639 0.000000 0.164103
0.593489 0.000000 0.164425
0.657340 0.000000 0.164746
0.721191 0.004625 0.165067
0.785041 0.009595 0.165388
0.848892 0.014565 0.165709
0.912456 0.019300 0.166216
0.973133 0.021677 0.168593
0.000000 0.013046 0.161843
0.029730 0.018016 0.162165
0.093581 0.022985 0.162486
