tools/fandomforge/assets/color_luts/leon-vendetta.cube
TITLE "leon-vendetta-Vendetta"
LUT_3D_SIZE 5
0.000000 0.000000 0.003930
0.183405 0.000000 0.005540
0.434961 0.000000 0.007151
0.686516 0.010856 0.008761
0.938071 0.028181 0.010371
0.000000 0.218143 0.007091
0.235048 0.235468 0.008702
0.486603 0.252794 0.010312
0.724462 0.264952 0.021682
0.961597 0.276837 0.033567
0.035135 0.477406 0.010253
0.273525 0.489765 0.021245
0.510660 0.501650 0.033130
0.747795 0.513535 0.045015
0.984930 0.525420 0.056900
0.059723 0.726463 0.032693
0.296858 0.738348 0.044578
0.533993 0.750233 0.056463
0.771128 0.762118 0.068348
1.000000 0.775382 0.078075
0.083056 0.975046 0.056026
0.320191 0.986931 0.067911
0.559704 1.000000 0.077789
0.801708 1.000000 0.085563
1.000000 1.000000 0.093338
0.000000 0.000000 0.229794
0.193435 0.000000 0.231404
0.444990 0.000136 0.233015
0.696545 0.017461 0.234625
0.942795 0.032785 0.240015
0.000000 0.224749 0.232955
0.245077 0.242074 0.234566
0.491858 0.257598 0.239578
0.728993 0.269483 0.251463
0.966129 0.281369 0.263349
0.040921 0.482411 0.239141
0.278056 0.494296 0.251026
0.515191 0.506181 0.262911
0.752327 0.518067 0.274797
0.989462 0.529952 0.286682
0.064254 0.730994 0.262474
0.301389 0.742879 0.274359
0.538525 0.754765 0.286245
0.775660 0.766650 0.298130
1.000000 0.780914 0.306289
0.087587 0.979577 0.285807
0.324723 0.991463 0.297693
0.566092 1.000000 0.306003
0.808096 1.000000 0.313778
1.000000 1.000000 0.321552
0.000000 0.000000 0.455658
0.203464 0.000000 0.457268
0.455019 0.006742 0.458879
0.706575 0.024067 0.460489
0.947327 0.037317 0.469797
0.003552 0.231354 0.458819
0.255107 0.248680 0.460430
0.496390 0.262130 0.469360
0.733525 0.274015 0.481245
0.970660 0.285900 0.493130
0.045452 0.486942 0.468922
0.282588 0.498828 0.480808
0.519723 0.510713 0.492693
0.756858 0.522598 0.504578
0.993993 0.534483 0.516463
0.068786 0.735526 0.492256
0.305921 0.747411 0.504141
0.543056 0.759296 0.516026
0.781592 0.771936 0.526729
1.000000 0.786446 0.534503
0.092119 0.984109 0.515589
0.330475 0.996652 0.526443
0.572480 1.000000 0.534217
0.814484 1.000000 0.541992
1.000000 1.000000 0.549766
0.000000 0.000000 0.681522
0.213494 0.000000 0.683132
0.465049 0.013347 0.684743
0.714723 0.029963 0.687693
0.951858 0.041848 0.699578
0.013581 0.237960 0.684683
0.263786 0.254776 0.687256
0.500921 0.266661 0.699141
0.738056 0.278546 0.711026
0.975192 0.290432 0.722912
0.049984 0.491474 0.698704
0.287119 0.503359 0.710589
0.524254 0.515244 0.722474
0.761390 0.527130 0.734360
0.998525 0.539015 0.746245
0.073317 0.740057 0.722037
0.310452 0.751942 0.733922
0.547588 0.763828 0.745808
0.787980 0.777468 0.754943
1.000000 0.791978 0.762718
0.096650 0.988640 0.745370
0.336863 1.000000 0.754657
0.578868 1.000000 0.762432
0.820872 1.000000 0.770206
1.000000 1.000000 0.777980
0.000000 0.000000 0.907386
0.223523 0.002628 0.908996
0.475078 0.019953 0.910607
0.719255 0.034495 0.917475
0.956390 0.046380 0.929360
0.023610 0.244566 0.910547
0.268317 0.259307 0.917037
0.505453 0.271193 0.928923
0.742588 0.283078 0.940808
0.979723 0.294963 0.952693
0.054515 0.496005 0.928485
0.291651 0.507891 0.940371
0.528786 0.519776 0.952256
0.765921 0.531661 0.964141
1.000000 0.543775 0.975669
0.077849 0.744589 0.951819
0.314984 0.756474 0.963704
0.552363 0.768491 0.975383
0.794368 0.783000 0.983157
1.000000 0.797510 0.990932
0.101247 0.993207 0.975097
0.343251 1.000000 0.982871
0.585256 1.000000 0.990646
0.827260 1.000000 0.998420
1.000000 1.000000 1.000000
