tools/fandomforge/assets/color_luts/leon-re6-cutscenes.cube
TITLE "leon-re6-cutscenes-RE6"
LUT_3D_SIZE 5
0.000000 0.000000 0.037620
0.242801 0.000000 0.011103
0.539567 0.000000 0.000000
0.836332 0.000000 0.000000
1.000000 0.000000 0.000000
0.000000 0.265170 0.000000
0.263543 0.258621 0.000000
0.560309 0.252071 0.000000
0.841018 0.245722 0.000000
1.000000 0.239383 0.000000
0.000000 0.538512 0.000000
0.268851 0.532155 0.000000
0.548713 0.525817 0.000000
0.828574 0.519478 0.000000
1.000000 0.513139 0.000000
0.000000 0.812250 0.000000
0.256407 0.805911 0.000000
0.536268 0.799572 0.000000
0.816129 0.793233 0.000000
1.000000 0.789686 0.000000
0.000000 1.000000 0.000000
0.243963 1.000000 0.000000
0.527812 1.000000 0.000000
0.815841 1.000000 0.000000
1.000000 1.000000 0.000000
0.000000 0.000000 0.313710
0.246829 0.000000 0.287193
0.543595 0.000000 0.260677
0.840360 0.000000 0.234160
1.000000 0.000000 0.215067
0.000000 0.262673 0.261652
0.267572 0.256124 0.235136
0.558740 0.249644 0.215300
0.838601 0.243305 0.208961
1.000000 0.236967 0.202623
0.000000 0.536077 0.215533
0.266435 0.529739 0.209195
0.546296 0.523400 0.202856
0.826157 0.517061 0.196517
1.000000 0.510722 0.190178
0.000000 0.809833 0.203089
0.253990 0.803494 0.196750
0.533851 0.797155 0.190411
0.813713 0.790817 0.184073
1.000000 0.789295 0.172210
0.000000 1.000000 0.190645
0.241546 1.000000 0.184306
0.528509 1.000000 0.172667
0.816539 1.000000 0.160234
1.000000 1.000000 0.147801
0.000000 0.000000 0.589800
0.250858 0.000000 0.563283
0.547623 0.000000 0.536767
0.844389 0.000000 0.510250
1.000000 0.000000 0.498850
0.000000 0.260176 0.537742
0.271600 0.253627 0.511226
0.556323 0.247227 0.499083
0.836185 0.240889 0.492745
1.000000 0.234550 0.486406
0.000000 0.533661 0.499317
0.264018 0.527322 0.492978
0.543879 0.520983 0.486639
0.823740 0.514644 0.480300
1.000000 0.508305 0.473961
0.000000 0.807416 0.486872
0.251573 0.801077 0.480533
0.531435 0.794739 0.474195
0.813645 0.789929 0.466103
1.000000 0.788905 0.453670
0.000000 1.000000 0.474428
0.241178 1.000000 0.466560
0.529207 1.000000 0.454127
0.817236 1.000000 0.441694
1.000000 1.000000 0.429261
0.000000 0.000000 0.865890
0.254886 0.000000 0.839373
0.551652 0.000000 0.812857
0.846212 0.000000 0.788972
1.000000 0.000000 0.782633
0.000000 0.257679 0.813832
0.274045 0.251149 0.789205
0.553907 0.244811 0.782867
0.833768 0.238472 0.776528
1.000000 0.232133 0.770189
0.000000 0.531244 0.783100
0.261601 0.524905 0.776761
0.541462 0.518566 0.770422
0.821323 0.512227 0.764083
1.000000 0.505889 0.757745
0.000000 0.804999 0.770655
0.249157 0.798661 0.764317
0.529018 0.792322 0.757978
0.814342 0.789538 0.747562
1.000000 0.788515 0.735129
0.000000 1.000000 0.758211
0.241875 1.000000 0.748020
0.529904 1.000000 0.735587
0.817933 1.000000 0.723154
1.000000 1.000000 0.710720
0.000000 0.000000 1.000000
0.258914 0.000000 1.000000
0.555680 0.000000 1.000000
0.843795 0.000000 1.000000
1.000000 0.000000 1.000000
0.000000 0.255182 1.000000
0.271629 0.248733 1.000000
0.551490 0.242394 1.000000
0.831351 0.236055 1.000000
1.000000 0.229716 1.000000
0.000000 0.528827 1.000000
0.259184 0.522488 1.000000
0.539045 0.516149 1.000000
0.818907 0.509811 1.000000
1.000000 0.503934 1.000000
0.000000 0.802583 1.000000
0.246740 0.796244 1.000000
0.527011 0.790172 1.000000
0.815040 0.789148 1.000000
1.000000 0.788125 1.000000
0.000000 1.000000 1.000000
0.242573 1.000000 1.000000
0.530602 1.000000 1.000000
0.818631 1.000000 1.000000
1.000000 1.000000 0.992180
