tools/fandomforge/assets/color_luts/leon-infinite-darkness.cube
TITLE "leon-infinite-darkness-ID"
LUT_3D_SIZE 5
0.000000 0.000000 0.000000
0.203962 0.000000 0.000000
0.519364 0.000000 0.000000
0.834767 0.000000 0.000000
1.000000 0.000000 0.000000
0.000000 0.235758 0.000000
0.230519 0.234242 0.000000
0.545921 0.232726 0.000000
0.844392 0.228567 0.000000
1.000000 0.224269 0.000000
0.000000 0.534657 0.000000
0.240800 0.530600 0.000000
0.538377 0.526302 0.000000
0.835954 0.522004 0.000000
1.000000 0.517706 0.000000
0.000000 0.828335 0.000000
0.232362 0.824037 0.000000
0.529939 0.819739 0.000000
0.827516 0.815441 0.000000
1.000000 0.812637 0.000000
0.000000 1.000000 0.000000
0.223924 1.000000 0.000000
0.525828 1.000000 0.000000
0.832268 1.000000 0.000000
1.000000 1.000000 0.000000
0.000000 0.000000 0.289355
0.209120 0.000000 0.263769
0.524522 0.000000 0.238183
0.839924 0.000000 0.212598
1.000000 0.000000 0.194843
0.000000 0.235180 0.239125
0.235676 0.233664 0.213539
0.545177 0.231227 0.195002
0.842753 0.226928 0.190703
1.000000 0.222630 0.186405
0.000000 0.533260 0.195160
0.239162 0.528962 0.190862
0.536738 0.524663 0.186563
0.834315 0.520365 0.182265
1.000000 0.516067 0.177967
0.000000 0.826697 0.186722
0.230723 0.822398 0.182423
0.528300 0.818100 0.178125
0.825877 0.813802 0.173827
1.000000 0.812083 0.161200
0.000000 1.000000 0.178283
0.222285 1.000000 0.173985
0.527569 1.000000 0.161696
0.834008 1.000000 0.148208
1.000000 1.000000 0.134721
0.000000 0.000000 0.581475
0.214277 0.000000 0.555889
0.529679 0.000000 0.530303
0.845082 0.000000 0.504718
1.000000 0.000000 0.495080
0.000000 0.234602 0.531245
0.240834 0.233086 0.505659
0.543538 0.229588 0.495238
0.841115 0.225290 0.490940
1.000000 0.220992 0.486642
0.000000 0.531621 0.495396
0.237523 0.527323 0.491098
0.535100 0.523025 0.486800
0.832677 0.518727 0.482502
1.000000 0.514428 0.478203
0.000000 0.825058 0.486958
0.229085 0.820760 0.482660
0.526662 0.816462 0.478362
0.826788 0.812982 0.471420
1.000000 0.811529 0.457932
0.000000 1.000000 0.478520
0.222870 1.000000 0.471916
0.529309 1.000000 0.458429
0.835748 1.000000 0.444941
1.000000 1.000000 0.431453
0.000000 0.000000 0.873595
0.219435 0.000000 0.848009
0.534837 0.000000 0.822423
0.847914 0.000000 0.799614
1.000000 0.000000 0.795316
0.000000 0.234024 0.823364
0.244322 0.232247 0.799772
0.541899 0.227949 0.795474
0.839476 0.223651 0.791176
1.000000 0.219353 0.786878
0.000000 0.529982 0.795632
0.235884 0.525684 0.791334
0.533461 0.521386 0.787036
0.831038 0.517088 0.782738
1.000000 0.512790 0.778440
0.000000 0.823419 0.787194
0.227446 0.819121 0.782896
0.525023 0.814823 0.778598
0.828528 0.812428 0.768153
1.000000 0.810975 0.754665
0.000000 1.000000 0.778756
0.224610 1.000000 0.768649
0.531049 1.000000 0.755161
0.837489 1.000000 0.741673
1.000000 1.000000 0.728186
0.000000 0.000000 1.000000
0.224592 0.000000 1.000000
0.539994 0.000000 1.000000
0.846275 0.000000 1.000000
1.000000 0.000000 1.000000
0.000000 0.233446 1.000000
0.242683 0.230608 1.000000
0.540260 0.226310 1.000000
0.837837 0.222012 1.000000
1.000000 0.217714 1.000000
0.000000 0.528343 1.000000
0.234245 0.524045 1.000000
0.531822 0.519747 1.000000
0.829399 0.515449 1.000000
1.000000 0.511398 1.000000
0.000000 0.821780 1.000000
0.225807 0.817482 1.000000
0.523829 0.813327 1.000000
0.830268 0.811874 1.000000
1.000000 0.810421 1.000000
0.000000 1.000000 1.000000
0.226350 1.000000 1.000000
0.532789 1.000000 1.000000
0.839229 1.000000 1.000000
1.000000 1.000000 1.000000
