tools/fandomforge/assets/color_luts/leon-vendetta.cube
TITLE "leon-vendetta-Vendetta"
LUT_3D_SIZE 17
0.000000 0.000000 0.003930
0.000000 0.000000 0.004333
0.057628 0.000000 0.004735
0.120516 0.000000 0.005138
0.183405 0.000000 0.005540
0.246294 0.000000 0.005943
0.309183 0.000000 0.006346
0.372072 0.000000 0.006748
0.434961 0.000000 0.007151
0.497849 0.000000 0.007553
0.560738 0.002193 0.007956
0.623627 0.006525 0.008358
0.686516 0.010856 0.008761
0.749405 0.015187 0.009164
0.812293 0.019518 0.009566
0.875182 0.023850 0.009969
0.938071 0.028181 0.010371
0.000000 0.023696 0.004720
0.007650 0.028027 0.005123
0.070538 0.032358 0.005526
0.133427 0.036690 0.005928
0.196316 0.041021 0.006331
0.259205 0.045352 0.006733
0.322094 0.049684 0.007136
0.384982 0.054015 0.007538
0.447871 0.058346 0.007941
0.510760 0.062678 0.008344
0.573649 0.067009 0.008746
0.636538 0.071340 0.009149
0.699426 0.075672 0.009551
0.762315 0.080003 0.009954
0.825204 0.084334 0.010357
0.884813 0.087428 0.013096
0.944097 0.090400 0.016067
0.000000 0.088512 0.005511
0.020560 0.092843 0.005913
0.083449 0.097174 0.006316
0.146338 0.101506 0.006719
0.209227 0.105837 0.007121
0.272115 0.110168 0.007524
0.335004 0.114500 0.007926
0.397893 0.118831 0.008329
0.460782 0.123162 0.008731
0.523671 0.127493 0.009134
0.586559 0.131825 0.009537
0.649448 0.136156 0.009939
0.712337 0.140487 0.010342
0.772079 0.143632 0.012987
0.831363 0.146603 0.015958
0.890647 0.149574 0.018929
0.949931 0.152546 0.021901
0.000000 0.153327 0.006301
0.033471 0.157659 0.006704
0.096360 0.161990 0.007106
0.159249 0.166321 0.007509
0.222137 0.170653 0.007911
0.285026 0.174984 0.008314
0.347915 0.179315 0.008717
0.410804 0.183647 0.009119
0.473693 0.187978 0.009522
0.536581 0.192309 0.009924
0.599470 0.196641 0.010327
0.659345 0.199835 0.012877
0.718629 0.202806 0.015849
0.777912 0.205777 0.018820
0.837196 0.208749 0.021791
0.896480 0.211720 0.024763
0.955764 0.214691 0.027734
0.000000 0.218143 0.007091
0.046382 0.222475 0.007494
0.109270 0.226806 0.007897
0.172159 0.231137 0.008299
0.235048 0.235468 0.008702
0.297937 0.239800 0.009104
0.360826 0.244131 0.009507
0.423714 0.248462 0.009910
0.486603 0.252794 0.010312
0.546610 0.256038 0.012768
0.605894 0.259009 0.015739
0.665178 0.261981 0.018711
0.724462 0.264952 0.021682
0.783746 0.267923 0.024653
0.843030 0.270895 0.027625
0.902313 0.273866 0.030596
0.961597 0.276837 0.033567
0.000000 0.282959 0.007882
0.059292 0.287290 0.008284
0.122181 0.291622 0.008687
0.185070 0.295953 0.009090
0.247959 0.300284 0.009492
0.310847 0.304616 0.009895
0.373736 0.308947 0.010297
0.433876 0.312241 0.012659
0.493160 0.315212 0.015630
0.552444 0.318184 0.018601
0.611728 0.321155 0.021573
0.671011 0.324126 0.024544
0.730295 0.327098 0.027515
0.789579 0.330069 0.030487
0.848863 0.333040 0.033458
0.908147 0.336012 0.036429
0.967430 0.338983 0.039400
0.009314 0.347775 0.008672
0.072203 0.352106 0.009075
0.135092 0.356437 0.009477
0.197981 0.360769 0.009880
0.260869 0.365100 0.010282
0.321142 0.368444 0.012549
0.380426 0.371416 0.015521
0.439709 0.374387 0.018492
0.498993 0.377358 0.021463
0.558277 0.380330 0.024435
0.617561 0.383301 0.027406
0.676845 0.386272 0.030377
0.736129 0.389244 0.033349
0.795412 0.392215 0.036320
0.854696 0.395186 0.039291
0.913980 0.398157 0.042262
0.973264 0.401129 0.045234
0.022225 0.412591 0.009463
0.085114 0.416922 0.009865
0.148002 0.421253 0.010268
0.208408 0.424648 0.012440
0.267691 0.427619 0.015411
0.326975 0.430590 0.018383
0.386259 0.433561 0.021354
0.445543 0.436533 0.024325
0.504827 0.439504 0.027297
0.564110 0.442475 0.030268
0.623394 0.445447 0.033239
0.682678 0.448418 0.036211
0.741962 0.451389 0.039182
0.801246 0.454361 0.042153
0.860529 0.457332 0.045124
0.919813 0.460303 0.048096
0.979097 0.463275 0.051067
0.035135 0.477406 0.010253
0.095673 0.480851 0.012331
0.154957 0.483822 0.015302
0.214241 0.486793 0.018273
0.273525 0.489765 0.021245
0.332808 0.492736 0.024216
0.392092 0.495707 0.027187
0.451376 0.498679 0.030159
0.510660 0.501650 0.033130
0.569944 0.504621 0.036101
0.629228 0.507593 0.039073
0.688511 0.510564 0.042044
0.747795 0.513535 0.045015
0.807079 0.516506 0.047986
0.866363 0.519478 0.050958
0.925647 0.522449 0.053929
0.984930 0.525420 0.056900
0.042223 0.540025 0.015193
0.101507 0.542997 0.018164
0.160790 0.545968 0.021135
0.220074 0.548939 0.024107
0.279358 0.551910 0.027078
0.338642 0.554882 0.030049
0.397926 0.557853 0.033021
0.457209 0.560824 0.035992
0.516493 0.563796 0.038963
0.575777 0.566767 0.041935
0.635061 0.569738 0.044906
0.694345 0.572710 0.047877
0.753628 0.575681 0.050848
0.812912 0.578652 0.053820
0.872196 0.581624 0.056791
0.931480 0.584595 0.059762
0.990764 0.587566 0.062734
0.048056 0.602171 0.021026
0.107340 0.605142 0.023997
0.166624 0.608114 0.026969
0.225907 0.611085 0.029940
0.285191 0.614056 0.032911
0.344475 0.617028 0.035883
0.403759 0.619999 0.038854
0.463043 0.622970 0.041825
0.522327 0.625942 0.044797
0.581610 0.628913 0.047768
0.640894 0.631884 0.050739
0.700178 0.634855 0.053710
0.759462 0.637827 0.056682
0.818746 0.640798 0.059653
0.878029 0.643769 0.062624
0.937313 0.646741 0.065596
0.996597 0.649712 0.068567
0.053889 0.664317 0.026859
0.113173 0.667288 0.029831
0.172457 0.670259 0.032802
0.231741 0.673231 0.035773
0.291025 0.676202 0.038745
0.350308 0.679173 0.041716
0.409592 0.682145 0.044687
0.468876 0.685116 0.047659
0.528160 0.688087 0.050630
0.587444 0.691059 0.053601
0.646727 0.694030 0.056572
0.706011 0.697001 0.059544
0.765295 0.699973 0.062515
0.824579 0.702944 0.065486
0.883863 0.705915 0.068458
0.943147 0.708887 0.071429
1.000000 0.711948 0.074259
0.059723 0.726463 0.032693
0.119006 0.729434 0.035664
0.178290 0.732405 0.038635
0.237574 0.735377 0.041607
0.296858 0.738348 0.044578
0.356142 0.741319 0.047549
0.415426 0.744291 0.050521
0.474709 0.747262 0.053492
0.533993 0.750233 0.056463
0.593277 0.753204 0.059434
0.652561 0.756176 0.062406
0.711845 0.759147 0.065377
0.771128 0.762118 0.068348
0.830412 0.765090 0.071320
0.889818 0.768127 0.074188
0.950319 0.771754 0.076132
1.000000 0.775382 0.078075
0.065556 0.788608 0.038526
0.124840 0.791580 0.041497
0.184124 0.794551 0.044469
0.243407 0.797522 0.047440
0.302691 0.800494 0.050411
0.361975 0.803465 0.053383
0.421259 0.806436 0.056354
0.480543 0.809408 0.059325
0.539826 0.812379 0.062296
0.599110 0.815350 0.065268
0.658394 0.818322 0.068239
0.717678 0.821293 0.071210
0.777039 0.824306 0.074116
0.837540 0.827933 0.076060
0.898041 0.831561 0.078004
0.958542 0.835188 0.079947
1.000000 0.838815 0.081891
0.071389 0.850754 0.044359
0.130673 0.853726 0.047331
0.189957 0.856697 0.050302
0.249241 0.859668 0.053273
0.308525 0.862640 0.056245
0.367808 0.865611 0.059216
0.427092 0.868582 0.062187
0.486376 0.871553 0.065158
0.545660 0.874525 0.068130
0.604944 0.877496 0.071101
0.664260 0.880485 0.074045
0.724761 0.884112 0.075988
0.785262 0.887740 0.077932
0.845763 0.891367 0.079876
0.906264 0.894994 0.081819
0.966765 0.898622 0.083763
1.000000 0.902249 0.085707
0.077223 0.912900 0.050193
0.136506 0.915871 0.053164
0.195790 0.918843 0.056135
0.255074 0.921814 0.059107
0.314358 0.924785 0.062078
0.373642 0.927757 0.065049
0.432925 0.930728 0.068020
0.492209 0.933699 0.070992
0.551493 0.936671 0.073963
0.611982 0.940291 0.075917
0.672483 0.943919 0.077861
0.732984 0.947546 0.079804
0.793485 0.951173 0.081748
0.853986 0.954801 0.083691
0.914487 0.958428 0.085635
0.974989 0.962055 0.087579
1.000000 0.965683 0.089522
0.083056 0.975046 0.056026
0.142340 0.978017 0.058997
0.201624 0.980989 0.061969
0.260907 0.983960 0.064940
0.320191 0.986931 0.067911
0.379475 0.989902 0.070882
0.438759 0.992874 0.073854
0.499203 0.996470 0.075845
0.559704 1.000000 0.077789
0.620205 1.000000 0.079733
0.680706 1.000000 0.081676
0.741207 1.000000 0.083620
0.801708 1.000000 0.085563
0.862209 1.000000 0.087507
0.922711 1.000000 0.089451
0.983212 1.000000 0.091394
1.000000 1.000000 0.093338
0.000000 0.000000 0.060396
0.000000 0.000000 0.060799
0.060135 0.000000 0.061201
0.123024 0.000000 0.061604
0.185913 0.000000 0.062006
0.248801 0.000000 0.062409
0.311690 0.000000 0.062812
0.374579 0.000000 0.063214
0.437468 0.000000 0.063617
0.500357 0.000000 0.064019
0.563245 0.003845 0.064422
0.626134 0.008176 0.064824
0.689023 0.012507 0.065227
0.751912 0.016839 0.065630
0.814801 0.021170 0.066032
0.877690 0.025501 0.066435
0.939397 0.029387 0.067679
0.000000 0.025347 0.061186
0.010157 0.029679 0.061589
0.073046 0.034010 0.061992
0.135935 0.038341 0.062394
0.198823 0.042673 0.062797
0.261712 0.047004 0.063199
0.324601 0.051335 0.063602
0.387490 0.055666 0.064004
0.450379 0.059998 0.064407
0.513267 0.064329 0.064810
0.576156 0.068660 0.065212
0.639045 0.072992 0.065615
0.701934 0.077323 0.066017
0.764823 0.081654 0.066420
0.826662 0.085590 0.067570
0.885946 0.088561 0.070541
0.945230 0.091533 0.073513
0.000000 0.090163 0.061977
0.023068 0.094494 0.062379
0.085956 0.098826 0.062782
0.148845 0.103157 0.063184
0.211734 0.107488 0.063587
0.274623 0.111820 0.063990
0.337512 0.116151 0.064392
0.400400 0.120482 0.064795
0.463289 0.124814 0.065197
0.526178 0.129145 0.065600
0.589067 0.133476 0.066003
0.651956 0.137808 0.066405
0.713928 0.141793 0.067461
0.773212 0.144764 0.070432
0.832496 0.147736 0.073403
0.891780 0.150707 0.076375
0.951063 0.153678 0.079346
0.000000 0.154979 0.062767
0.035978 0.159310 0.063170
0.098867 0.163641 0.063572
0.161756 0.167973 0.063975
0.224645 0.172304 0.064377
0.287533 0.176635 0.064780
0.350422 0.180967 0.065183
0.413311 0.185298 0.065585
0.476200 0.189629 0.065988
0.539089 0.193961 0.066390
0.601194 0.197996 0.067351
0.660478 0.200968 0.070323
0.719761 0.203939 0.073294
0.779045 0.206910 0.076265
0.838329 0.209882 0.079237
0.897613 0.212853 0.082208
0.956897 0.215824 0.085179
0.000000 0.219795 0.063557
0.048889 0.224126 0.063960
0.111778 0.228457 0.064363
0.174667 0.232789 0.064765
0.237555 0.237120 0.065168
0.300444 0.241451 0.065570
0.363333 0.245783 0.065973
0.426222 0.250114 0.066376
0.488460 0.254200 0.067242
0.547743 0.257171 0.070213
0.607027 0.260142 0.073185
0.666311 0.263113 0.076156
0.725595 0.266085 0.079127
0.784879 0.269056 0.082099
0.844162 0.272027 0.085070
0.903446 0.274999 0.088041
0.962730 0.277970 0.091013
0.000000 0.284610 0.064348
0.061800 0.288942 0.064750
0.124688 0.293273 0.065153
0.187577 0.297604 0.065556
0.250466 0.301936 0.065958
0.313355 0.306267 0.066361
0.375725 0.310403 0.067133
0.435009 0.313374 0.070104
0.494293 0.316345 0.073075
0.553577 0.319317 0.076047
0.612860 0.322288 0.079018
0.672144 0.325259 0.081989
0.731428 0.328231 0.084961
0.790712 0.331202 0.087932
0.849996 0.334173 0.090903
0.909280 0.337145 0.093875
0.968563 0.340116 0.096846
0.011821 0.349426 0.065138
0.074710 0.353757 0.065541
0.137599 0.358089 0.065943
0.200488 0.362420 0.066346
0.262991 0.366606 0.067023
0.322275 0.369577 0.069995
0.381559 0.372549 0.072966
0.440842 0.375520 0.075937
0.500126 0.378491 0.078909
0.559410 0.381462 0.081880
0.618694 0.384434 0.084851
0.677978 0.387405 0.087823
0.737261 0.390376 0.090794
0.796545 0.393348 0.093765
0.855829 0.396319 0.096737
0.915113 0.399290 0.099708
0.974397 0.402262 0.102679
0.024732 0.414242 0.065929
0.087621 0.418573 0.066331
0.150257 0.422809 0.066914
0.209540 0.425780 0.069885
0.268824 0.428752 0.072857
0.328108 0.431723 0.075828
0.387392 0.434694 0.078799
0.446676 0.437666 0.081771
0.505959 0.440637 0.084742
0.565243 0.443608 0.087713
0.624527 0.446580 0.090685
0.683811 0.449551 0.093656
0.743095 0.452522 0.096627
0.802379 0.455494 0.099599
0.861662 0.458465 0.102570
0.920946 0.461436 0.105541
0.980230 0.464407 0.108512
0.037522 0.479012 0.066805
0.096806 0.481984 0.069776
0.156090 0.484955 0.072747
0.215374 0.487926 0.075719
0.274658 0.490898 0.078690
0.333941 0.493869 0.081661
0.393225 0.496840 0.084633
0.452509 0.499811 0.087604
0.511793 0.502783 0.090575
0.571077 0.505754 0.093547
0.630360 0.508725 0.096518
0.689644 0.511697 0.099489
0.748928 0.514668 0.102461
0.808212 0.517639 0.105432
0.867496 0.520611 0.108403
0.926779 0.523582 0.111374
0.986063 0.526553 0.114346
0.043356 0.541158 0.072638
0.102639 0.544129 0.075609
0.161923 0.547101 0.078581
0.221207 0.550072 0.081552
0.280491 0.553043 0.084523
0.339775 0.556015 0.087495
0.399058 0.558986 0.090466
0.458342 0.561957 0.093437
0.517626 0.564929 0.096409
0.576910 0.567900 0.099380
0.636194 0.570871 0.102351
0.695478 0.573843 0.105323
0.754761 0.576814 0.108294
0.814045 0.579785 0.111265
0.873329 0.582756 0.114236
0.932613 0.585728 0.117208
0.991897 0.588699 0.120179
0.049189 0.603304 0.078471
0.108473 0.606275 0.081443
0.167757 0.609247 0.084414
0.227040 0.612218 0.087385
0.286324 0.615189 0.090357
0.345608 0.618160 0.093328
0.404892 0.621132 0.096299
0.464176 0.624103 0.099271
0.523459 0.627074 0.102242
0.582743 0.630046 0.105213
0.642027 0.633017 0.108185
0.701311 0.635988 0.111156
0.760595 0.638960 0.114127
0.819878 0.641931 0.117098
0.879162 0.644902 0.120070
0.938446 0.647874 0.123041
0.997730 0.650845 0.126012
0.055022 0.665450 0.084305
0.114306 0.668421 0.087276
0.173590 0.671392 0.090247
0.232874 0.674364 0.093219
0.292157 0.677335 0.096190
0.351441 0.680306 0.099161
0.410725 0.683278 0.102133
0.470009 0.686249 0.105104
0.529293 0.689220 0.108075
0.588577 0.692192 0.111047
0.647860 0.695163 0.114018
0.707144 0.698134 0.116989
0.766428 0.701105 0.119960
0.825712 0.704077 0.122932
0.884996 0.707048 0.125903
0.944279 0.710019 0.128874
1.000000 0.713331 0.131313
0.060856 0.727596 0.090138
0.120139 0.730567 0.093109
0.179423 0.733538 0.096081
0.238707 0.736509 0.099052
0.297991 0.739481 0.102023
0.357275 0.742452 0.104995
0.416558 0.745423 0.107966
0.475842 0.748395 0.110937
0.535126 0.751366 0.113909
0.594410 0.754337 0.116880
0.653694 0.757309 0.119851
0.712977 0.760280 0.122822
0.772261 0.763251 0.125794
0.831545 0.766223 0.128765
0.891415 0.769510 0.131241
0.951916 0.773137 0.133185
1.000000 0.776765 0.135129
0.066689 0.789741 0.095971
0.125973 0.792713 0.098943
0.185256 0.795684 0.101914
0.244540 0.798655 0.104885
0.303824 0.801627 0.107857
0.363108 0.804598 0.110828
0.422392 0.807569 0.113799
0.481676 0.810541 0.116771
0.540959 0.813512 0.119742
0.600243 0.816483 0.122713
0.659527 0.819454 0.125684
0.718811 0.822426 0.128656
0.778636 0.825689 0.131170
0.839137 0.829316 0.133114
0.899638 0.832944 0.135057
0.960139 0.836571 0.137001
1.000000 0.840198 0.138944
0.072522 0.851887 0.101805
0.131806 0.854858 0.104776
0.191090 0.857830 0.107747
0.250374 0.860801 0.110719
0.309657 0.863772 0.113690
0.368941 0.866744 0.116661
0.428225 0.869715 0.119633
0.487509 0.872686 0.122604
0.546793 0.875658 0.125575
0.606076 0.878629 0.128546
0.665857 0.881868 0.131098
0.726358 0.885495 0.133042
0.786859 0.889123 0.134986
0.847360 0.892750 0.136929
0.907861 0.896377 0.138873
0.968362 0.900005 0.140816
1.000000 0.903632 0.142760
0.078355 0.914033 0.107638
0.137639 0.917004 0.110609
0.196923 0.919976 0.113581
0.256207 0.922947 0.116552
0.315491 0.925918 0.119523
0.374775 0.928890 0.122495
0.434058 0.931861 0.125466
0.493342 0.934832 0.128437
0.553078 0.938047 0.131027
0.613579 0.941674 0.132971
0.674080 0.945302 0.134914
0.734581 0.948929 0.136858
0.795082 0.952556 0.138801
0.855583 0.956184 0.140745
0.916084 0.959811 0.142689
0.976586 0.963438 0.144632
1.000000 0.967066 0.146576
0.084189 0.976179 0.113471
0.143473 0.979150 0.116443
0.202756 0.982121 0.119414
0.262040 0.985093 0.122385
0.321324 0.988064 0.125357
0.380608 0.991035 0.128328
0.440299 0.994226 0.130955
0.500800 0.997853 0.132899
0.561301 1.000000 0.134843
0.621802 1.000000 0.136786
0.682303 1.000000 0.138730
0.742804 1.000000 0.140673
0.803305 1.000000 0.142617
0.863806 1.000000 0.144561
0.924308 1.000000 0.146504
0.984809 1.000000 0.148448
1.000000 1.000000 0.150391
0.000000 0.000000 0.116862
0.000000 0.000000 0.117265
0.062642 0.000000 0.117667
0.125531 0.000000 0.118070
0.188420 0.000000 0.118472
0.251309 0.000000 0.118875
0.314198 0.000000 0.119278
0.377086 0.000000 0.119680
0.439975 0.000000 0.120083
0.502864 0.001165 0.120485
0.565753 0.005496 0.120888
0.628642 0.009827 0.121290
0.691530 0.014159 0.121693
0.754419 0.018490 0.122096
0.817308 0.022821 0.122498
0.880197 0.027153 0.122901
0.940530 0.030520 0.125125
0.000000 0.026999 0.117652
0.012664 0.031330 0.118055
0.075553 0.035661 0.118458
0.138442 0.039993 0.118860
0.201331 0.044324 0.119263
0.264219 0.048655 0.119665
0.327108 0.052987 0.120068
0.389997 0.057318 0.120470
0.452886 0.061649 0.120873
0.515775 0.065981 0.121276
0.578664 0.070312 0.121678
0.641552 0.074643 0.122081
0.704441 0.078974 0.122483
0.767330 0.083306 0.122886
0.827795 0.086723 0.125015
0.887079 0.089694 0.127987
0.946363 0.092665 0.130958
0.000000 0.091814 0.118443
0.025575 0.096146 0.118845
0.088464 0.100477 0.119248
0.151353 0.104808 0.119650
0.214241 0.109140 0.120053
0.277130 0.113471 0.120456
0.340019 0.117802 0.120858
0.402908 0.122134 0.121261
0.465797 0.126465 0.121663
0.528685 0.130796 0.122066
0.591574 0.135128 0.122469
0.654463 0.139459 0.122871
0.715061 0.142926 0.124906
0.774345 0.145897 0.127877
0.833629 0.148869 0.130849
0.892912 0.151840 0.133820
0.952196 0.154811 0.136791
0.000000 0.156630 0.119233
0.038486 0.160962 0.119636
0.101374 0.165293 0.120038
0.164263 0.169624 0.120441
0.227152 0.173955 0.120843
0.290041 0.178287 0.121246
0.352930 0.182618 0.121649
0.415818 0.186949 0.122051
0.478707 0.191281 0.122454
0.541596 0.195612 0.122856
0.602327 0.199129 0.124797
0.661611 0.202101 0.127768
0.720894 0.205072 0.130739
0.780178 0.208043 0.133711
0.839462 0.211014 0.136682
0.898746 0.213986 0.139653
0.958030 0.216957 0.142625
0.000000 0.221446 0.120023
0.051396 0.225777 0.120426
0.114285 0.230109 0.120829
0.177174 0.234440 0.121231
0.240063 0.238771 0.121634
0.302952 0.243103 0.122036
0.365840 0.247434 0.122439
0.428729 0.251765 0.122842
0.489592 0.255332 0.124687
0.548876 0.258304 0.127659
0.608160 0.261275 0.130630
0.667444 0.264246 0.133601
0.726728 0.267218 0.136573
0.786011 0.270189 0.139544
0.845295 0.273160 0.142515
0.904579 0.276132 0.145487
0.963863 0.279103 0.148458
0.001418 0.286262 0.120814
0.064307 0.290593 0.121216
0.127196 0.294924 0.121619
0.190085 0.299256 0.122022
0.252973 0.303587 0.122424
0.315862 0.307918 0.122827
0.376858 0.311536 0.124578
0.436142 0.314507 0.127549
0.495426 0.317478 0.130521
0.554710 0.320450 0.133492
0.613993 0.323421 0.136463
0.673277 0.326392 0.139435
0.732561 0.329363 0.142406
0.791845 0.332335 0.145377
0.851129 0.335306 0.148349
0.910412 0.338277 0.151320
0.969696 0.341249 0.154291
0.014329 0.351078 0.121604
0.077218 0.355409 0.122007
0.140106 0.359740 0.122409
0.202995 0.364072 0.122812
0.264124 0.367739 0.124469
0.323408 0.370710 0.127440
0.382691 0.373681 0.130411
0.441975 0.376653 0.133383
0.501259 0.379624 0.136354
0.560543 0.382595 0.139325
0.619827 0.385567 0.142297
0.679110 0.388538 0.145268
0.738394 0.391509 0.148239
0.797678 0.394481 0.151211
0.856962 0.397452 0.154182
0.916246 0.400423 0.157153
0.975530 0.403395 0.160125
0.027240 0.415893 0.122394
0.090128 0.420225 0.122797
0.151389 0.423942 0.124359
0.210673 0.426913 0.127331
0.269957 0.429885 0.130302
0.329241 0.432856 0.133273
0.388525 0.435827 0.136245
0.447809 0.438799 0.139216
0.507092 0.441770 0.142187
0.566376 0.444741 0.145159
0.625660 0.447712 0.148130
0.684944 0.450684 0.151101
0.744228 0.453655 0.154073
0.803511 0.456626 0.157044
0.862795 0.459598 0.160015
0.922079 0.462569 0.162987
0.981363 0.465540 0.165958
0.038655 0.480145 0.124250
0.097939 0.483116 0.127221
0.157223 0.486088 0.130193
0.216507 0.489059 0.133164
0.275790 0.492030 0.136135
0.335074 0.495002 0.139107
0.394358 0.497973 0.142078
0.453642 0.500944 0.145049
0.512926 0.503916 0.148021
0.572209 0.506887 0.150992
0.631493 0.509858 0.153963
0.690777 0.512830 0.156935
0.750061 0.515801 0.159906
0.809345 0.518772 0.162877
0.868629 0.521744 0.165849
0.927912 0.524715 0.168820
0.987196 0.527686 0.171791
0.044488 0.542291 0.130083
0.103772 0.545262 0.133055
0.163056 0.548234 0.136026
0.222340 0.551205 0.138997
0.281624 0.554176 0.141969
0.340908 0.557148 0.144940
0.400191 0.560119 0.147911
0.459475 0.563090 0.150883
0.518759 0.566061 0.153854
0.578043 0.569033 0.156825
0.637327 0.572004 0.159797
0.696610 0.574975 0.162768
0.755894 0.577947 0.165739
0.815178 0.580918 0.168711
0.874462 0.583889 0.171682
0.933746 0.586861 0.174653
0.993029 0.589832 0.177624
0.050322 0.604437 0.135917
0.109606 0.607408 0.138888
0.168889 0.610379 0.141859
0.228173 0.613351 0.144831
0.287457 0.616322 0.147802
0.346741 0.619293 0.150773
0.406025 0.622265 0.153745
0.465308 0.625236 0.156716
0.524592 0.628207 0.159687
0.583876 0.631179 0.162659
0.643160 0.634150 0.165630
0.702444 0.637121 0.168601
0.761728 0.640093 0.171573
0.821011 0.643064 0.174544
0.880295 0.646035 0.177515
0.939579 0.649006 0.180486
0.998863 0.651978 0.183458
0.056155 0.666583 0.141750
0.115439 0.669554 0.144721
0.174723 0.672525 0.147693
0.234007 0.675497 0.150664
0.293290 0.678468 0.153635
0.352574 0.681439 0.156607
0.411858 0.684410 0.159578
0.471142 0.687382 0.162549
0.530426 0.690353 0.165521
0.589709 0.693324 0.168492
0.648993 0.696296 0.171463
0.708277 0.699267 0.174435
0.767561 0.702238 0.177406
0.826845 0.705210 0.180377
0.886128 0.708181 0.183348
0.945412 0.711152 0.186320
1.000000 0.714714 0.188366
0.061988 0.728728 0.147583
0.121272 0.731700 0.150555
0.180556 0.734671 0.153526
0.239840 0.737642 0.156497
0.299124 0.740614 0.159469
0.358407 0.743585 0.162440
0.417691 0.746556 0.165411
0.476975 0.749528 0.168383
0.536259 0.752499 0.171354
0.595543 0.755470 0.174325
0.654827 0.758442 0.177297
0.714110 0.761413 0.180268
0.773394 0.764384 0.183239
0.832678 0.767355 0.186210
0.893012 0.770893 0.188295
0.953513 0.774520 0.190239
1.000000 0.778148 0.192182
0.067822 0.790874 0.153417
0.127106 0.793846 0.156388
0.186389 0.796817 0.159359
0.245673 0.799788 0.162331
0.304957 0.802759 0.165302
0.364241 0.805731 0.168273
0.423525 0.808702 0.171245
0.482808 0.811673 0.174216
0.542092 0.814645 0.177187
0.601376 0.817616 0.180159
0.660660 0.820587 0.183130
0.719944 0.823559 0.186101
0.780233 0.827072 0.188223
0.840734 0.830699 0.190167
0.901235 0.834327 0.192111
0.961736 0.837954 0.194054
1.000000 0.841581 0.195998
0.073655 0.853020 0.159250
0.132939 0.855991 0.162221
0.192223 0.858963 0.165193
0.251506 0.861934 0.168164
0.310790 0.864905 0.171135
0.370074 0.867877 0.174107
0.429358 0.870848 0.177078
0.488642 0.873819 0.180049
0.547926 0.876791 0.183021
0.607209 0.879762 0.185992
0.667454 0.883251 0.188152
0.727955 0.886878 0.190096
0.788456 0.890506 0.192039
0.848957 0.894133 0.193983
0.909458 0.897760 0.195926
0.969959 0.901388 0.197870
1.000000 0.905015 0.199814
0.079488 0.915166 0.165083
0.138772 0.918137 0.168055
0.198056 0.921108 0.171026
0.257340 0.924080 0.173997
0.316624 0.927051 0.176969
0.375907 0.930022 0.179940
0.435191 0.932994 0.182911
0.494475 0.935965 0.185883
0.554675 0.939430 0.188080
0.615176 0.943057 0.190024
0.675677 0.946685 0.191968
0.736178 0.950312 0.193911
0.796679 0.953939 0.195855
0.857180 0.957567 0.197798
0.917681 0.961194 0.199742
0.978182 0.964821 0.201686
1.000000 0.968449 0.203629
0.085322 0.977312 0.170917
0.144605 0.980283 0.173888
0.203889 0.983254 0.176859
0.263173 0.986226 0.179831
0.322457 0.989197 0.182802
0.381741 0.992168 0.185773
0.441896 0.995609 0.188009
0.502397 0.999236 0.189953
0.562898 1.000000 0.191896
0.623399 1.000000 0.193840
0.683900 1.000000 0.195783
0.744401 1.000000 0.197727
0.804902 1.000000 0.199671
0.865403 1.000000 0.201614
0.925904 1.000000 0.203558
0.986406 1.000000 0.205501
1.000000 1.000000 0.207445
0.000000 0.000000 0.173328
0.002261 0.000000 0.173731
0.065150 0.000000 0.174133
0.128039 0.000000 0.174536
0.190927 0.000000 0.174938
0.253816 0.000000 0.175341
0.316705 0.000000 0.175744
0.379594 0.000000 0.176146
0.442483 0.000000 0.176549
0.505371 0.002816 0.176951
0.568260 0.007147 0.177354
0.631149 0.011479 0.177756
0.694038 0.015810 0.178159
0.756927 0.020141 0.178562
0.819815 0.024473 0.178964
0.882379 0.028681 0.179599
0.941663 0.031653 0.182570
0.000000 0.028650 0.174118
0.015172 0.032981 0.174521
0.078060 0.037313 0.174924
