tools/fandomforge/assets/color_luts/leon-re6-cutscenes.cube
TITLE "leon-re6-cutscenes-RE6"
LUT_3D_SIZE 9
0.000000 0.000000 0.037620
0.094418 0.000000 0.024361
0.242801 0.000000 0.011103
0.391184 0.000000 0.000000
0.539567 0.000000 0.000000
0.687949 0.000000 0.000000
0.836332 0.000000 0.000000
0.984715 0.000000 0.000000
1.000000 0.000000 0.000000
0.000000 0.128499 0.011591
0.104789 0.125224 0.000000
0.253172 0.121949 0.000000
0.401555 0.118675 0.000000
0.549938 0.115400 0.000000
0.698320 0.112126 0.000000
0.846703 0.108851 0.000000
0.987171 0.105675 0.000000
1.000000 0.102506 0.000000
0.000000 0.265170 0.000000
0.115161 0.261895 0.000000
0.263543 0.258621 0.000000
0.411926 0.255346 0.000000
0.560309 0.252071 0.000000
0.701088 0.248892 0.000000
0.841018 0.245722 0.000000
0.980949 0.242553 0.000000
1.000000 0.239383 0.000000
0.000000 0.401841 0.000000
0.125532 0.398567 0.000000
0.273915 0.395292 0.000000
0.415004 0.392108 0.000000
0.554935 0.388939 0.000000
0.694865 0.385769 0.000000
0.834796 0.382600 0.000000
0.974727 0.379431 0.000000
1.000000 0.376261 0.000000
0.000000 0.538512 0.000000
0.128921 0.535325 0.000000
0.268851 0.532155 0.000000
0.408782 0.528986 0.000000
0.548713 0.525817 0.000000
0.688643 0.522647 0.000000
0.828574 0.519478 0.000000
0.968504 0.516308 0.000000
1.000000 0.513139 0.000000
0.000000 0.675372 0.000000
0.122699 0.672203 0.000000
0.262629 0.669033 0.000000
0.402560 0.665864 0.000000
0.542490 0.662694 0.000000
0.682421 0.659525 0.000000
0.822352 0.656356 0.000000
0.962282 0.653186 0.000000
1.000000 0.650017 0.000000
0.000000 0.812250 0.000000
0.116476 0.809080 0.000000
0.256407 0.805911 0.000000
0.396338 0.802742 0.000000
0.536268 0.799572 0.000000
0.676199 0.796403 0.000000
0.816129 0.793233 0.000000
0.956265 0.790197 0.000000
1.000000 0.789686 0.000000
0.000000 0.949128 0.000000
0.110254 0.945958 0.000000
0.250185 0.942789 0.000000
0.390115 0.939619 0.000000
0.530046 0.936450 0.000000
0.670031 0.933316 0.000000
0.814046 0.932804 0.000000
0.958060 0.932293 0.000000
1.000000 0.931781 0.000000
0.000000 1.000000 0.000000
0.104032 1.000000 0.000000
0.243963 1.000000 0.000000
0.383893 1.000000 0.000000
0.527812 1.000000 0.000000
0.671827 1.000000 0.000000
0.815841 1.000000 0.000000
0.959856 1.000000 0.000000
1.000000 1.000000 0.000000
0.000000 0.000000 0.175665
0.096432 0.000000 0.162406
0.244815 0.000000 0.149148
0.393198 0.000000 0.135890
0.541581 0.000000 0.122632
0.689963 0.000000 0.109373
0.838346 0.000000 0.096115
0.986729 0.000000 0.082857
1.000000 0.000000 0.073175
0.000000 0.127250 0.149636
0.106804 0.123976 0.136378
0.255186 0.120701 0.123119
0.403569 0.117426 0.109861
0.551952 0.114152 0.096603
0.700335 0.110877 0.083345
0.846032 0.107636 0.073292
0.985963 0.104467 0.070123
1.000000 0.101297 0.066953
0.000000 0.263921 0.123607
0.117175 0.260647 0.110349
0.265558 0.257372 0.097091
0.413940 0.254098 0.083832
0.559949 0.250853 0.073409
0.699879 0.247683 0.070239
0.839810 0.244514 0.067070
0.979740 0.241344 0.063900
1.000000 0.238175 0.060731
0.000000 0.400593 0.097578
0.127546 0.397318 0.084320
0.273865 0.394069 0.073525
0.413796 0.390900 0.070356
0.553726 0.387730 0.067186
0.693657 0.384561 0.064017
0.833588 0.381392 0.060848
0.973518 0.378222 0.057678
1.000000 0.375053 0.054509
0.000000 0.537286 0.073642
0.127712 0.534116 0.070472
0.267643 0.530947 0.067303
0.407574 0.527778 0.064134
0.547504 0.524608 0.060964
0.687435 0.521439 0.057795
0.827365 0.518269 0.054625
0.967296 0.515100 0.051456
1.000000 0.511931 0.048287
0.000000 0.674164 0.067420
0.121490 0.670994 0.064250
0.261421 0.667825 0.061081
0.401351 0.664655 0.057911
0.541282 0.661486 0.054742
0.681213 0.658317 0.051573
0.821143 0.655147 0.048403
0.961074 0.651978 0.045234
1.000000 0.648808 0.042064
0.000000 0.811041 0.061197
0.115268 0.807872 0.058028
0.255199 0.804703 0.054859
0.395129 0.801533 0.051689
0.535060 0.798364 0.048520
0.674990 0.795194 0.045350
0.814921 0.792025 0.042181
0.956613 0.790002 0.037697
1.000000 0.789491 0.031480
0.000000 0.947919 0.054975
0.109046 0.944750 0.051806
0.248976 0.941580 0.048636
0.388907 0.938411 0.045467
0.528838 0.935242 0.042298
0.670380 0.933121 0.037926
0.814394 0.932609 0.031709
0.958409 0.932098 0.025492
1.000000 0.931586 0.019276
0.000000 1.000000 0.048753
0.102824 1.000000 0.045584
0.242754 1.000000 0.042414
0.384146 1.000000 0.038154
0.528161 1.000000 0.031938
0.672175 1.000000 0.025721
0.816190 1.000000 0.019505
0.960205 1.000000 0.013288
1.000000 1.000000 0.007071
0.000000 0.000000 0.313710
0.098447 0.000000 0.300451
0.246829 0.000000 0.287193
0.395212 0.000000 0.273935
0.543595 0.000000 0.260677
0.691978 0.000000 0.247418
0.840360 0.000000 0.234160
0.988743 0.000000 0.220902
1.000000 0.000000 0.215067
0.000000 0.126002 0.287681
0.108818 0.122727 0.274423
0.257201 0.119452 0.261164
0.405583 0.116178 0.247906
0.553966 0.112903 0.234648
0.702349 0.109629 0.221390
0.844824 0.106428 0.215184
0.984754 0.103258 0.212014
1.000000 0.100089 0.208845
0.000000 0.262673 0.261652
0.119189 0.259398 0.248394
0.267572 0.256124 0.235136
0.415954 0.252849 0.221877
0.558740 0.249644 0.215300
0.698671 0.246475 0.212131
0.838601 0.243305 0.208961
0.978532 0.240136 0.205792
1.000000 0.236967 0.202623
0.000000 0.399344 0.235623
0.129560 0.396070 0.222365
0.272657 0.392861 0.215417
0.412587 0.389691 0.212247
0.552518 0.386522 0.209078
0.692449 0.383353 0.205909
0.832379 0.380183 0.202739
0.972310 0.377014 0.199570
1.000000 0.373844 0.196400
0.000000 0.536077 0.215533
0.126504 0.532908 0.212364
0.266435 0.529739 0.209195
0.406365 0.526569 0.206025
0.546296 0.523400 0.202856
0.686226 0.520230 0.199686
0.826157 0.517061 0.196517
0.966088 0.513892 0.193348
1.000000 0.510722 0.190178
0.000000 0.672955 0.209311
0.120282 0.669786 0.206142
0.260212 0.666616 0.202972
0.400143 0.663447 0.199803
0.540074 0.660278 0.196634
0.680004 0.657108 0.193464
0.819935 0.653939 0.190295
0.959865 0.650769 0.187125
1.000000 0.647600 0.183956
0.000000 0.809833 0.203089
0.114060 0.806664 0.199920
0.253990 0.803494 0.196750
0.393921 0.800325 0.193581
0.533851 0.797155 0.190411
0.673782 0.793986 0.187242
0.813713 0.790817 0.184073
0.956962 0.789807 0.178427
1.000000 0.789295 0.172210
0.000000 0.946711 0.196867
0.107837 0.943541 0.193697
0.247768 0.940372 0.190528
0.387699 0.937203 0.187359
0.527629 0.934033 0.184189
0.670729 0.932926 0.178655
0.814743 0.932414 0.172439
0.958758 0.931903 0.166222
1.000000 0.931391 0.160006
0.000000 1.000000 0.190645
0.101615 1.000000 0.187475
0.241546 1.000000 0.184306
0.384495 1.000000 0.178884
0.528509 1.000000 0.172667
0.672524 1.000000 0.166451
0.816539 1.000000 0.160234
0.960553 1.000000 0.154018
1.000000 1.000000 0.147801
0.000000 0.000000 0.451755
0.100461 0.000000 0.438496
0.248844 0.000000 0.425238
0.397226 0.000000 0.411980
0.545609 0.000000 0.398722
0.693992 0.000000 0.385463
0.842375 0.000000 0.372205
0.989768 0.000000 0.360128
1.000000 0.000000 0.356959
0.000000 0.124753 0.425726
0.110832 0.121479 0.412468
0.259215 0.118204 0.399209
0.407597 0.114929 0.385951
0.555980 0.111655 0.372693
0.703685 0.108389 0.360245
0.843615 0.105219 0.357075
0.983546 0.102050 0.353906
1.000000 0.098880 0.350736
0.000000 0.261424 0.399697
0.121203 0.258150 0.386439
0.269586 0.254875 0.373181
0.417601 0.251605 0.360361
0.557532 0.248436 0.357192
0.697462 0.245266 0.354022
0.837393 0.242097 0.350853
0.977324 0.238928 0.347684
1.000000 0.235758 0.344514
0.000000 0.398096 0.373668
0.131518 0.394822 0.360478
0.271448 0.391652 0.357308
0.411379 0.388483 0.354139
0.551310 0.385314 0.350970
0.691240 0.382144 0.347800
0.831171 0.378975 0.344631
0.971101 0.375805 0.341461
1.000000 0.372636 0.338292
0.000000 0.534869 0.357425
0.125296 0.531700 0.354256
0.265226 0.528530 0.351086
0.405157 0.525361 0.347917
0.545087 0.522191 0.344747
0.685018 0.519022 0.341578
0.824949 0.515853 0.338409
0.964879 0.512683 0.335239
1.000000 0.509514 0.332070
0.000000 0.671747 0.351203
0.119073 0.668577 0.348033
0.259004 0.665408 0.344864
0.398935 0.662239 0.341695
0.538865 0.659069 0.338525
0.678796 0.655900 0.335356
0.818726 0.652730 0.332186
0.958657 0.649561 0.329017
1.000000 0.647005 0.325144
0.000000 0.808625 0.344981
0.112851 0.805455 0.341811
0.252782 0.802286 0.338642
0.392712 0.799116 0.335472
0.532643 0.795947 0.332303
0.672574 0.792778 0.329134
0.813296 0.790124 0.325373
0.957311 0.789612 0.319156
1.000000 0.789100 0.312940
0.000000 0.945502 0.338758
0.106629 0.942333 0.335589
0.246560 0.939164 0.332420
0.386490 0.935994 0.329250
0.527063 0.933242 0.325602
0.671077 0.932731 0.319385
0.815092 0.932219 0.313169
0.959106 0.931708 0.306952
1.000000 0.931196 0.300735
0.000000 1.000000 0.332536
0.100407 1.000000 0.329367
0.240829 1.000000 0.325830
0.384844 1.000000 0.319614
0.528858 1.000000 0.313397
0.672873 1.000000 0.307181
0.816887 1.000000 0.300964
0.960902 1.000000 0.294748
1.000000 1.000000 0.288531
0.000000 0.000000 0.589800
0.102475 0.000000 0.576541
0.250858 0.000000 0.563283
0.399240 0.000000 0.550025
0.547623 0.000000 0.536767
0.696006 0.000000 0.523508
0.844389 0.000000 0.510250
0.988560 0.000000 0.502020
1.000000 0.000000 0.498850
0.000000 0.123505 0.563771
0.112846 0.120230 0.550513
0.261229 0.116955 0.537254
0.409612 0.113681 0.523996
0.557994 0.110406 0.510738
0.702476 0.107180 0.502136
0.842407 0.104011 0.498967
0.982337 0.100841 0.495797
1.000000 0.097672 0.492628
0.000000 0.260176 0.537742
0.123217 0.256901 0.524484
0.271600 0.253627 0.511226
0.416393 0.250397 0.502253
0.556323 0.247227 0.499083
0.696254 0.244058 0.495914
0.836185 0.240889 0.492745
0.976115 0.237719 0.489575
1.000000 0.234550 0.486406
0.000000 0.396847 0.511713
0.130309 0.393613 0.502369
0.270240 0.390444 0.499200
0.410171 0.387275 0.496031
0.550101 0.384105 0.492861
0.690032 0.380936 0.489692
0.829962 0.377766 0.486522
0.969893 0.374597 0.483353
1.000000 0.371428 0.480184
0.000000 0.533661 0.499317
0.124087 0.530491 0.496147
0.264018 0.527322 0.492978
0.403948 0.524152 0.489808
0.543879 0.520983 0.486639
0.683810 0.517814 0.483470
0.823740 0.514644 0.480300
0.963671 0.511475 0.477131
1.000000 0.508305 0.473961
0.000000 0.670538 0.493094
0.117865 0.667369 0.489925
0.257796 0.664200 0.486756
0.397726 0.661030 0.483586
0.537657 0.657861 0.480417
0.677587 0.654691 0.477247
0.817518 0.651522 0.474078
0.957449 0.648353 0.470909
1.000000 0.646810 0.465874
0.000000 0.807416 0.486872
0.111643 0.804247 0.483703
0.251573 0.801077 0.480533
0.391504 0.797908 0.477364
0.531435 0.794739 0.474195
0.671365 0.791569 0.471025
0.813645 0.789929 0.466103
0.957660 0.789417 0.459886
1.000000 0.788905 0.453670
0.000000 0.944294 0.480650
0.105421 0.941125 0.477481
0.245351 0.937955 0.474311
0.385282 0.934786 0.471142
0.527411 0.933047 0.466332
0.671426 0.932536 0.460115
0.815441 0.932024 0.453898
0.959455 0.931512 0.447682
1.000000 0.931001 0.441465
0.000000 1.000000 0.474428
0.099198 1.000000 0.471258
0.241178 1.000000 0.466560
0.385192 1.000000 0.460344
0.529207 1.000000 0.454127
0.673221 1.000000 0.447911
0.817236 1.000000 0.441694
0.961251 1.000000 0.435477
1.000000 1.000000 0.429261
0.000000 0.000000 0.727845
0.104489 0.000000 0.714586
0.252872 0.000000 0.701328
0.401255 0.000000 0.688070
0.549637 0.000000 0.674812
0.698020 0.000000 0.661553
0.846403 0.000000 0.648295
0.987351 0.000000 0.643911
1.000000 0.000000 0.640742
0.000000 0.122256 0.701816
0.114860 0.118982 0.688558
0.263243 0.115707 0.675299
0.411626 0.112432 0.662041
0.560009 0.109158 0.648783
0.701268 0.105972 0.644028
0.841198 0.102802 0.640858
0.981129 0.099633 0.637689
1.000000 0.096464 0.634520
0.000000 0.258927 0.675787
0.125231 0.255653 0.662529
0.273614 0.252378 0.649271
0.415184 0.249188 0.644144
0.555115 0.246019 0.640975
0.695046 0.242850 0.637806
0.834976 0.239680 0.634636
0.974907 0.236511 0.631467
1.000000 0.233341 0.628297
0.000000 0.395599 0.649759
0.129101 0.392405 0.644261
0.269032 0.389236 0.641092
0.408962 0.386066 0.637922
0.548893 0.382897 0.634753
0.688823 0.379727 0.631583
0.828754 0.376558 0.628414
0.968685 0.373389 0.625245
1.000000 0.370219 0.622075
0.000000 0.532452 0.641208
0.122879 0.529283 0.638039
0.262809 0.526113 0.634869
0.402740 0.522944 0.631700
0.542671 0.519775 0.628531
0.682601 0.516605 0.625361
0.822532 0.513436 0.622192
0.962462 0.510266 0.619022
1.000000 0.507097 0.615853
0.000000 0.669330 0.634986
0.116657 0.666161 0.631817
0.256587 0.662991 0.628647
0.396518 0.659822 0.625478
0.536448 0.656652 0.622308
0.676379 0.653483 0.619139
0.816310 0.650314 0.615970
0.956240 0.647144 0.612800
1.000000 0.646615 0.606604
0.000000 0.806208 0.628764
0.110434 0.803038 0.625594
0.250365 0.799869 0.622425
0.390296 0.796700 0.619256
0.530226 0.793530 0.616086
0.670157 0.790361 0.612917
0.813994 0.789734 0.606833
0.958008 0.789222 0.600616
1.000000 0.788710 0.594399
0.000000 0.943086 0.622542
0.104212 0.939916 0.619372
0.244143 0.936747 0.616203
0.384073 0.933577 0.613033
0.527760 0.932852 0.607061
0.671775 0.932341 0.600845
0.815789 0.931829 0.594628
0.959804 0.931317 0.588412
1.000000 0.930806 0.582195
0.000000 1.000000 0.616319
0.097990 1.000000 0.613150
0.241526 1.000000 0.607290
0.385541 1.000000 0.601073
0.529556 1.000000 0.594857
0.673570 1.000000 0.588640
0.817585 1.000000 0.582424
0.961599 1.000000 0.576207
1.000000 1.000000 0.569991
0.000000 0.000000 0.865890
0.106503 0.000000 0.852631
0.254886 0.000000 0.839373
0.403269 0.000000 0.826115
0.551652 0.000000 0.812857
0.700034 0.000000 0.799598
0.846212 0.000000 0.788972
0.986143 0.000000 0.785803
1.000000 0.000000 0.782633
0.000000 0.121008 0.839861
0.116874 0.117733 0.826603
0.265257 0.114458 0.813344
0.413640 0.111184 0.800086
0.560129 0.107933 0.789089
0.700059 0.104763 0.785919
0.839990 0.101594 0.782750
0.979921 0.098425 0.779581
1.000000 0.095255 0.776411
0.000000 0.257679 0.813832
0.127246 0.254404 0.800574
0.274045 0.251149 0.789205
0.413976 0.247980 0.786036
0.553907 0.244811 0.782867
0.693837 0.241641 0.779697
0.833768 0.238472 0.776528
0.973698 0.235302 0.773358
1.000000 0.232133 0.770189
0.000000 0.394366 0.789322
0.127893 0.391197 0.786153
0.267823 0.388027 0.782983
0.407754 0.384858 0.779814
0.547684 0.381688 0.776644
0.687615 0.378519 0.773475
0.827546 0.375350 0.770306
0.967476 0.372180 0.767136
1.000000 0.369011 0.763967
0.000000 0.531244 0.783100
0.121670 0.528074 0.779930
0.261601 0.524905 0.776761
0.401532 0.521736 0.773592
0.541462 0.518566 0.770422
0.681393 0.515397 0.767253
0.821323 0.512227 0.764083
0.961254 0.509058 0.760914
1.000000 0.505889 0.757745
0.000000 0.668122 0.776878
0.115448 0.664952 0.773708
0.255379 0.661783 0.770539
0.395309 0.658613 0.767369
0.535240 0.655444 0.764200
0.675171 0.652275 0.761031
0.815101 0.649105 0.757861
0.956561 0.646931 0.753550
1.000000 0.646420 0.747334
0.000000 0.804999 0.770655
0.109226 0.801830 0.767486
0.249157 0.798661 0.764317
0.389087 0.795491 0.761147
0.529018 0.792322 0.757978
0.670328 0.790050 0.753779
0.814342 0.789538 0.747562
0.958357 0.789027 0.741346
1.000000 0.788515 0.735129
0.000000 0.941877 0.764433
0.103004 0.938708 0.761264
0.242934 0.935538 0.758094
0.384094 0.933169 0.754008
0.528109 0.932657 0.747791
0.672123 0.932146 0.741575
0.816138 0.931634 0.735358
0.960153 0.931122 0.729141
1.000000 0.930611 0.722925
0.000000 1.000000 0.758211
0.097861 1.000000 0.754236
0.241875 1.000000 0.748020
0.385890 1.000000 0.741803
0.529904 1.000000 0.735587
0.673919 1.000000 0.729370
0.817933 1.000000 0.723154
0.961948 1.000000 0.716937
1.000000 1.000000 0.710720
0.000000 0.000000 1.000000
0.108517 0.000000 0.990676
0.256900 0.000000 0.977418
0.405283 0.000000 0.964160
0.553666 0.000000 0.950902
0.702048 0.000000 0.937643
0.845004 0.000000 0.930864
0.984934 0.000000 0.927694
1.000000 0.000000 0.924525
0.000000 0.119759 0.977906
0.118889 0.116484 0.964648
0.267271 0.113210 0.951389
0.415654 0.109935 0.938131
0.558920 0.106724 0.930980
0.698851 0.103555 0.927811
0.838782 0.100386 0.924642
0.978712 0.097216 0.921472
1.000000 0.094047 0.918303
0.000000 0.256430 0.951877
0.129260 0.253156 0.938619
0.272837 0.249941 0.931097
0.412768 0.246772 0.927928
0.552698 0.243602 0.924758
0.692629 0.240433 0.921589
0.832559 0.237263 0.918419
0.972490 0.234094 0.915250
1.000000 0.230925 0.912081
0.000000 0.393158 0.931214
0.126684 0.389988 0.928044
0.266615 0.386819 0.924875
0.406545 0.383649 0.921705
0.546476 0.380480 0.918536
0.686407 0.377311 0.915367
0.826337 0.374141 0.912197
0.966268 0.370972 0.909028
1.000000 0.367802 0.905858
0.000000 0.530035 0.924991
0.120462 0.526866 0.921822
0.260393 0.523697 0.918653
0.400323 0.520527 0.915483
0.540254 0.517358 0.912314
0.680184 0.514188 0.909144
0.820115 0.511019 0.905975
0.960046 0.507850 0.902806
1.000000 0.504680 0.899636
0.000000 0.666913 0.918769
0.114240 0.663744 0.915600
0.254170 0.660574 0.912430
0.394101 0.657405 0.909261
0.534032 0.654236 0.906092
0.673962 0.651066 0.902922
0.813893 0.647897 0.899753
0.956910 0.646736 0.894280
1.000000 0.646225 0.888064
0.000000 0.803791 0.912547
0.108018 0.800622 0.909378
0.247948 0.797452 0.906208
0.387879 0.794283 0.903039
0.527809 0.791113 0.899869
0.670677 0.789855 0.894509
0.814691 0.789343 0.888292
0.958706 0.788832 0.882076
1.000000 0.788320 0.875859
0.000000 0.940669 0.906325
0.101795 0.937499 0.903155
0.241726 0.934330 0.899986
0.384443 0.932974 0.894738
0.528457 0.932462 0.888521
0.672472 0.931951 0.882304
0.816487 0.931439 0.876088
0.960501 0.930927 0.869871
1.000000 0.930416 0.863655
0.000000 1.000000 0.900103
0.098209 1.000000 0.894966
0.242224 1.000000 0.888750
0.386238 1.000000 0.882533
0.530253 1.000000 0.876317
0.674268 1.000000 0.870100
0.818282 1.000000 0.863883
0.962297 1.000000 0.857667
1.000000 1.000000 0.851450
0.000000 0.000000 1.000000
0.110532 0.000000 1.000000
0.258914 0.000000 1.000000
0.407297 0.000000 1.000000
0.555680 0.000000 1.000000
0.703865 0.000000 1.000000
0.843795 0.000000 1.000000
0.983726 0.000000 1.000000
1.000000 0.000000 1.000000
0.000000 0.118511 1.000000
0.120903 0.115236 1.000000
0.269285 0.111961 1.000000
0.417668 0.108687 1.000000
0.557712 0.105516 1.000000
0.697643 0.102347 1.000000
0.837573 0.099177 1.000000
0.977504 0.096008 1.000000
1.000000 0.092838 1.000000
0.000000 0.255182 1.000000
0.131274 0.251907 1.000000
0.271629 0.248733 1.000000
0.411559 0.245563 1.000000
0.551490 0.242394 1.000000
0.691420 0.239224 1.000000
0.831351 0.236055 1.000000
0.971282 0.232886 1.000000
1.000000 0.229716 1.000000
0.000000 0.391949 1.000000
0.125476 0.388780 1.000000
0.265406 0.385610 1.000000
0.405337 0.382441 1.000000
0.545268 0.379272 1.000000
0.685198 0.376102 1.000000
0.825129 0.372933 1.000000
0.965059 0.369763 1.000000
1.000000 0.366594 1.000000
0.000000 0.528827 1.000000
0.119254 0.525658 1.000000
0.259184 0.522488 1.000000
0.399115 0.519319 1.000000
0.539045 0.516149 1.000000
0.678976 0.512980 1.000000
0.818907 0.509811 1.000000
0.958837 0.506641 1.000000
1.000000 0.503934 1.000000
0.000000 0.665705 1.000000
0.113031 0.662535 1.000000
0.252962 0.659366 1.000000
0.392893 0.656197 1.000000
0.532823 0.653027 1.000000
0.672754 0.649858 1.000000
0.813244 0.647053 1.000000
0.957259 0.646541 1.000000
1.000000 0.646029 1.000000
0.000000 0.802583 1.000000
0.106809 0.799413 1.000000
0.246740 0.796244 1.000000
0.386670 0.793074 1.000000
0.527011 0.790172 1.000000
0.671025 0.789660 1.000000
0.815040 0.789148 1.000000
0.959054 0.788637 1.000000
1.000000 0.788125 1.000000
0.000000 0.939460 1.000000
0.100587 0.936291 1.000000
0.240777 0.933290 1.000000
0.384792 0.932779 1.000000
0.528806 0.932267 1.000000
0.672821 0.931755 1.000000
0.816835 0.931244 1.000000
0.960850 0.930732 1.000000
1.000000 0.930221 1.000000
0.000000 1.000000 1.000000
0.098558 1.000000 1.000000
0.242573 1.000000 1.000000
0.386587 1.000000 1.000000
0.530602 1.000000 1.000000
0.674616 1.000000 1.000000
0.818631 1.000000 1.000000
0.962645 1.000000 0.998397
1.000000 1.000000 0.992180
