tools/fandomforge/assets/color_luts/leon-infinite-darkness.cube
TITLE "leon-infinite-darkness-ID"
LUT_3D_SIZE 9
0.000000 0.000000 0.000000
0.046261 0.000000 0.000000
0.203962 0.000000 0.000000
0.361663 0.000000 0.000000
0.519364 0.000000 0.000000
0.677065 0.000000 0.000000
0.834767 0.000000 0.000000
0.992468 0.000000 0.000000
1.000000 0.000000 0.000000
0.000000 0.086309 0.000000
0.059539 0.085551 0.000000
0.217241 0.084793 0.000000
0.374942 0.084035 0.000000
0.532643 0.083277 0.000000
0.690344 0.082519 0.000000
0.848045 0.081760 0.000000
0.997400 0.079700 0.000000
1.000000 0.077551 0.000000
0.000000 0.235758 0.000000
0.072818 0.235000 0.000000
0.230519 0.234242 0.000000
0.388220 0.233484 0.000000
0.545921 0.232726 0.000000
0.695604 0.230716 0.000000
0.844392 0.228567 0.000000
0.993181 0.226418 0.000000
1.000000 0.224269 0.000000
0.000000 0.385207 0.000000
0.086096 0.384449 0.000000
0.243797 0.383691 0.000000
0.393808 0.381733 0.000000
0.542596 0.379584 0.000000
0.691385 0.377435 0.000000
0.840173 0.375286 0.000000
0.988962 0.373137 0.000000
1.000000 0.370988 0.000000
0.000000 0.534657 0.000000
0.092012 0.532749 0.000000
0.240800 0.530600 0.000000
0.389589 0.528451 0.000000
0.538377 0.526302 0.000000
0.687166 0.524153 0.000000
0.835954 0.522004 0.000000
0.984743 0.519855 0.000000
1.000000 0.517706 0.000000
0.000000 0.681617 0.000000
0.087793 0.679468 0.000000
0.236581 0.677319 0.000000
0.385370 0.675170 0.000000
0.534158 0.673021 0.000000
0.682947 0.670872 0.000000
0.831735 0.668723 0.000000
0.980523 0.666573 0.000000
1.000000 0.664424 0.000000
0.000000 0.828335 0.000000
0.083574 0.826186 0.000000
0.232362 0.824037 0.000000
0.381151 0.821888 0.000000
0.529939 0.819739 0.000000
0.678728 0.817590 0.000000
0.827516 0.815441 0.000000
0.976527 0.813363 0.000000
1.000000 0.812637 0.000000
0.000000 0.975054 0.000000
0.079355 0.972905 0.000000
0.228143 0.970756 0.000000
0.376932 0.968607 0.000000
0.525720 0.966458 0.000000
0.674568 0.964328 0.000000
0.827787 0.963601 0.000000
0.981007 0.962874 0.000000
1.000000 0.962148 0.000000
0.000000 1.000000 0.000000
0.075136 1.000000 0.000000
0.223924 1.000000 0.000000
0.372713 1.000000 0.000000
0.525828 1.000000 0.000000
0.679048 1.000000 0.000000
0.832268 1.000000 0.000000
0.985487 1.000000 0.000000
1.000000 1.000000 0.000000
0.000000 0.000000 0.143295
0.048840 0.000000 0.130502
0.206541 0.000000 0.117709
0.364242 0.000000 0.104916
0.521943 0.000000 0.092123
0.679644 0.000000 0.079331
0.837345 0.000000 0.066538
0.995046 0.000000 0.053745
1.000000 0.000000 0.044725
0.000000 0.086020 0.118180
0.062118 0.085262 0.105387
0.219819 0.084504 0.092594
0.377520 0.083746 0.079801
0.535221 0.082988 0.067008
0.692923 0.082229 0.054215
0.847792 0.081029 0.044804
0.996580 0.078880 0.042655
1.000000 0.076731 0.040506
0.000000 0.235469 0.093065
0.075397 0.234711 0.080272
0.233098 0.233953 0.067479
0.390799 0.233195 0.054686
0.545996 0.232046 0.044883
0.694784 0.229897 0.042734
0.843573 0.227748 0.040585
0.992361 0.225599 0.038436
1.000000 0.223450 0.036287
0.000000 0.384918 0.067950
0.088675 0.384160 0.055157
0.244200 0.383063 0.044963
0.392988 0.380913 0.042813
0.541777 0.378764 0.040664
0.690565 0.376615 0.038515
0.839354 0.374466 0.036366
0.988142 0.372317 0.034217
1.000000 0.370168 0.032068
0.000000 0.534079 0.045042
0.091193 0.531930 0.042893
0.239981 0.529781 0.040743
0.388769 0.527632 0.038594
0.537558 0.525483 0.036445
0.686346 0.523334 0.034296
0.835135 0.521185 0.032147
0.983923 0.519036 0.029998
1.000000 0.516887 0.027849
0.000000 0.680798 0.040823
0.086973 0.678648 0.038673
0.235762 0.676499 0.036524
0.384550 0.674350 0.034375
0.533339 0.672201 0.032226
0.682127 0.670052 0.030077
0.830916 0.667903 0.027928
0.979704 0.665754 0.025779
1.000000 0.663605 0.023630
0.000000 0.827516 0.036603
0.082754 0.825367 0.034454
0.231543 0.823218 0.032305
0.380331 0.821069 0.030156
0.529120 0.818920 0.028007
0.677908 0.816771 0.025858
0.826697 0.814622 0.023709
0.977397 0.813086 0.019578
1.000000 0.812360 0.012834
0.000000 0.974234 0.032384
0.078535 0.972085 0.030235
0.227324 0.969936 0.028086
0.376112 0.967787 0.025937
0.524901 0.965638 0.023788
0.675438 0.964051 0.019826
0.828658 0.963324 0.013082
0.981877 0.962597 0.006338
1.000000 0.961871 0.000000
0.000000 1.000000 0.028165
0.074316 1.000000 0.026016
0.223105 1.000000 0.023867
0.373479 1.000000 0.020074
0.526699 1.000000 0.013330
0.679918 1.000000 0.006586
0.833138 1.000000 0.000000
0.986358 1.000000 0.000000
1.000000 1.000000 0.000000
0.000000 0.000000 0.289355
0.051419 0.000000 0.276562
0.209120 0.000000 0.263769
0.366821 0.000000 0.250976
0.524522 0.000000 0.238183
0.682223 0.000000 0.225391
0.839924 0.000000 0.212598
0.997625 0.000000 0.199805
1.000000 0.000000 0.194843
0.000000 0.085731 0.264240
0.064697 0.084973 0.251447
0.222398 0.084215 0.238654
0.380099 0.083457 0.225861
0.537800 0.082699 0.213068
0.695501 0.081940 0.200275
0.846973 0.080210 0.194923
0.995761 0.078061 0.192773
1.000000 0.075912 0.190624
0.000000 0.235180 0.239125
0.077975 0.234422 0.226332
0.235676 0.233664 0.213539
0.393378 0.232906 0.200746
0.545177 0.231227 0.195002
0.693965 0.229078 0.192853
0.842753 0.226928 0.190703
0.991542 0.224779 0.188554
1.000000 0.222630 0.186405
0.000000 0.384629 0.214010
0.091254 0.383871 0.201217
0.243381 0.382243 0.195081
0.392169 0.380094 0.192932
0.540958 0.377945 0.190783
0.689746 0.375796 0.188633
0.838534 0.373647 0.186484
0.987323 0.371498 0.184335
1.000000 0.369349 0.182186
0.000000 0.533260 0.195160
0.090373 0.531111 0.193011
0.239162 0.528962 0.190862
0.387950 0.526813 0.188713
0.536738 0.524663 0.186563
0.685527 0.522514 0.184414
0.834315 0.520365 0.182265
0.983104 0.518216 0.180116
1.000000 0.516067 0.177967
0.000000 0.679978 0.190941
0.086154 0.677829 0.188792
0.234943 0.675680 0.186643
0.383731 0.673531 0.184493
0.532519 0.671382 0.182344
0.681308 0.669233 0.180195
0.830096 0.667084 0.178046
0.978885 0.664935 0.175897
1.000000 0.662786 0.173748
0.000000 0.826697 0.186722
0.081935 0.824548 0.184573
0.230723 0.822398 0.182423
0.379512 0.820249 0.180274
0.528300 0.818100 0.178125
0.677089 0.815951 0.175976
0.825877 0.813802 0.173827
0.978267 0.812809 0.167944
1.000000 0.812083 0.161200
0.000000 0.973415 0.182503
0.077716 0.971266 0.180353
0.226504 0.969117 0.178204
0.375293 0.966968 0.176055
0.524081 0.964819 0.173906
0.676308 0.963773 0.168192
0.829528 0.963047 0.161448
0.982747 0.962320 0.154704
1.000000 0.961594 0.147960
0.000000 1.000000 0.178283
0.073497 1.000000 0.176134
0.222285 1.000000 0.173985
0.374349 1.000000 0.168440
0.527569 1.000000 0.161696
0.680788 1.000000 0.154952
0.834008 1.000000 0.148208
0.987228 1.000000 0.141464
1.000000 1.000000 0.134721
0.000000 0.000000 0.435415
0.053997 0.000000 0.422622
0.211698 0.000000 0.409829
0.369400 0.000000 0.397036
0.527101 0.000000 0.384243
0.684802 0.000000 0.371450
0.842503 0.000000 0.358658
0.999161 0.000000 0.347111
1.000000 0.000000 0.344962
0.000000 0.085442 0.410300
0.067276 0.084684 0.397507
0.224977 0.083926 0.384714
0.382678 0.083168 0.371921
0.540379 0.082409 0.359128
0.697365 0.081540 0.347190
0.846153 0.079391 0.345041
0.994942 0.077242 0.342892
1.000000 0.075093 0.340743
0.000000 0.234891 0.385185
0.080554 0.234133 0.372392
0.238255 0.233375 0.359599
0.395569 0.232556 0.347269
0.544357 0.230407 0.345120
0.693146 0.228258 0.342971
0.841934 0.226109 0.340822
0.990723 0.223960 0.338673
1.000000 0.221811 0.336523
0.000000 0.384340 0.360070
0.093773 0.383573 0.347348
0.242561 0.381424 0.345199
0.391350 0.379275 0.343050
0.540138 0.377126 0.340901
0.688927 0.374977 0.338752
0.837715 0.372828 0.336603
0.986503 0.370678 0.334453
1.000000 0.368529 0.332304
0.000000 0.532440 0.345278
0.089554 0.530291 0.343129
0.238342 0.528142 0.340980
0.387131 0.525993 0.338831
0.535919 0.523844 0.336682
0.684708 0.521695 0.334533
0.833496 0.519546 0.332383
0.982284 0.517397 0.330234
1.000000 0.515248 0.328085
0.000000 0.679159 0.341059
0.085335 0.677010 0.338910
0.234123 0.674861 0.336761
0.382912 0.672712 0.334612
0.531700 0.670563 0.332463
0.680488 0.668413 0.330313
0.829277 0.666264 0.328164
0.978065 0.664115 0.326015
1.000000 0.662295 0.322806
0.000000 0.825877 0.336840
0.081116 0.823728 0.334691
0.229904 0.821579 0.332542
0.378693 0.819430 0.330393
0.527481 0.817281 0.328243
0.676269 0.815132 0.326094
0.825917 0.813259 0.323054
0.979137 0.812532 0.316310
1.000000 0.811806 0.309566
0.000000 0.972596 0.332621
0.076897 0.970447 0.330472
0.225685 0.968298 0.328323
0.374473 0.966148 0.326173
0.523958 0.964223 0.323302
0.677178 0.963496 0.316558
0.830398 0.962770 0.309814
0.983617 0.962043 0.303070
1.000000 0.961317 0.296327
0.000000 1.000000 0.328402
0.072678 1.000000 0.326253
0.222000 1.000000 0.323550
0.375219 1.000000 0.316806
0.528439 1.000000 0.310062
0.681658 1.000000 0.303319
0.834878 1.000000 0.296575
0.988098 1.000000 0.289831
1.000000 1.000000 0.283087
0.000000 0.000000 0.581475
0.056576 0.000000 0.568682
0.214277 0.000000 0.555889
0.371978 0.000000 0.543096
0.529679 0.000000 0.530303
0.687381 0.000000 0.517510
0.845082 0.000000 0.504718
0.998341 0.000000 0.497229
1.000000 0.000000 0.495080
0.000000 0.085153 0.556360
0.069854 0.084395 0.543567
0.227556 0.083637 0.530774
0.385257 0.082879 0.517981
0.542958 0.082120 0.505188
0.696545 0.080720 0.497308
0.845334 0.078571 0.495159
0.994122 0.076422 0.493010
1.000000 0.074273 0.490861
0.000000 0.234602 0.531245
0.083133 0.233844 0.518452
0.240834 0.233086 0.505659
0.394749 0.231737 0.497387
0.543538 0.229588 0.495238
0.692326 0.227439 0.493089
0.841115 0.225290 0.490940
0.989903 0.223141 0.488791
1.000000 0.220992 0.486642
0.000000 0.384051 0.506129
0.092953 0.382753 0.497466
0.241742 0.380604 0.495317
0.390530 0.378455 0.493168
0.539319 0.376306 0.491019
0.688107 0.374157 0.488870
0.836896 0.372008 0.486721
0.985684 0.369859 0.484572
1.000000 0.367710 0.482423
0.000000 0.531621 0.495396
0.088734 0.529472 0.493247
0.237523 0.527323 0.491098
0.386311 0.525174 0.488949
0.535100 0.523025 0.486800
0.683888 0.520876 0.484651
0.832677 0.518727 0.482502
0.981465 0.516578 0.480353
1.000000 0.514428 0.478203
0.000000 0.678339 0.491177
0.084515 0.676190 0.489028
0.233304 0.674041 0.486879
0.382092 0.671892 0.484730
0.530881 0.669743 0.482581
0.679669 0.667594 0.480432
0.828458 0.665445 0.478283
0.977246 0.663296 0.476133
1.000000 0.662018 0.471172
0.000000 0.825058 0.486958
0.080296 0.822909 0.484809
0.229085 0.820760 0.482660
0.377873 0.818611 0.480511
0.526662 0.816462 0.478362
0.675450 0.814313 0.476213
0.826788 0.812982 0.471420
0.980007 0.812255 0.464676
1.000000 0.811529 0.457932
0.000000 0.971776 0.482739
0.076077 0.969627 0.480590
0.224866 0.967478 0.478441
0.373654 0.965329 0.476292
0.524829 0.963946 0.471668
0.678048 0.963219 0.464924
0.831268 0.962493 0.458181
0.984488 0.961766 0.451437
1.000000 0.961040 0.444693
0.000000 1.000000 0.478520
0.071858 1.000000 0.476371
0.222870 1.000000 0.471916
0.376089 1.000000 0.465173
0.529309 1.000000 0.458429
0.682529 1.000000 0.451685
0.835748 1.000000 0.444941
0.988968 1.000000 0.438197
1.000000 1.000000 0.431453
0.000000 0.000000 0.727535
0.059155 0.000000 0.714742
0.216856 0.000000 0.701949
0.374557 0.000000 0.689156
0.532258 0.000000 0.676363
0.689959 0.000000 0.663570
0.847660 0.000000 0.650778
0.997522 0.000000 0.647347
1.000000 0.000000 0.645198
0.000000 0.084864 0.702420
0.072433 0.084106 0.689627
0.230134 0.083348 0.676834
0.387835 0.082590 0.664041
0.545537 0.081831 0.651248
0.695726 0.079901 0.647426
0.844514 0.077752 0.645277
0.993303 0.075603 0.643128
1.000000 0.073454 0.640979
0.000000 0.234313 0.677305
0.085712 0.233555 0.664512
0.243413 0.232797 0.651719
0.393930 0.230918 0.647505
0.542718 0.228768 0.645356
0.691507 0.226619 0.643207
0.840295 0.224470 0.641058
0.989084 0.222321 0.638909
1.000000 0.220172 0.636760
0.000000 0.383762 0.652189
0.092134 0.381934 0.647584
0.240923 0.379785 0.645435
0.389711 0.377636 0.643286
0.538499 0.375487 0.641137
0.687288 0.373338 0.638988
0.836076 0.371189 0.636839
0.984865 0.369040 0.634690
1.000000 0.366891 0.632541
0.000000 0.530802 0.645514
0.087915 0.528653 0.643365
0.236703 0.526503 0.641216
0.385492 0.524354 0.639067
0.534280 0.522205 0.636918
0.683069 0.520056 0.634769
0.831857 0.517907 0.632620
0.980646 0.515758 0.630471
1.000000 0.513609 0.628322
0.000000 0.677520 0.641295
0.083696 0.675371 0.639146
0.232484 0.673222 0.636997
0.381273 0.671073 0.634848
0.530061 0.668924 0.632699
0.678850 0.666775 0.630550
0.827638 0.664626 0.628401
0.976427 0.662477 0.626252
1.000000 0.661741 0.619538
0.000000 0.824238 0.637076
0.079477 0.822089 0.634927
0.228265 0.819940 0.632778
0.377054 0.817791 0.630629
0.525842 0.815642 0.628480
0.674631 0.813493 0.626331
0.827658 0.812705 0.619787
0.980877 0.811978 0.613043
1.000000 0.811252 0.606299
0.000000 0.970957 0.632857
0.075258 0.968808 0.630708
0.224046 0.966659 0.628559
0.372835 0.964510 0.626410
0.525699 0.963669 0.620035
0.678918 0.962942 0.613291
0.832138 0.962216 0.606547
0.985358 0.961489 0.599803
1.000000 0.960763 0.593059
0.000000 1.000000 0.628638
0.071039 1.000000 0.626489
0.223740 1.000000 0.620283
0.376959 1.000000 0.613539
0.530179 1.000000 0.606795
0.683399 1.000000 0.600051
0.836618 1.000000 0.593307
0.989838 1.000000 0.586563
1.000000 1.000000 0.579819
0.000000 0.000000 0.873595
0.061734 0.000000 0.860802
0.219435 0.000000 0.848009
0.377136 0.000000 0.835216
0.534837 0.000000 0.822423
0.692538 0.000000 0.809630
0.847914 0.000000 0.799614
0.996703 0.000000 0.797465
1.000000 0.000000 0.795316
0.000000 0.084575 0.848480
0.075012 0.083817 0.835687
0.232713 0.083059 0.822894
0.390414 0.082300 0.810101
0.546118 0.081231 0.799693
0.694907 0.079082 0.797544
0.843695 0.076933 0.795395
0.992483 0.074783 0.793246
1.000000 0.072634 0.791097
0.000000 0.234024 0.823364
0.088290 0.233266 0.810572
0.244322 0.232247 0.799772
0.393111 0.230098 0.797623
0.541899 0.227949 0.795474
0.690688 0.225800 0.793325
0.839476 0.223651 0.791176
0.988264 0.221502 0.789027
1.000000 0.219353 0.786878
0.000000 0.383264 0.799851
0.091315 0.381115 0.797702
0.240103 0.378966 0.795553
0.388892 0.376817 0.793404
0.537680 0.374668 0.791255
0.686468 0.372518 0.789106
0.835257 0.370369 0.786957
0.984045 0.368220 0.784808
1.000000 0.366071 0.782659
0.000000 0.529982 0.795632
0.087096 0.527833 0.793483
0.235884 0.525684 0.791334
0.384673 0.523535 0.789185
0.533461 0.521386 0.787036
0.682249 0.519237 0.784887
0.831038 0.517088 0.782738
0.979826 0.514939 0.780589
1.000000 0.512790 0.778440
0.000000 0.676701 0.791413
0.082877 0.674552 0.789264
0.231665 0.672403 0.787115
0.380453 0.670253 0.784966
0.529242 0.668104 0.782817
0.678030 0.665955 0.780668
0.826819 0.663806 0.778519
0.977267 0.662190 0.774649
1.000000 0.661464 0.767905
0.000000 0.823419 0.787194
0.078658 0.821270 0.785045
0.227446 0.819121 0.782896
0.376234 0.816972 0.780747
0.525023 0.814823 0.778598
0.675308 0.813154 0.774897
0.828528 0.812428 0.768153
0.981747 0.811701 0.761409
1.000000 0.810975 0.754665
0.000000 0.970138 0.782975
0.074438 0.967988 0.780826
0.223227 0.965839 0.778677
0.373349 0.964119 0.775145
0.526569 0.963392 0.768401
0.679788 0.962665 0.761657
0.833008 0.961939 0.754913
0.986228 0.961212 0.748169
1.000000 0.960486 0.741425
0.000000 1.000000 0.778756
0.071390 1.000000 0.775393
0.224610 1.000000 0.768649
0.377830 1.000000 0.761905
0.531049 1.000000 0.755161
0.684269 1.000000 0.748417
0.837489 1.000000 0.741673
0.990708 1.000000 0.734929
1.000000 1.000000 0.728186
0.000000 0.000000 1.000000
0.064312 0.000000 1.000000
0.222014 0.000000 0.994069
0.379715 0.000000 0.981276
0.537416 0.000000 0.968483
0.695117 0.000000 0.955690
0.847095 0.000000 0.949732
0.995883 0.000000 0.947583
1.000000 0.000000 0.945434
0.000000 0.084286 0.994540
0.077591 0.083528 0.981747
0.235292 0.082770 0.968954
0.392993 0.082011 0.956161
0.545299 0.080411 0.949811
0.694087 0.078262 0.947662
0.842876 0.076113 0.945513
0.991664 0.073964 0.943364
1.000000 0.071815 0.941215
0.000000 0.233735 0.969424
0.090869 0.232977 0.956632
0.243503 0.231428 0.949890
0.392291 0.229279 0.947741
0.541080 0.227130 0.945592
0.689868 0.224981 0.943443
0.838657 0.222832 0.941294
0.987445 0.220683 0.939145
1.000000 0.218533 0.936996
0.000000 0.382444 0.949969
0.090495 0.380295 0.947820
0.239284 0.378146 0.945671
0.388072 0.375997 0.943522
0.536861 0.373848 0.941373
0.685649 0.371699 0.939224
0.834438 0.369550 0.937075
0.983226 0.367401 0.934926
1.000000 0.365252 0.932777
0.000000 0.529163 0.945750
0.086276 0.527014 0.943601
0.235065 0.524865 0.941452
0.383853 0.522716 0.939303
0.532642 0.520567 0.937154
0.681430 0.518418 0.935005
0.830218 0.516268 0.932856
0.979007 0.514119 0.930707
1.000000 0.511970 0.928558
0.000000 0.675881 0.941531
0.082057 0.673732 0.939382
0.230846 0.671583 0.937233
0.379634 0.669434 0.935084
0.528423 0.667285 0.932935
0.677211 0.665136 0.930786
0.825999 0.662987 0.928637
0.978137 0.661913 0.923015
1.000000 0.661187 0.916271
0.000000 0.822600 0.937312
0.077838 0.820451 0.935163
0.226627 0.818302 0.933014
0.375415 0.816153 0.930865
0.524203 0.814003 0.928716
0.676178 0.812877 0.923263
0.829398 0.812151 0.916519
0.982618 0.811424 0.909775
1.000000 0.810698 0.903031
0.000000 0.969318 0.933093
0.073619 0.967169 0.930944
0.222408 0.965020 0.928795
0.374219 0.963842 0.923511
0.527439 0.963115 0.916767
0.680659 0.962388 0.910023
0.833878 0.961662 0.903279
0.987098 0.960935 0.896535
1.000000 0.960209 0.889792
0.000000 1.000000 0.928874
0.072260 1.000000 0.923759
0.225480 1.000000 0.917015
0.378700 1.000000 0.910271
0.531919 1.000000 0.903527
0.685139 1.000000 0.896784
0.838359 1.000000 0.890040
0.991578 1.000000 0.883296
1.000000 1.000000 0.876552
0.000000 0.000000 1.000000
0.066891 0.000000 1.000000
0.224592 0.000000 1.000000
0.382293 0.000000 1.000000
0.539994 0.000000 1.000000
0.697487 0.000000 1.000000
0.846275 0.000000 1.000000
0.995064 0.000000 1.000000
1.000000 0.000000 1.000000
0.000000 0.083997 1.000000
0.080170 0.083239 1.000000
0.237871 0.082480 1.000000
0.395572 0.081722 1.000000
0.544479 0.079592 1.000000
0.693268 0.077443 1.000000
0.842056 0.075294 1.000000
0.990845 0.073145 1.000000
1.000000 0.070996 1.000000
0.000000 0.233446 1.000000
0.093448 0.232688 1.000000
0.242683 0.230608 1.000000
0.391472 0.228459 1.000000
0.540260 0.226310 1.000000
0.689049 0.224161 1.000000
0.837837 0.222012 1.000000
0.986626 0.219863 1.000000
1.000000 0.217714 1.000000
0.000000 0.381625 1.000000
0.089676 0.379476 1.000000
0.238464 0.377327 1.000000
0.387253 0.375178 1.000000
0.536041 0.373029 1.000000
0.684830 0.370880 1.000000
0.833618 0.368731 1.000000
0.982407 0.366582 1.000000
1.000000 0.364433 1.000000
0.000000 0.528343 1.000000
0.085457 0.526194 1.000000
0.234245 0.524045 1.000000
0.383034 0.521896 1.000000
0.531822 0.519747 1.000000
0.680611 0.517598 1.000000
0.829399 0.515449 1.000000
0.978188 0.513300 1.000000
1.000000 0.511398 1.000000
0.000000 0.675062 1.000000
0.081238 0.672913 1.000000
0.230026 0.670764 1.000000
0.378815 0.668615 1.000000
0.527603 0.666466 1.000000
0.676392 0.664317 1.000000
0.825788 0.662363 1.000000
0.979007 0.661636 1.000000
1.000000 0.660910 1.000000
0.000000 0.821780 1.000000
0.077019 0.819631 1.000000
0.225807 0.817482 1.000000
0.374596 0.815333 1.000000
0.523829 0.813327 1.000000
0.677048 0.812600 1.000000
0.830268 0.811874 1.000000
0.983488 0.811147 1.000000
1.000000 0.810421 1.000000
0.000000 0.968499 1.000000
0.072800 0.966350 1.000000
0.221870 0.964291 1.000000
0.375089 0.963565 1.000000
0.528309 0.962838 1.000000
0.681529 0.962111 1.000000
0.834748 0.961385 1.000000
0.987968 0.960658 1.000000
1.000000 0.959932 1.000000
0.000000 1.000000 1.000000
0.073130 1.000000 1.000000
0.226350 1.000000 1.000000
0.379570 1.000000 1.000000
0.532789 1.000000 1.000000
0.686009 1.000000 1.000000
0.839229 1.000000 1.000000
0.992448 1.000000 1.000000
1.000000 1.000000 1.000000
