tools/fandomforge/assets/color_luts/leon-re2r-cutscenes.cube
TITLE "leon-re2r-cutscenes-RE2R"
LUT_3D_SIZE 17
0.000000 0.000000 0.079198
0.013623 0.000000 0.068789
0.089167 0.000000 0.058380
0.164711 0.000000 0.047971
0.240256 0.000000 0.037562
0.315800 0.000000 0.027153
0.391344 0.000000 0.016744
0.466889 0.000000 0.006335
0.542433 0.000000 0.000000
0.617977 0.000000 0.000000
0.693522 0.000000 0.000000
0.769066 0.000000 0.000000
0.844611 0.000000 0.000000
0.920155 0.000000 0.000000
0.995699 0.000000 0.000000
1.000000 0.000000 0.000000
1.000000 0.000000 0.000000
0.000000 0.064325 0.058763
0.017636 0.061241 0.048354
0.093180 0.058158 0.037945
0.168725 0.055074 0.027536
0.244269 0.051991 0.017127
0.319814 0.048907 0.006718
0.395358 0.045824 0.000000
0.470902 0.042740 0.000000
0.546447 0.039657 0.000000
0.621991 0.036573 0.000000
0.697535 0.033490 0.000000
0.773080 0.030406 0.000000
0.848624 0.027323 0.000000
0.924168 0.024239 0.000000
0.999713 0.021156 0.000000
1.000000 0.018735 0.000000
1.000000 0.016381 0.000000
0.000000 0.131771 0.038328
0.021650 0.128688 0.027919
0.097194 0.125604 0.017510
0.172738 0.122521 0.007101
0.248283 0.119437 0.000000
0.323827 0.116354 0.000000
0.399371 0.113270 0.000000
0.474916 0.110187 0.000000
0.550460 0.107103 0.000000
0.626005 0.104020 0.000000
0.701549 0.100936 0.000000
0.777093 0.097853 0.000000
0.852638 0.094769 0.000000
0.924342 0.092322 0.000000
0.995487 0.089967 0.000000
1.000000 0.087613 0.000000
1.000000 0.085258 0.000000
0.000000 0.199218 0.017893
0.025663 0.196134 0.007484
0.101207 0.193051 0.000000
0.176752 0.189967 0.000000
0.252296 0.186884 0.000000
0.327841 0.183800 0.000000
0.403385 0.180717 0.000000
0.478929 0.177633 0.000000
0.554474 0.174550 0.000000
0.630018 0.171466 0.000000
0.705562 0.168383 0.000000
0.777429 0.165909 0.000000
0.848574 0.163554 0.000000
0.919719 0.161199 0.000000
0.990865 0.158845 0.000000
1.000000 0.156490 0.000000
1.000000 0.154136 0.000000
0.000000 0.266664 0.000000
0.029677 0.263581 0.000000
0.105221 0.260497 0.000000
0.180765 0.257414 0.000000
0.256310 0.254330 0.000000
0.331854 0.251247 0.000000
0.407398 0.248163 0.000000
0.482943 0.245080 0.000000
0.558487 0.241996 0.000000
0.630515 0.239495 0.000000
0.701661 0.237141 0.000000
0.772806 0.234786 0.000000
0.843951 0.232431 0.000000
0.915097 0.230077 0.000000
0.986242 0.227722 0.000000
1.000000 0.225368 0.000000
1.000000 0.223013 0.000000
0.000000 0.334111 0.000000
0.033690 0.331027 0.000000
0.109235 0.327944 0.000000
0.184779 0.324860 0.000000
0.260323 0.321777 0.000000
0.335868 0.318693 0.000000
0.411412 0.315610 0.000000
0.483602 0.313082 0.000000
0.554747 0.310727 0.000000
0.625893 0.308373 0.000000
0.697038 0.306018 0.000000
0.768183 0.303663 0.000000
0.839329 0.301309 0.000000
0.910474 0.298954 0.000000
0.981620 0.296600 0.000000
1.000000 0.294245 0.000000
1.000000 0.291890 0.000000
0.000000 0.401557 0.000000
0.037704 0.398474 0.000000
0.113248 0.395390 0.000000
0.188792 0.392307 0.000000
0.264337 0.389223 0.000000
0.336689 0.386669 0.000000
0.407834 0.384314 0.000000
0.478979 0.381959 0.000000
0.550125 0.379605 0.000000
0.621270 0.377250 0.000000
0.692415 0.374895 0.000000
0.763561 0.372541 0.000000
0.834706 0.370186 0.000000
0.905852 0.367832 0.000000
0.976997 0.365477 0.000000
1.000000 0.363122 0.000000
1.000000 0.360768 0.000000
0.000000 0.469003 0.000000
0.041717 0.465920 0.000000
0.117262 0.462837 0.000000
0.189775 0.460255 0.000000
0.260921 0.457901 0.000000
0.332066 0.455546 0.000000
0.403211 0.453191 0.000000
0.474357 0.450837 0.000000
0.545502 0.448482 0.000000
0.616647 0.446127 0.000000
0.687793 0.443773 0.000000
0.758938 0.441418 0.000000
0.830084 0.439064 0.000000
0.901229 0.436709 0.000000
0.972374 0.434354 0.000000
1.000000 0.432000 0.000000
1.000000 0.429645 0.000000
0.000000 0.536450 0.000000
0.042862 0.533842 0.000000
0.114007 0.531487 0.000000
0.185153 0.529133 0.000000
0.256298 0.526778 0.000000
0.327443 0.524423 0.000000
0.398589 0.522069 0.000000
0.469734 0.519714 0.000000
0.540879 0.517359 0.000000
0.612025 0.515005 0.000000
0.683170 0.512650 0.000000
0.754316 0.510296 0.000000
0.825461 0.507941 0.000000
0.896606 0.505586 0.000000
0.967752 0.503232 0.000000
1.000000 0.500877 0.000000
1.000000 0.498522 0.000000
0.000000 0.605074 0.000000
0.038239 0.602719 0.000000
0.109385 0.600365 0.000000
0.180530 0.598010 0.000000
0.251675 0.595655 0.000000
0.322821 0.593301 0.000000
0.393966 0.590946 0.000000
0.465111 0.588591 0.000000
0.536257 0.586237 0.000000
0.607402 0.583882 0.000000
0.678548 0.581528 0.000000
0.749693 0.579173 0.000000
0.820838 0.576818 0.000000
0.891984 0.574464 0.000000
0.963129 0.572109 0.000000
1.000000 0.569754 0.000000
1.000000 0.567400 0.000000
0.000000 0.673951 0.000000
0.033617 0.671597 0.000000
0.104762 0.669242 0.000000
0.175907 0.666887 0.000000
0.247053 0.664533 0.000000
0.318198 0.662178 0.000000
0.389343 0.659823 0.000000
0.460489 0.657469 0.000000
0.531634 0.655114 0.000000
0.602780 0.652760 0.000000
0.673925 0.650405 0.000000
0.745070 0.648050 0.000000
0.816216 0.645696 0.000000
0.887361 0.643341 0.000000
0.958506 0.640986 0.000000
1.000000 0.638632 0.000000
1.000000 0.636277 0.000000
0.000000 0.742829 0.000000
0.028994 0.740474 0.000000
0.100139 0.738119 0.000000
0.171285 0.735765 0.000000
0.242430 0.733410 0.000000
0.313575 0.731055 0.000000
0.384721 0.728701 0.000000
0.455866 0.726346 0.000000
0.527012 0.723992 0.000000
0.598157 0.721637 0.000000
0.669302 0.719282 0.000000
0.740448 0.716928 0.000000
0.811593 0.714573 0.000000
0.882738 0.712218 0.000000
0.953884 0.709864 0.000000
1.000000 0.707509 0.000000
1.000000 0.705428 0.000000
0.000000 0.811706 0.000000
0.024371 0.809351 0.000000
0.095517 0.806997 0.000000
0.166662 0.804642 0.000000
0.237807 0.802287 0.000000
0.308953 0.799933 0.000000
0.380098 0.797578 0.000000
0.451244 0.795224 0.000000
0.522389 0.792869 0.000000
0.593534 0.790514 0.000000
0.664680 0.788160 0.000000
0.735825 0.785805 0.000000
0.806970 0.783450 0.000000
0.878116 0.781096 0.000000
0.949535 0.778941 0.000000
1.000000 0.778579 0.000000
1.000000 0.778217 0.000000
0.000000 0.880583 0.000000
0.019749 0.878229 0.000000
0.090894 0.875874 0.000000
0.162039 0.873519 0.000000
0.233185 0.871165 0.000000
0.304330 0.868810 0.000000
0.375476 0.866456 0.000000
0.446621 0.864101 0.000000
0.517766 0.861746 0.000000
0.588912 0.859392 0.000000
0.660057 0.857037 0.000000
0.731202 0.854682 0.000000
0.802521 0.852454 0.000000
0.876391 0.852092 0.000000
0.950262 0.851730 0.000000
1.000000 0.851368 0.000000
1.000000 0.851006 0.000000
0.000000 0.949461 0.000000
0.015126 0.947106 0.000000
0.086271 0.944751 0.000000
0.157417 0.942397 0.000000
0.228562 0.940042 0.000000
0.299708 0.937688 0.000000
0.370853 0.935333 0.000000
0.441998 0.932978 0.000000
0.513144 0.930624 0.000000
0.584289 0.928269 0.000000
0.655507 0.925968 0.000000
0.729378 0.925606 0.000000
0.803248 0.925243 0.000000
0.877118 0.924881 0.000000
0.950989 0.924519 0.000000
1.000000 0.924157 0.000000
1.000000 0.923794 0.000000
0.000000 1.000000 0.000000
0.010503 1.000000 0.000000
0.081649 1.000000 0.000000
0.152794 1.000000 0.000000
0.223940 1.000000 0.000000
0.295085 1.000000 0.000000
0.366230 1.000000 0.000000
0.437376 1.000000 0.000000
0.508521 0.999501 0.000000
0.582364 0.999119 0.000000
0.656234 0.998757 0.000000
0.730105 0.998394 0.000000
0.803975 0.998032 0.000000
0.877845 0.997670 0.000000
0.951716 0.997308 0.000000
1.000000 0.996946 0.000000
1.000000 0.996583 0.000000
0.000000 1.000000 0.000000
0.005881 1.000000 0.000000
0.077026 1.000000 0.000000
0.148172 1.000000 0.000000
0.219317 1.000000 0.000000
0.290462 1.000000 0.000000
0.361608 1.000000 0.000000
0.435350 1.000000 0.000000
0.509221 1.000000 0.000000
0.583091 1.000000 0.000000
0.656961 1.000000 0.000000
0.730832 1.000000 0.000000
0.804702 1.000000 0.000000
0.878572 1.000000 0.000000
0.952443 1.000000 0.000000
1.000000 1.000000 0.000000
1.000000 1.000000 0.000000
0.000000 0.000000 0.148730
0.014402 0.000000 0.138321
0.089946 0.000000 0.127912
0.165491 0.000000 0.117503
0.241035 0.000000 0.107094
0.316579 0.000000 0.096685
0.392124 0.000000 0.086276
0.467668 0.000000 0.075867
0.543213 0.000000 0.065458
0.618757 0.000000 0.055049
0.694301 0.000000 0.044640
0.769846 0.000000 0.034231
0.845390 0.000000 0.023822
0.920934 0.000000 0.013413
0.996479 0.000000 0.003004
1.000000 0.000000 0.000000
1.000000 0.000000 0.000000
0.000000 0.063149 0.128295
0.018416 0.060066 0.117886
0.093960 0.056982 0.107477
0.169504 0.053899 0.097068
0.245049 0.050815 0.086659
0.320593 0.047732 0.076250
0.396137 0.044648 0.065841
0.471682 0.041565 0.055432
0.547226 0.038481 0.045023
0.622770 0.035398 0.034614
0.698315 0.032314 0.024205
0.773859 0.029231 0.013796
0.849404 0.026147 0.003387
0.924948 0.023064 0.000000
0.999212 0.020192 0.000000
1.000000 0.017838 0.000000
1.000000 0.015483 0.000000
0.000000 0.130596 0.107860
0.022429 0.127512 0.097451
0.097973 0.124429 0.087042
0.173518 0.121345 0.076633
0.249062 0.118262 0.066224
0.324607 0.115178 0.055815
0.400151 0.112095 0.045406
0.475695 0.109011 0.034997
0.551240 0.105928 0.024588
0.626784 0.102844 0.014179
0.702328 0.099761 0.003770
0.777873 0.096677 0.000000
0.852299 0.093779 0.000000
0.923444 0.091424 0.000000
0.994590 0.089070 0.000000
1.000000 0.086715 0.000000
1.000000 0.084360 0.000000
0.000000 0.198042 0.087424
0.026443 0.194958 0.077015
0.101987 0.191875 0.066607
0.177531 0.188792 0.056198
0.253076 0.185708 0.045789
0.328620 0.182625 0.035380
0.404164 0.179541 0.024971
0.479709 0.176458 0.014562
0.555253 0.173374 0.004153
0.630798 0.170291 0.000000
0.705386 0.167366 0.000000
0.776531 0.165011 0.000000
0.847676 0.162656 0.000000
0.918822 0.160302 0.000000
0.989967 0.157947 0.000000
1.000000 0.155592 0.000000
1.000000 0.153238 0.000000
0.000000 0.265488 0.066989
0.030456 0.262405 0.056580
0.106000 0.259321 0.046171
0.181545 0.256238 0.035762
0.257089 0.253155 0.025354
0.332634 0.250071 0.014945
0.408178 0.246988 0.004536
0.483722 0.243904 0.000000
0.558472 0.240952 0.000000
0.629618 0.238598 0.000000
0.700763 0.236243 0.000000
0.771908 0.233888 0.000000
0.843054 0.231534 0.000000
0.914199 0.229179 0.000000
0.985344 0.226824 0.000000
1.000000 0.224470 0.000000
1.000000 0.222115 0.000000
0.000000 0.332935 0.046554
0.034470 0.329851 0.036145
0.110014 0.326768 0.025736
0.185558 0.323684 0.015327
0.261103 0.320601 0.004918
0.336647 0.317517 0.000000
0.411559 0.314539 0.000000
0.482704 0.312184 0.000000
0.553850 0.309830 0.000000
0.624995 0.307475 0.000000
0.696140 0.305120 0.000000
0.767286 0.302766 0.000000
0.838431 0.300411 0.000000
0.909576 0.298056 0.000000
0.980722 0.295702 0.000000
1.000000 0.293347 0.000000
1.000000 0.290993 0.000000
0.000000 0.400381 0.026119
0.038483 0.397298 0.015710
0.114028 0.394214 0.005301
0.189572 0.391131 0.000000
0.264645 0.388125 0.000000
0.335791 0.385771 0.000000
0.406936 0.383416 0.000000
0.478082 0.381062 0.000000
0.549227 0.378707 0.000000
0.620372 0.376352 0.000000
0.691518 0.373998 0.000000
0.762663 0.371643 0.000000
0.833808 0.369288 0.000000
0.904954 0.366934 0.000000
0.976099 0.364579 0.000000
1.000000 0.362225 0.000000
1.000000 0.359870 0.000000
0.000000 0.467828 0.005684
0.042497 0.464744 0.000000
0.117732 0.461712 0.000000
0.188877 0.459357 0.000000
0.260023 0.457003 0.000000
0.331168 0.454648 0.000000
0.402314 0.452294 0.000000
0.473459 0.449939 0.000000
0.544604 0.447584 0.000000
0.615750 0.445230 0.000000
0.686895 0.442875 0.000000
0.758040 0.440520 0.000000
0.829186 0.438166 0.000000
0.900331 0.435811 0.000000
0.971477 0.433457 0.000000
1.000000 0.431102 0.000000
1.000000 0.428747 0.000000
0.000000 0.535299 0.000000
0.041964 0.532944 0.000000
0.113109 0.530589 0.000000
0.184255 0.528235 0.000000
0.255400 0.525880 0.000000
0.326546 0.523526 0.000000
0.397691 0.521171 0.000000
0.468836 0.518816 0.000000
0.539982 0.516462 0.000000
0.611127 0.514107 0.000000
0.682272 0.511752 0.000000
0.753418 0.509398 0.000000
0.824563 0.507043 0.000000
0.895709 0.504689 0.000000
0.966854 0.502334 0.000000
1.000000 0.499979 0.000000
1.000000 0.497625 0.000000
0.000000 0.604176 0.000000
0.037341 0.601821 0.000000
0.108487 0.599467 0.000000
0.179632 0.597112 0.000000
0.250778 0.594758 0.000000
0.321923 0.592403 0.000000
0.393068 0.590048 0.000000
0.464214 0.587694 0.000000
0.535359 0.585339 0.000000
0.606504 0.582984 0.000000
0.677650 0.580630 0.000000
0.748795 0.578275 0.000000
0.819941 0.575921 0.000000
0.891086 0.573566 0.000000
0.962231 0.571211 0.000000
1.000000 0.568857 0.000000
1.000000 0.566502 0.000000
0.000000 0.673053 0.000000
0.032719 0.670699 0.000000
0.103864 0.668344 0.000000
0.175010 0.665990 0.000000
0.246155 0.663635 0.000000
0.317300 0.661280 0.000000
0.388446 0.658926 0.000000
0.459591 0.656571 0.000000
0.530736 0.654216 0.000000
0.601882 0.651862 0.000000
0.673027 0.649507 0.000000
0.744173 0.647153 0.000000
0.815318 0.644798 0.000000
0.886463 0.642443 0.000000
0.957609 0.640089 0.000000
1.000000 0.637734 0.000000
1.000000 0.635379 0.000000
0.000000 0.741931 0.000000
0.028096 0.739576 0.000000
0.099242 0.737222 0.000000
0.170387 0.734867 0.000000
0.241532 0.732512 0.000000
0.312678 0.730158 0.000000
0.383823 0.727803 0.000000
0.454968 0.725448 0.000000
0.526114 0.723094 0.000000
0.597259 0.720739 0.000000
0.668405 0.718385 0.000000
0.739550 0.716030 0.000000
0.810695 0.713675 0.000000
0.881841 0.711321 0.000000
0.952986 0.708966 0.000000
1.000000 0.706611 0.000000
1.000000 0.705290 0.000000
0.000000 0.810808 0.000000
0.023474 0.808454 0.000000
0.094619 0.806099 0.000000
0.165764 0.803744 0.000000
0.236910 0.801390 0.000000
0.308055 0.799035 0.000000
0.379200 0.796680 0.000000
0.450346 0.794326 0.000000
0.521491 0.791971 0.000000
0.592637 0.789617 0.000000
0.663782 0.787262 0.000000
0.734927 0.784907 0.000000
0.806073 0.782553 0.000000
0.877218 0.780198 0.000000
0.949676 0.778803 0.000000
1.000000 0.778441 0.000000
1.000000 0.778079 0.000000
0.000000 0.879686 0.000000
0.018851 0.877331 0.000000
0.089996 0.874976 0.000000
0.161142 0.872622 0.000000
0.232287 0.870267 0.000000
0.303432 0.867912 0.000000
0.374578 0.865558 0.000000
0.445723 0.863203 0.000000
0.516869 0.860849 0.000000
0.588014 0.858494 0.000000
0.659159 0.856139 0.000000
0.730305 0.853785 0.000000
0.802662 0.852316 0.000000
0.876532 0.851954 0.000000
0.950403 0.851592 0.000000
1.000000 0.851230 0.000000
1.000000 0.850867 0.000000
0.000000 0.948563 0.000000
0.014228 0.946208 0.000000
0.085374 0.943854 0.000000
0.156519 0.941499 0.000000
0.227664 0.939144 0.000000
0.298810 0.936790 0.000000
0.369955 0.934435 0.000000
0.441101 0.932081 0.000000
0.512246 0.929726 0.000000
0.583391 0.927371 0.000000
0.655649 0.925830 0.000000
0.729519 0.925467 0.000000
0.803389 0.925105 0.000000
0.877260 0.924743 0.000000
0.951130 0.924381 0.000000
1.000000 0.924019 0.000000
1.000000 0.923656 0.000000
0.000000 1.000000 0.000000
0.009606 1.000000 0.000000
0.080751 1.000000 0.000000
0.151896 1.000000 0.000000
0.223042 1.000000 0.000000
0.294187 1.000000 0.000000
0.365333 1.000000 0.000000
0.436478 1.000000 0.000000
0.508635 0.999343 0.000000
0.582505 0.998981 0.000000
0.656376 0.998619 0.000000
0.730246 0.998256 0.000000
0.804116 0.997894 0.000000
0.877987 0.997532 0.000000
0.951857 0.997170 0.000000
1.000000 0.996807 0.000000
1.000000 0.996445 0.000000
0.000000 1.000000 0.000000
0.004983 1.000000 0.000000
0.076128 1.000000 0.000000
0.147274 1.000000 0.000000
0.218419 1.000000 0.000000
0.289565 1.000000 0.000000
0.361621 1.000000 0.000000
0.435492 1.000000 0.000000
0.509362 1.000000 0.000000
0.583232 1.000000 0.000000
0.657103 1.000000 0.000000
0.730973 1.000000 0.000000
0.804843 1.000000 0.000000
0.878714 1.000000 0.000000
0.952584 1.000000 0.000000
1.000000 1.000000 0.000000
1.000000 1.000000 0.000000
0.000000 0.000000 0.218261
0.015181 0.000000 0.207852
0.090726 0.000000 0.197443
0.166270 0.000000 0.187034
0.241815 0.000000 0.176625
0.317359 0.000000 0.166216
0.392903 0.000000 0.155807
0.468448 0.000000 0.145398
0.543992 0.000000 0.134989
0.619536 0.000000 0.124580
0.695081 0.000000 0.114171
0.770625 0.000000 0.103762
0.846169 0.000000 0.093353
0.921714 0.000000 0.082944
0.997258 0.000000 0.072535
1.000000 0.000000 0.062126
1.000000 0.000000 0.057428
0.000000 0.061973 0.197826
0.019195 0.058890 0.187417
0.094739 0.055806 0.177008
0.170284 0.052723 0.166599
0.245828 0.049639 0.156190
0.321372 0.046556 0.145781
0.396917 0.043472 0.135372
0.472461 0.040389 0.124963
0.548006 0.037306 0.114554
0.623550 0.034222 0.104145
0.699094 0.031139 0.093736
0.774639 0.028055 0.083327
0.850183 0.024972 0.072918
0.925727 0.021888 0.062509
0.998315 0.019295 0.057515
1.000000 0.016940 0.055160
1.000000 0.014585 0.052805
0.000000 0.129420 0.177391
0.023209 0.126336 0.166982
0.098753 0.123253 0.156573
0.174297 0.120169 0.146164
0.249842 0.117086 0.135755
0.325386 0.114002 0.125346
0.400930 0.110919 0.114937
0.476475 0.107835 0.104528
0.552019 0.104752 0.094119
0.627563 0.101668 0.083710
0.703108 0.098585 0.073301
0.778652 0.095502 0.062892
0.851401 0.092881 0.057601
0.922547 0.090527 0.055247
0.993692 0.088172 0.052892
1.000000 0.085817 0.050537
1.000000 0.083463 0.048183
0.000000 0.196866 0.156956
0.027222 0.193783 0.146547
0.102766 0.190699 0.136138
0.178311 0.187616 0.125729
0.253855 0.184532 0.115320
0.329400 0.181449 0.104911
0.404944 0.178365 0.094502
0.480488 0.175282 0.084093
0.556033 0.172198 0.073684
0.631577 0.169115 0.063275
0.704488 0.166468 0.057688
0.775633 0.164113 0.055333
0.846779 0.161759 0.052979
0.917924 0.159404 0.050624
0.989069 0.157049 0.048269
1.000000 0.154695 0.045915
1.000000 0.152340 0.043560
0.000000 0.264313 0.136521
0.031236 0.261229 0.126112
0.106780 0.258146 0.115703
0.182324 0.255062 0.105294
0.257869 0.251979 0.094885
0.333413 0.248895 0.084476
0.408957 0.245812 0.074067
0.484502 0.242728 0.063658
0.557574 0.240054 0.057774
0.628720 0.237700 0.055420
0.699865 0.235345 0.053065
0.771011 0.232991 0.050711
0.842156 0.230636 0.048356
0.913301 0.228281 0.046001
0.984447 0.225927 0.043647
1.000000 0.223572 0.041292
1.000000 0.221217 0.038937
0.000000 0.331759 0.116086
0.035249 0.328676 0.105677
0.110793 0.325592 0.095268
0.186338 0.322509 0.084859
0.261882 0.319425 0.074450
0.337427 0.316342 0.064041
0.410661 0.313641 0.057861
0.481806 0.311286 0.055506
0.552952 0.308932 0.053152
0.624097 0.306577 0.050797
0.695243 0.304223 0.048443
0.766388 0.301868 0.046088
0.837533 0.299513 0.043733
0.908679 0.297159 0.041379
0.979824 0.294804 0.039024
1.000000 0.292449 0.036669
1.000000 0.290095 0.034315
0.000000 0.399206 0.095651
0.039263 0.396122 0.085242
0.114807 0.393039 0.074833
0.190351 0.389955 0.064424
0.263748 0.387228 0.057948
0.334893 0.384873 0.055593
0.406038 0.382518 0.053238
0.477184 0.380164 0.050884
0.548329 0.377809 0.048529
0.619475 0.375455 0.046175
0.690620 0.373100 0.043820
0.761765 0.370745 0.041465
0.832911 0.368391 0.039111
0.904056 0.366036 0.036756
0.975201 0.363681 0.034401
1.000000 0.361327 0.032047
1.000000 0.358972 0.029692
0.000000 0.466652 0.075216
0.043276 0.463569 0.064807
0.116834 0.460814 0.058034
0.187980 0.458460 0.055680
0.259125 0.456105 0.053325
0.330270 0.453750 0.050970
0.401416 0.451396 0.048616
0.472561 0.449041 0.046261
0.543707 0.446687 0.043907
0.614852 0.444332 0.041552
0.685997 0.441977 0.039197
0.757143 0.439623 0.036843
0.828288 0.437268 0.034488
0.899433 0.434913 0.032133
0.970579 0.432559 0.029779
1.000000 0.430204 0.027424
1.000000 0.427850 0.025070
0.000000 0.534401 0.058121
0.041066 0.532046 0.055766
0.112212 0.529692 0.053412
0.183357 0.527337 0.051057
0.254502 0.524982 0.048702
0.325648 0.522628 0.046348
0.396793 0.520273 0.043993
0.467939 0.517919 0.041639
0.539084 0.515564 0.039284
0.610229 0.513209 0.036929
0.681375 0.510855 0.034575
0.752520 0.508500 0.032220
0.823665 0.506145 0.029865
0.894811 0.503791 0.027511
0.965956 0.501436 0.025156
1.000000 0.499082 0.022802
1.000000 0.496727 0.020447
0.000000 0.603278 0.053498
0.036444 0.600924 0.051144
0.107589 0.598569 0.048789
0.178734 0.596214 0.046434
0.249880 0.593860 0.044080
0.321025 0.591505 0.041725
0.392171 0.589151 0.039371
0.463316 0.586796 0.037016
0.534461 0.584441 0.034661
0.605607 0.582087 0.032307
0.676752 0.579732 0.029952
0.747897 0.577377 0.027597
0.819043 0.575023 0.025243
0.890188 0.572668 0.022888
0.961334 0.570314 0.020534
1.000000 0.567959 0.018179
1.000000 0.565604 0.015824
0.000000 0.672156 0.048876
0.031821 0.669801 0.046521
0.102966 0.667446 0.044166
0.174112 0.665092 0.041812
0.245257 0.662737 0.039457
0.316403 0.660383 0.037103
0.387548 0.658028 0.034748
0.458693 0.655673 0.032393
0.529839 0.653319 0.030039
0.600984 0.650964 0.027684
0.672129 0.648609 0.025329
0.743275 0.646255 0.022975
0.814420 0.643900 0.020620
0.885566 0.641546 0.018266
0.956711 0.639191 0.015911
1.000000 0.636836 0.013556
1.000000 0.634482 0.011202
0.000000 0.741033 0.044253
0.027198 0.738678 0.041898
0.098344 0.736324 0.039544
0.169489 0.733969 0.037189
0.240635 0.731615 0.034835
0.311780 0.729260 0.032480
0.382925 0.726905 0.030125
0.454071 0.724551 0.027771
0.525216 0.722196 0.025416
0.596361 0.719841 0.023061
0.667507 0.717487 0.020707
0.738652 0.715132 0.018352
0.809798 0.712778 0.015998
0.880943 0.710423 0.013643
0.952088 0.708068 0.011288
1.000000 0.705714 0.008934
1.000000 0.705152 0.004417
0.000000 0.809910 0.039630
0.022576 0.807556 0.037276
0.093721 0.805201 0.034921
0.164867 0.802847 0.032567
0.236012 0.800492 0.030212
0.307157 0.798137 0.027857
0.378303 0.795783 0.025503
0.449448 0.793428 0.023148
0.520593 0.791073 0.020793
0.591739 0.788719 0.018439
0.662884 0.786364 0.016084
0.734030 0.784010 0.013730
0.805175 0.781655 0.011375
0.876320 0.779300 0.009020
0.949817 0.778665 0.004592
1.000000 0.778303 0.000000
1.000000 0.777940 0.000000
0.000000 0.878788 0.035008
0.017953 0.876433 0.032653
0.089099 0.874079 0.030299
0.160244 0.871724 0.027944
0.231389 0.869369 0.025589
0.302535 0.867015 0.023235
0.373680 0.864660 0.020880
0.444825 0.862305 0.018525
0.515971 0.859951 0.016171
0.587116 0.857596 0.013816
0.658262 0.855242 0.011462
0.729407 0.852887 0.009107
0.802803 0.852178 0.004767
0.876674 0.851816 0.000010
0.950544 0.851454 0.000000
1.000000 0.851092 0.000000
1.000000 0.850729 0.000000
0.000000 0.947665 0.030385
0.013331 0.945311 0.028031
0.084476 0.942956 0.025676
0.155621 0.940601 0.023321
0.226767 0.938247 0.020967
0.297912 0.935892 0.018612
0.369057 0.933537 0.016257
0.440203 0.931183 0.013903
0.511348 0.928828 0.011548
0.582494 0.926474 0.009194
0.655790 0.925692 0.004942
0.729660 0.925329 0.000185
0.803530 0.924967 0.000000
0.877401 0.924605 0.000000
0.951271 0.924243 0.000000
1.000000 0.923880 0.000000
1.000000 0.923518 0.000000
0.000000 1.000000 0.025763
0.008708 1.000000 0.023408
0.079853 1.000000 0.021053
0.150999 1.000000 0.018699
0.222144 1.000000 0.016344
0.293289 1.000000 0.013989
0.364435 1.000000 0.011635
0.435580 1.000000 0.009280
0.508776 0.999205 0.005117
0.582646 0.998843 0.000360
0.656517 0.998480 0.000000
0.730387 0.998118 0.000000
0.804257 0.997756 0.000000
0.878128 0.997394 0.000000
0.951998 0.997032 0.000000
1.000000 0.996669 0.000000
1.000000 0.996307 0.000000
0.000000 1.000000 0.021140
0.004085 1.000000 0.018785
0.075231 1.000000 0.016431
0.146376 1.000000 0.014076
0.217521 1.000000 0.011721
0.288667 1.000000 0.009367
0.361762 1.000000 0.005292
0.435633 1.000000 0.000535
0.509503 1.000000 0.000000
0.583373 1.000000 0.000000
0.657244 1.000000 0.000000
0.731114 1.000000 0.000000
0.804984 1.000000 0.000000
0.878855 1.000000 0.000000
0.952725 1.000000 0.000000
1.000000 1.000000 0.000000
1.000000 1.000000 0.000000
0.000000 0.000000 0.287792
0.015961 0.000000 0.277383
0.091505 0.000000 0.266974
0.167050 0.000000 0.256565
0.242594 0.000000 0.246156
0.318138 0.000000 0.235747
0.393683 0.000000 0.225338
0.469227 0.000000 0.214929
0.544772 0.000000 0.204520
0.620316 0.000000 0.194111
0.695860 0.000000 0.183702
0.771405 0.000000 0.173293
0.846949 0.000000 0.162884
0.922493 0.000000 0.152475
0.998038 0.000000 0.142066
1.000000 0.000000 0.132385
1.000000 0.000000 0.130030
0.000000 0.060798 0.267357
0.019974 0.057714 0.256948
0.095519 0.054631 0.246539
