tools/fandomforge/assets/color_luts/leon-damnation.cube
TITLE "leon-damnation-Damnation"
LUT_3D_SIZE 17
0.000000 0.000000 0.002400
0.034857 0.000000 0.003676
0.093578 0.000000 0.004952
0.152299 0.000000 0.006228
0.211021 0.000000 0.007503
0.269742 0.000000 0.008779
0.328463 0.002361 0.010055
0.387185 0.005273 0.011331
0.445906 0.008185 0.012606
0.504627 0.011097 0.013882
0.563349 0.014009 0.015158
0.622070 0.016921 0.016434
0.680791 0.019833 0.017709
0.739513 0.022744 0.018985
0.798234 0.025656 0.020261
0.856955 0.028568 0.021537
0.915677 0.031480 0.022813
0.000000 0.045326 0.004905
0.042715 0.048237 0.006181
0.101436 0.051149 0.007456
0.160157 0.054061 0.008732
0.218879 0.056973 0.010008
0.277600 0.059885 0.011284
0.336321 0.062797 0.012559
0.395043 0.065709 0.013835
0.453764 0.068620 0.015111
0.512485 0.071532 0.016387
0.571207 0.074444 0.017663
0.629928 0.077356 0.018938
0.688649 0.080268 0.020214
0.747371 0.083180 0.021490
0.806092 0.086092 0.022766
0.863799 0.088981 0.025507
0.921405 0.091868 0.028395
0.000000 0.105761 0.007409
0.050572 0.108673 0.008685
0.109294 0.111585 0.009961
0.168015 0.114497 0.011237
0.226736 0.117408 0.012513
0.285458 0.120320 0.013788
0.344179 0.123232 0.015064
0.402900 0.126144 0.016340
0.461622 0.129056 0.017616
0.520343 0.131968 0.018891
0.579064 0.134880 0.020167
0.637786 0.137791 0.021443
0.696507 0.140703 0.022719
0.754255 0.143594 0.025401
0.811861 0.146481 0.028288
0.869467 0.149368 0.031176
0.927073 0.152255 0.034063
0.000000 0.166196 0.009914
0.058430 0.169108 0.011190
0.117152 0.172020 0.012466
0.175873 0.174932 0.013741
0.234594 0.177844 0.015017
0.293316 0.180756 0.016293
0.352037 0.183667 0.017569
0.410758 0.186579 0.018844
0.469480 0.189491 0.020120
0.528201 0.192403 0.021396
0.586922 0.195315 0.022672
0.644711 0.198206 0.025295
0.702317 0.201093 0.028182
0.759923 0.203981 0.031069
0.817529 0.206868 0.033957
0.875135 0.209755 0.036844
0.932741 0.212642 0.039731
0.007567 0.226632 0.012419
0.066288 0.229544 0.013694
0.125010 0.232455 0.014970
0.183731 0.235367 0.016246
0.242452 0.238279 0.017522
0.301174 0.241191 0.018798
0.359895 0.244103 0.020073
0.418616 0.247015 0.021349
0.477338 0.249927 0.022625
0.535167 0.252819 0.025189
0.592773 0.255706 0.028076
0.650379 0.258593 0.030963
0.707985 0.261480 0.033850
0.765591 0.264368 0.036738
0.823197 0.267255 0.039625
0.880803 0.270142 0.042512
0.938409 0.273029 0.045399
0.015425 0.287067 0.014923
0.074146 0.289979 0.016199
0.132868 0.292891 0.017475
0.191589 0.295803 0.018751
0.250310 0.298714 0.020026
0.309032 0.301626 0.021302
0.367753 0.304538 0.022578
0.425624 0.307431 0.025082
0.483230 0.310318 0.027970
0.540836 0.313206 0.030857
0.598442 0.316093 0.033744
0.656048 0.318980 0.036631
0.713654 0.321867 0.039519
0.771260 0.324755 0.042406
0.828865 0.327642 0.045293
0.886471 0.330529 0.048180
0.944077 0.333416 0.051067
0.023283 0.347502 0.017428
0.082004 0.350414 0.018704
0.140725 0.353326 0.019979
0.199447 0.356238 0.021255
0.258168 0.359150 0.022531
0.316080 0.362044 0.024976
0.373686 0.364931 0.027863
0.431292 0.367818 0.030751
0.488898 0.370705 0.033638
0.546504 0.373593 0.036525
0.604110 0.376480 0.039412
0.661716 0.379367 0.042300
0.719322 0.382254 0.045187
0.776928 0.385141 0.048074
0.834534 0.388029 0.050961
0.892140 0.390916 0.053848
0.949746 0.393803 0.056736
0.031141 0.407938 0.019932
0.089862 0.410850 0.021208
0.148583 0.413761 0.022484
0.206536 0.416656 0.024870
0.264142 0.419543 0.027757
0.321748 0.422431 0.030644
0.379354 0.425318 0.033532
0.436960 0.428205 0.036419
0.494566 0.431092 0.039306
0.552172 0.433980 0.042193
0.609778 0.436867 0.045081
0.667384 0.439754 0.047968
0.724990 0.442641 0.050855
0.782596 0.445528 0.053742
0.840202 0.448416 0.056629
0.897808 0.451303 0.059517
0.955414 0.454190 0.062404
0.038999 0.468373 0.022437
0.096993 0.471269 0.024764
0.154599 0.474156 0.027651
0.212204 0.477043 0.030538
0.269810 0.479930 0.033425
0.327416 0.482818 0.036313
0.385022 0.485705 0.039200
0.442628 0.488592 0.042087
0.500234 0.491479 0.044974
0.557840 0.494367 0.047862
0.615446 0.497254 0.050749
0.673052 0.500141 0.053636
0.730658 0.503028 0.056523
0.788264 0.505915 0.059410
0.845870 0.508803 0.062298
0.903476 0.511690 0.065185
0.961082 0.514577 0.068072
0.045055 0.528769 0.027545
0.102661 0.531656 0.030432
0.160267 0.534543 0.033319
0.217873 0.537430 0.036206
0.275479 0.540317 0.039094
0.333085 0.543205 0.041981
0.390691 0.546092 0.044868
0.448297 0.548979 0.047755
0.505903 0.551866 0.050643
0.563509 0.554754 0.053530
0.621114 0.557641 0.056417
0.678720 0.560528 0.059304
0.736326 0.563415 0.062191
0.793932 0.566302 0.065079
0.851538 0.569190 0.067966
0.909144 0.572077 0.070853
0.966750 0.574964 0.073740
0.050723 0.589156 0.033213
0.108329 0.592043 0.036100
0.165935 0.594930 0.038987
0.223541 0.597817 0.041875
0.281147 0.600704 0.044762
0.338753 0.603592 0.047649
0.396359 0.606479 0.050536
0.453965 0.609366 0.053424
0.511571 0.612253 0.056311
0.569177 0.615140 0.059198
0.626783 0.618028 0.062085
0.684389 0.620915 0.064972
0.741995 0.623802 0.067860
0.799601 0.626689 0.070747
0.857207 0.629577 0.073634
0.914813 0.632464 0.076521
0.972419 0.635351 0.079409
0.056391 0.649542 0.038881
0.113997 0.652430 0.041768
0.171603 0.655317 0.044656
0.229209 0.658204 0.047543
0.286815 0.661091 0.050430
0.344421 0.663979 0.053317
0.402027 0.666866 0.056205
0.459633 0.669753 0.059092
0.517239 0.672640 0.061979
0.574845 0.675527 0.064866
0.632451 0.678415 0.067753
0.690057 0.681302 0.070641
0.747663 0.684189 0.073528
0.805269 0.687076 0.076415
0.862875 0.689964 0.079302
0.920481 0.692851 0.082190
0.978250 0.695827 0.085016
0.062059 0.709929 0.044549
0.119665 0.712817 0.047437
0.177271 0.715704 0.050324
0.234877 0.718591 0.053211
0.292483 0.721478 0.056098
0.350089 0.724366 0.058986
0.407695 0.727253 0.061873
0.465301 0.730140 0.064760
0.522907 0.733027 0.067647
0.580513 0.735914 0.070534
0.638119 0.738802 0.073422
0.695725 0.741689 0.076309
0.753331 0.744576 0.079196
0.810937 0.747463 0.082083
0.868663 0.750416 0.084926
0.927463 0.753951 0.087371
0.986262 0.757487 0.089816
0.067728 0.770316 0.050218
0.125334 0.773204 0.053105
0.182940 0.776091 0.055992
0.240546 0.778978 0.058879
0.298152 0.781865 0.061767
0.355758 0.784753 0.064654
0.413363 0.787640 0.067541
0.470969 0.790527 0.070428
0.528575 0.793414 0.073315
0.586181 0.796301 0.076203
0.643787 0.799189 0.079090
0.701393 0.802076 0.081977
0.759075 0.805004 0.084836
0.817875 0.808540 0.087281
0.876675 0.812076 0.089726
0.935474 0.815611 0.092171
0.994274 0.819147 0.094616
0.073396 0.830703 0.055886
0.131002 0.833591 0.058773
0.188608 0.836478 0.061660
0.246214 0.839365 0.064548
0.303820 0.842252 0.067435
0.361426 0.845139 0.070322
0.419032 0.848027 0.073209
0.476638 0.850914 0.076096
0.534244 0.853801 0.078984
0.591850 0.856688 0.081871
0.649488 0.859593 0.084746
0.708287 0.863129 0.087191
0.767087 0.866664 0.089636
0.825887 0.870200 0.092081
0.884687 0.873736 0.094526
0.943486 0.877271 0.096971
1.000000 0.880807 0.099416
0.079064 0.891090 0.061554
0.136670 0.893978 0.064441
0.194276 0.896865 0.067329
0.251882 0.899752 0.070216
0.309488 0.902639 0.073103
0.367094 0.905526 0.075990
0.424700 0.908414 0.078877
0.482306 0.911301 0.081765
0.539912 0.914188 0.084652
0.598700 0.917717 0.087101
0.657499 0.921253 0.089546
0.716299 0.924789 0.091991
0.775099 0.928324 0.094436
0.833899 0.931860 0.096881
0.892698 0.935396 0.099326
0.951498 0.938931 0.101771
1.000000 0.942467 0.104216
0.084732 0.951477 0.067222
0.142338 0.954365 0.070110
0.199944 0.957252 0.072997
0.257550 0.960139 0.075884
0.315156 0.963026 0.078771
0.372762 0.965913 0.081658
0.430368 0.968801 0.084546
0.489112 0.972306 0.087011
0.547912 0.975842 0.089456
0.606712 0.979377 0.091901
0.665511 0.982913 0.094346
0.724311 0.986449 0.096791
0.783111 0.989984 0.099236
0.841911 0.993520 0.101681
0.900710 0.997056 0.104126
0.959510 1.000000 0.106571
1.000000 1.000000 0.109016
0.000000 0.000000 0.057605
0.036383 0.000000 0.058881
0.095104 0.000000 0.060157
0.153825 0.000000 0.061433
0.212547 0.000000 0.062709
0.271268 0.000560 0.063984
0.329989 0.003472 0.065260
0.388711 0.006384 0.066536
0.447432 0.009295 0.067812
0.506153 0.012207 0.069087
0.564875 0.015119 0.070363
0.623596 0.018031 0.071639
0.682317 0.020943 0.072915
0.741039 0.023855 0.074190
0.799760 0.026766 0.075466
0.858481 0.029678 0.076742
0.916837 0.032582 0.078546
0.000000 0.046436 0.060110
0.044241 0.049348 0.061386
0.102962 0.052260 0.062662
0.161683 0.055171 0.063937
0.220405 0.058083 0.065213
0.279126 0.060995 0.066489
0.337847 0.063907 0.067765
0.396569 0.066819 0.069040
0.455290 0.069731 0.070316
0.514011 0.072643 0.071592
0.572733 0.075554 0.072868
0.631454 0.078466 0.074143
0.690175 0.081378 0.075419
0.748897 0.084290 0.076695
0.807293 0.087195 0.078440
0.864899 0.090082 0.081327
0.922505 0.092969 0.084214
0.000000 0.106871 0.062615
0.052099 0.109783 0.063890
0.110820 0.112695 0.065166
0.169541 0.115607 0.066442
0.228263 0.118519 0.067718
0.286984 0.121430 0.068993
0.345705 0.124342 0.070269
0.404427 0.127254 0.071545
0.463148 0.130166 0.072821
0.521869 0.133078 0.074097
0.580591 0.135990 0.075372
0.639312 0.138902 0.076648
0.697750 0.141807 0.078333
0.755356 0.144694 0.081221
0.812962 0.147582 0.084108
0.870568 0.150469 0.086995
0.928174 0.153356 0.089882
0.001235 0.167307 0.065119
0.059956 0.170218 0.066395
0.118678 0.173130 0.067671
0.177399 0.176042 0.068947
0.236120 0.178954 0.070222
0.294842 0.181866 0.071498
0.353563 0.184778 0.072774
0.412284 0.187690 0.074050
0.471006 0.190601 0.075325
0.529727 0.193513 0.076601
0.588206 0.196420 0.078227
0.645812 0.199307 0.081114
0.703418 0.202194 0.084002
0.761024 0.205081 0.086889
0.818630 0.207969 0.089776
0.876236 0.210856 0.092663
0.933842 0.213743 0.095551
0.009093 0.227742 0.067624
0.067814 0.230654 0.068900
0.126536 0.233566 0.070175
0.185257 0.236477 0.071451
0.243978 0.239389 0.072727
0.302700 0.242301 0.074003
0.361421 0.245213 0.075278
0.420142 0.248125 0.076554
0.478662 0.251032 0.078121
0.536268 0.253919 0.081008
0.593874 0.256807 0.083895
0.651480 0.259694 0.086783
0.709086 0.262581 0.089670
0.766692 0.265468 0.092557
0.824298 0.268356 0.095444
0.881904 0.271243 0.098332
0.939510 0.274130 0.101219
0.016951 0.288177 0.070128
0.075672 0.291089 0.071404
0.134394 0.294001 0.072680
0.193115 0.296913 0.073956
0.251836 0.299825 0.075232
0.310558 0.302736 0.076507
0.369119 0.305645 0.078015
0.426725 0.308532 0.080902
0.484330 0.311419 0.083789
0.541936 0.314306 0.086676
0.599542 0.317194 0.089564
0.657148 0.320081 0.092451
0.714754 0.322968 0.095338
0.772360 0.325855 0.098225
0.829966 0.328743 0.101113
0.887572 0.331630 0.104000
0.945178 0.334517 0.106887
0.024809 0.348613 0.072633
0.083530 0.351524 0.073909
0.142252 0.354436 0.075185
0.200973 0.357348 0.076460
0.259575 0.360257 0.077909
0.317181 0.363145 0.080796
0.374787 0.366032 0.083683
0.432393 0.368919 0.086570
0.489999 0.371806 0.089457
0.547605 0.374693 0.092345
0.605211 0.377581 0.095232
0.662817 0.380468 0.098119
0.720423 0.383355 0.101006
0.778029 0.386242 0.103894
0.835635 0.389130 0.106781
0.893240 0.392017 0.109668
0.950846 0.394904 0.112555
0.032667 0.409048 0.075138
0.091388 0.411960 0.076413
0.150031 0.414870 0.077802
0.207637 0.417757 0.080690
0.265243 0.420644 0.083577
0.322849 0.423532 0.086464
0.380455 0.426419 0.089351
0.438061 0.429306 0.092238
0.495667 0.432193 0.095126
0.553273 0.435080 0.098013
0.610879 0.437968 0.100900
0.668485 0.440855 0.103787
0.726091 0.443742 0.106675
0.783697 0.446629 0.109562
0.841303 0.449516 0.112449
0.898909 0.452404 0.115336
0.956515 0.455291 0.118223
0.040487 0.469482 0.077696
0.098093 0.472370 0.080583
0.155699 0.475257 0.083471
0.213305 0.478144 0.086358
0.270911 0.481031 0.089245
0.328517 0.483918 0.092132
0.386123 0.486806 0.095019
0.443729 0.489693 0.097907
0.501335 0.492580 0.100794
0.558941 0.495467 0.103681
0.616547 0.498355 0.106568
0.674153 0.501242 0.109456
0.731759 0.504129 0.112343
0.789365 0.507016 0.115230
0.846971 0.509903 0.118117
0.904577 0.512791 0.121004
0.962183 0.515678 0.123892
0.046156 0.529869 0.083364
0.103762 0.532757 0.086252
0.161368 0.535644 0.089139
0.218974 0.538531 0.092026
0.276579 0.541418 0.094913
0.334185 0.544305 0.097800
0.391791 0.547193 0.100688
0.449397 0.550080 0.103575
0.507003 0.552967 0.106462
0.564609 0.555854 0.109349
0.622215 0.558742 0.112237
0.679821 0.561629 0.115124
0.737427 0.564516 0.118011
0.795033 0.567403 0.120898
0.852639 0.570290 0.123785
0.910245 0.573178 0.126673
0.967851 0.576065 0.129560
0.051824 0.590256 0.089033
0.109430 0.593144 0.091920
0.167036 0.596031 0.094807
0.224642 0.598918 0.097694
0.282248 0.601805 0.100581
0.339854 0.604692 0.103469
0.397460 0.607580 0.106356
0.455066 0.610467 0.109243
0.512672 0.613354 0.112130
0.570278 0.616241 0.115018
0.627884 0.619129 0.117905
0.685489 0.622016 0.120792
0.743095 0.624903 0.123679
0.800701 0.627790 0.126566
0.858307 0.630677 0.129454
0.915913 0.633565 0.132341
0.973519 0.636452 0.135228
0.057492 0.650643 0.094701
0.115098 0.653531 0.097588
0.172704 0.656418 0.100475
0.230310 0.659305 0.103362
0.287916 0.662192 0.106250
0.345522 0.665079 0.109137
0.403128 0.667967 0.112024
0.460734 0.670854 0.114911
0.518340 0.673741 0.117799
0.575946 0.676628 0.120686
0.633552 0.679515 0.123573
0.691158 0.682403 0.126460
0.748764 0.685290 0.129347
0.806370 0.688177 0.132235
0.863976 0.691064 0.135122
0.921582 0.693952 0.138009
0.979806 0.697175 0.140667
0.063160 0.711030 0.100369
0.120766 0.713917 0.103256
0.178372 0.716805 0.106143
0.235978 0.719692 0.109031
0.293584 0.722579 0.111918
0.351190 0.725466 0.114805
0.408796 0.728354 0.117692
0.466402 0.731241 0.120580
0.524008 0.734128 0.123467
0.581614 0.737015 0.126354
0.639220 0.739902 0.129241
0.696826 0.742790 0.132128
0.754432 0.745677 0.135016
0.812038 0.748564 0.137903
0.870219 0.751764 0.140577
0.929019 0.755299 0.143022
0.987818 0.758835 0.145467
0.068828 0.771417 0.106037
0.126434 0.774304 0.108924
0.184040 0.777192 0.111812
0.241646 0.780079 0.114699
0.299252 0.782966 0.117586
0.356858 0.785853 0.120473
0.414464 0.788741 0.123361
0.472070 0.791628 0.126248
0.529676 0.794515 0.129135
0.587282 0.797402 0.132022
0.644888 0.800289 0.134909
0.702494 0.803177 0.137797
0.760631 0.806352 0.140487
0.819431 0.809888 0.142932
0.878231 0.813424 0.145377
0.937030 0.816959 0.147822
0.995830 0.820495 0.150267
0.074497 0.831804 0.111705
0.132103 0.834691 0.114593
0.189709 0.837579 0.117480
0.247315 0.840466 0.120367
0.304921 0.843353 0.123254
0.362527 0.846240 0.126142
0.420133 0.849128 0.129029
0.477738 0.852015 0.131916
0.535344 0.854902 0.134803
0.592950 0.857789 0.137690
0.651043 0.860941 0.140397
0.709843 0.864477 0.142842
0.768643 0.868012 0.145287
0.827443 0.871548 0.147732
0.886243 0.875084 0.150177
0.945042 0.878619 0.152622
1.000000 0.882155 0.155067
0.080165 0.892191 0.117374
0.137771 0.895078 0.120261
0.195377 0.897966 0.123148
0.252983 0.900853 0.126035
0.310589 0.903740 0.128923
0.368195 0.906627 0.131810
0.425801 0.909514 0.134697
0.483407 0.912402 0.137584
0.541456 0.915530 0.140307
0.600256 0.919065 0.142752
0.659055 0.922601 0.145197
0.717855 0.926137 0.147642
0.776655 0.929672 0.150087
0.835455 0.933208 0.152532
0.894254 0.936744 0.154977
0.953054 0.940279 0.157422
1.000000 0.943815 0.159867
0.085833 0.952578 0.123042
0.143439 0.955465 0.125929
0.201045 0.958353 0.128816
0.258651 0.961240 0.131704
0.316257 0.964127 0.134591
0.373863 0.967014 0.137478
0.431868 0.970118 0.140217
0.490668 0.973654 0.142662
0.549468 0.977190 0.145107
0.608268 0.980725 0.147552
0.667067 0.984261 0.149997
0.725867 0.987797 0.152442
0.784667 0.991332 0.154887
0.843467 0.994868 0.157332
0.902266 0.998404 0.159777
0.961066 1.000000 0.162222
1.000000 1.000000 0.164667
0.000000 0.000000 0.112811
0.037909 0.000000 0.114086
0.096630 0.000000 0.115362
0.155351 0.000000 0.116638
0.214073 0.000000 0.117914
0.272794 0.001670 0.119189
0.331515 0.004582 0.120465
0.390237 0.007494 0.121741
0.448958 0.010406 0.123017
0.507679 0.013317 0.124293
0.566401 0.016229 0.125568
0.625122 0.019141 0.126844
0.683843 0.022053 0.128120
0.742565 0.024965 0.129396
0.801286 0.027877 0.130671
0.860007 0.030789 0.131947
0.917938 0.033683 0.134365
0.000000 0.047546 0.115315
0.045767 0.050458 0.116591
0.104488 0.053370 0.117867
0.163209 0.056282 0.119143
0.221931 0.059193 0.120418
0.280652 0.062105 0.121694
0.339373 0.065017 0.122970
0.398095 0.067929 0.124246
0.456816 0.070841 0.125521
0.515537 0.073753 0.126797
0.574259 0.076665 0.128073
0.632980 0.079576 0.129349
0.691701 0.082488 0.130624
0.750423 0.085400 0.131900
0.808394 0.088295 0.134259
0.866000 0.091183 0.137146
0.923606 0.094070 0.140034
0.000000 0.107981 0.117820
0.053625 0.110893 0.119096
0.112346 0.113805 0.120371
0.171067 0.116717 0.121647
0.229789 0.119629 0.122923
0.288510 0.122541 0.124199
0.347231 0.125453 0.125474
0.405953 0.128364 0.126750
0.464674 0.131276 0.128026
0.523395 0.134188 0.129302
0.582117 0.137100 0.130577
0.640838 0.140012 0.131853
0.698851 0.142908 0.134153
0.756456 0.145795 0.137040
0.814062 0.148682 0.139927
0.871668 0.151570 0.142815
0.929274 0.154457 0.145702
0.002761 0.168417 0.120324
0.061483 0.171329 0.121600
0.120204 0.174240 0.122876
0.178925 0.177152 0.124152
0.237647 0.180064 0.125427
0.296368 0.182976 0.126703
0.355089 0.185888 0.127979
0.413811 0.188800 0.129255
0.472532 0.191712 0.130531
0.531253 0.194623 0.131806
0.589307 0.197521 0.134047
0.646913 0.200408 0.136934
0.704519 0.203295 0.139821
0.762125 0.206182 0.142708
0.819731 0.209069 0.145596
0.877337 0.211957 0.148483
0.934943 0.214844 0.151370
0.010619 0.228852 0.122829
0.069340 0.231764 0.124105
0.128062 0.234676 0.125381
0.186783 0.237588 0.126656
0.245504 0.240499 0.127932
0.304226 0.243411 0.129208
0.362947 0.246323 0.130484
0.421668 0.249235 0.131759
0.479763 0.252133 0.133941
0.537369 0.255020 0.136828
0.594975 0.257908 0.139715
0.652581 0.260795 0.142602
0.710187 0.263682 0.145489
0.767793 0.266569 0.148377
0.825399 0.269456 0.151264
0.883005 0.272344 0.154151
0.940611 0.275231 0.157038
0.018477 0.289287 0.125334
0.077198 0.292199 0.126609
0.135920 0.295111 0.127885
0.194641 0.298023 0.129161
0.253362 0.300935 0.130437
0.312084 0.303847 0.131712
0.370219 0.306746 0.133834
0.427825 0.309633 0.136722
0.485431 0.312520 0.139609
0.543037 0.315407 0.142496
0.600643 0.318294 0.145383
0.658249 0.321182 0.148270
0.715855 0.324069 0.151158
0.773461 0.326956 0.154045
0.831067 0.329843 0.156932
0.888673 0.332731 0.159819
0.946279 0.335618 0.162707
0.026335 0.349723 0.127838
0.085056 0.352635 0.129114
0.143778 0.355546 0.130390
0.202499 0.358458 0.131666
0.260676 0.361358 0.133728
0.318282 0.364245 0.136615
0.375888 0.367133 0.139503
0.433494 0.370020 0.142390
0.491100 0.372907 0.145277
0.548705 0.375794 0.148164
0.606311 0.378681 0.151051
0.663917 0.381569 0.153939
0.721523 0.384456 0.156826
0.779129 0.387343 0.159713
0.836735 0.390230 0.162600
0.894341 0.393118 0.165488
0.951947 0.396005 0.168375
0.034193 0.410158 0.130343
0.092914 0.413070 0.131619
0.151132 0.415971 0.133622
0.208738 0.418858 0.136509
0.266344 0.421745 0.139396
0.323950 0.424632 0.142284
0.381556 0.427520 0.145171
0.439162 0.430407 0.148058
0.496768 0.433294 0.150945
0.554374 0.436181 0.153832
0.611980 0.439068 0.156720
0.669586 0.441956 0.159607
0.727192 0.444843 0.162494
0.784798 0.447730 0.165381
0.842404 0.450617 0.168269
0.900010 0.453505 0.171156
0.957615 0.456392 0.174043
0.041588 0.470583 0.133516
0.099194 0.473470 0.136403
0.156800 0.476358 0.139290
0.214406 0.479245 0.142177
0.272012 0.482132 0.145065
0.329618 0.485019 0.147952
0.387224 0.487907 0.150839
0.444830 0.490794 0.153726
0.502436 0.493681 0.156613
0.560042 0.496568 0.159501
0.617648 0.499455 0.162388
0.675254 0.502343 0.165275
0.732860 0.505230 0.168162
0.790466 0.508117 0.171050
0.848072 0.511004 0.173937
0.905678 0.513891 0.176824
0.963284 0.516779 0.179711
0.047256 0.530970 0.139184
0.104862 0.533857 0.142071
0.162468 0.536745 0.144958
0.220074 0.539632 0.147846
0.277680 0.542519 0.150733
0.335286 0.545406 0.153620
0.392892 0.548293 0.156507
0.450498 0.551181 0.159394
0.508104 0.554068 0.162282
0.565710 0.556955 0.165169
0.623316 0.559842 0.168056
0.680922 0.562730 0.170943
0.738528 0.565617 0.173831
0.796134 0.568504 0.176718
0.853740 0.571391 0.179605
0.911346 0.574278 0.182492
0.968952 0.577166 0.185379
0.052925 0.591357 0.144852
0.110531 0.594244 0.147739
0.168137 0.597132 0.150627
0.225743 0.600019 0.153514
0.283349 0.602906 0.156401
0.340954 0.605793 0.159288
0.398560 0.608680 0.162175
0.456166 0.611568 0.165063
0.513772 0.614455 0.167950
0.571378 0.617342 0.170837
0.628984 0.620229 0.173724
0.686590 0.623117 0.176612
0.744196 0.626004 0.179499
0.801802 0.628891 0.182386
0.859408 0.631778 0.185273
0.917014 0.634665 0.188160
0.974620 0.637553 0.191048
0.058593 0.651744 0.150520
0.116199 0.654631 0.153408
0.173805 0.657519 0.156295
0.231411 0.660406 0.159182
0.289017 0.663293 0.162069
0.346623 0.666180 0.164956
0.404229 0.669067 0.167844
0.461835 0.671955 0.170731
0.519441 0.674842 0.173618
0.577047 0.677729 0.176505
0.634653 0.680616 0.179393
0.692259 0.683504 0.182280
0.749864 0.686391 0.185167
0.807470 0.689278 0.188054
0.865076 0.692165 0.190941
0.922682 0.695052 0.193829
0.981362 0.698523 0.196318
0.064261 0.712131 0.156189
0.121867 0.715018 0.159076
0.179473 0.717906 0.161963
0.237079 0.720793 0.164850
0.294685 0.723680 0.167737
0.352291 0.726567 0.170625
0.409897 0.729454 0.173512
0.467503 0.732342 0.176399
0.525109 0.735229 0.179286
0.582715 0.738116 0.182174
0.640321 0.741003 0.185061
0.697927 0.743890 0.187948
0.755533 0.746778 0.190835
0.813139 0.749665 0.193722
0.871775 0.753112 0.196228
0.930575 0.756647 0.198673
0.989374 0.760183 0.201118
0.069929 0.772518 0.161857
0.127535 0.775405 0.164744
0.185141 0.778292 0.167631
0.242747 0.781180 0.170518
0.300353 0.784067 0.173406
0.357959 0.786954 0.176293
0.415565 0.789841 0.179180
0.473171 0.792729 0.182067
0.530777 0.795616 0.184955
0.588383 0.798503 0.187842
0.645989 0.801390 0.190729
0.703595 0.804277 0.193616
0.762187 0.807700 0.196138
0.820987 0.811236 0.198583
0.879787 0.814772 0.201028
0.938586 0.818307 0.203473
0.997386 0.821843 0.205918
0.075598 0.832905 0.167525
0.133203 0.835792 0.170412
0.190809 0.838679 0.173299
0.248415 0.841567 0.176187
0.306021 0.844454 0.179074
0.363627 0.847341 0.181961
0.421233 0.850228 0.184848
0.478839 0.853116 0.187736
0.536445 0.856003 0.190623
0.594051 0.858890 0.193510
0.652599 0.862289 0.196048
0.711399 0.865825 0.198493
0.770199 0.869360 0.200938
0.828999 0.872896 0.203383
0.887799 0.876432 0.205828
0.946598 0.879967 0.208273
1.000000 0.883503 0.210718
0.081266 0.893292 0.173193
0.138872 0.896179 0.176080
0.196478 0.899066 0.178968
0.254084 0.901954 0.181855
0.311690 0.904841 0.184742
0.369296 0.907728 0.187629
0.426902 0.910615 0.190517
0.484508 0.913503 0.193404
0.543012 0.916878 0.195958
0.601812 0.920413 0.198403
0.660611 0.923949 0.200848
0.719411 0.927485 0.203293
0.778211 0.931020 0.205738
0.837011 0.934556 0.208183
0.895810 0.938092 0.210628
0.954610 0.941627 0.213073
1.000000 0.945163 0.215518
0.086934 0.953679 0.178861
0.144540 0.956566 0.181749
0.202146 0.959453 0.184636
0.259752 0.962341 0.187523
0.317358 0.965228 0.190410
0.374964 0.968115 0.193298
0.433424 0.971466 0.195868
0.492224 0.975002 0.198313
0.551024 0.978538 0.200758
0.609823 0.982073 0.203203
0.668623 0.985609 0.205648
0.727423 0.989145 0.208093
0.786223 0.992680 0.210538
0.845023 0.996216 0.212983
0.903822 0.999752 0.215428
0.962622 1.000000 0.217873
1.000000 1.000000 0.220317
0.000000 0.000000 0.168016
0.039435 0.000000 0.169292
0.098156 0.000000 0.170567
0.156878 0.000000 0.171843
0.215599 0.000000 0.173119
0.274320 0.002780 0.174395
0.333042 0.005692 0.175670
0.391763 0.008604 0.176946
0.450484 0.011516 0.178222
0.509206 0.014428 0.179498
0.567927 0.017339 0.180773
0.626648 0.020251 0.182049
0.685370 0.023163 0.183325
0.744091 0.026075 0.184601
0.802812 0.028987 0.185877
0.861433 0.031897 0.187298
0.919039 0.034784 0.190185
0.000000 0.048656 0.170520
0.047293 0.051568 0.171796
0.106014 0.054480 0.173072
