tools/fandomforge/assets/color_luts/leon-re6-cutscenes.cube
TITLE "leon-re6-cutscenes-RE6"
LUT_3D_SIZE 17
0.000000 0.000000 0.037620
0.020227 0.000000 0.030990
0.094418 0.000000 0.024361
0.168610 0.000000 0.017732
0.242801 0.000000 0.011103
0.316992 0.000000 0.004474
0.391184 0.000000 0.000000
0.465375 0.000000 0.000000
0.539567 0.000000 0.000000
0.613758 0.000000 0.000000
0.687949 0.000000 0.000000
0.762141 0.000000 0.000000
0.836332 0.000000 0.000000
0.910523 0.000000 0.000000
0.984715 0.000000 0.000000
1.000000 0.000000 0.000000
1.000000 0.000000 0.000000
0.000000 0.060163 0.024605
0.025412 0.058526 0.017976
0.099604 0.056889 0.011347
0.173795 0.055251 0.004718
0.247987 0.053614 0.000000
0.322178 0.051977 0.000000
0.396369 0.050339 0.000000
0.470561 0.048702 0.000000
0.544752 0.047065 0.000000
0.618944 0.045427 0.000000
0.693135 0.043790 0.000000
0.767326 0.042153 0.000000
0.841518 0.040515 0.000000
0.915709 0.038878 0.000000
0.989900 0.037241 0.000000
1.000000 0.035651 0.000000
1.000000 0.034067 0.000000
0.000000 0.128499 0.011591
0.030598 0.126861 0.004962
0.104789 0.125224 0.000000
0.178981 0.123587 0.000000
0.253172 0.121949 0.000000
0.327364 0.120312 0.000000
0.401555 0.118675 0.000000
0.475746 0.117038 0.000000
0.549938 0.115400 0.000000
0.624129 0.113763 0.000000
0.698320 0.112126 0.000000
0.772512 0.110488 0.000000
0.846703 0.108851 0.000000
0.917206 0.107260 0.000000
0.987171 0.105675 0.000000
1.000000 0.104090 0.000000
1.000000 0.102506 0.000000
0.000000 0.196834 0.000000
0.035784 0.195197 0.000000
0.109975 0.193560 0.000000
0.184166 0.191922 0.000000
0.258358 0.190285 0.000000
0.332549 0.188648 0.000000
0.406741 0.187010 0.000000
0.480932 0.185373 0.000000
0.555123 0.183736 0.000000
0.629315 0.182099 0.000000
0.703506 0.180461 0.000000
0.774164 0.178868 0.000000
0.844129 0.177283 0.000000
0.914095 0.175699 0.000000
0.984060 0.174114 0.000000
1.000000 0.172529 0.000000
1.000000 0.170944 0.000000
0.000000 0.265170 0.000000
0.040969 0.263533 0.000000
0.115161 0.261895 0.000000
0.189352 0.260258 0.000000
0.263543 0.258621 0.000000
0.337735 0.256983 0.000000
0.411926 0.255346 0.000000
0.486117 0.253709 0.000000
0.560309 0.252071 0.000000
0.631122 0.250476 0.000000
0.701088 0.248892 0.000000
0.771053 0.247307 0.000000
0.841018 0.245722 0.000000
0.910983 0.244137 0.000000
0.980949 0.242553 0.000000
1.000000 0.240968 0.000000
1.000000 0.239383 0.000000
0.000000 0.333506 0.000000
0.046155 0.331868 0.000000
0.120346 0.330231 0.000000
0.194538 0.328594 0.000000
0.268729 0.326956 0.000000
0.342920 0.325319 0.000000
0.417112 0.323682 0.000000
0.488081 0.322085 0.000000
0.558046 0.320500 0.000000
0.628011 0.318915 0.000000
0.697976 0.317330 0.000000
0.767942 0.315746 0.000000
0.837907 0.314161 0.000000
0.907872 0.312576 0.000000
0.977838 0.310992 0.000000
1.000000 0.309407 0.000000
1.000000 0.307822 0.000000
0.000000 0.401841 0.000000
0.051340 0.400204 0.000000
0.125532 0.398567 0.000000
0.199723 0.396929 0.000000
0.273915 0.395292 0.000000
0.345039 0.393693 0.000000
0.415004 0.392108 0.000000
0.484969 0.390523 0.000000
0.554935 0.388939 0.000000
0.624900 0.387354 0.000000
0.694865 0.385769 0.000000
0.764831 0.384185 0.000000
0.834796 0.382600 0.000000
0.904761 0.381015 0.000000
0.974727 0.379431 0.000000
1.000000 0.377846 0.000000
1.000000 0.376261 0.000000
0.000000 0.470177 0.000000
0.056526 0.468539 0.000000
0.130717 0.466902 0.000000
0.201997 0.465301 0.000000
0.271962 0.463716 0.000000
0.341928 0.462132 0.000000
0.411893 0.460547 0.000000
0.481858 0.458962 0.000000
0.551824 0.457378 0.000000
0.621789 0.455793 0.000000
0.691754 0.454208 0.000000
0.761720 0.452624 0.000000
0.831685 0.451039 0.000000
0.901650 0.449454 0.000000
0.971615 0.447869 0.000000
1.000000 0.446285 0.000000
1.000000 0.444700 0.000000
0.000000 0.538512 0.000000
0.058955 0.536909 0.000000
0.128921 0.535325 0.000000
0.198886 0.533740 0.000000
0.268851 0.532155 0.000000
0.338817 0.530571 0.000000
0.408782 0.528986 0.000000
0.478747 0.527401 0.000000
0.548713 0.525817 0.000000
0.618678 0.524232 0.000000
0.688643 0.522647 0.000000
0.758608 0.521062 0.000000
0.828574 0.519478 0.000000
0.898539 0.517893 0.000000
0.968504 0.516308 0.000000
1.000000 0.514724 0.000000
1.000000 0.513139 0.000000
0.000000 0.606933 0.000000
0.055844 0.605348 0.000000
0.125810 0.603764 0.000000
0.195775 0.602179 0.000000
0.265740 0.600594 0.000000
0.335706 0.599010 0.000000
0.405671 0.597425 0.000000
0.475636 0.595840 0.000000
0.545601 0.594255 0.000000
0.615567 0.592671 0.000000
0.685532 0.591086 0.000000
0.755497 0.589501 0.000000
0.825463 0.587917 0.000000
0.895428 0.586332 0.000000
0.965393 0.584747 0.000000
1.000000 0.583163 0.000000
1.000000 0.581578 0.000000
0.000000 0.675372 0.000000
0.052733 0.673787 0.000000
0.122699 0.672203 0.000000
0.192664 0.670618 0.000000
0.262629 0.669033 0.000000
0.332594 0.667448 0.000000
0.402560 0.665864 0.000000
0.472525 0.664279 0.000000
0.542490 0.662694 0.000000
0.612456 0.661110 0.000000
0.682421 0.659525 0.000000
0.752386 0.657940 0.000000
0.822352 0.656356 0.000000
0.892317 0.654771 0.000000
0.962282 0.653186 0.000000
1.000000 0.651601 0.000000
1.000000 0.650017 0.000000
0.000000 0.743811 0.000000
0.049622 0.742226 0.000000
0.119587 0.740641 0.000000
0.189553 0.739057 0.000000
0.259518 0.737472 0.000000
0.329483 0.735887 0.000000
0.399449 0.734303 0.000000
0.469414 0.732718 0.000000
0.539379 0.731133 0.000000
0.609345 0.729549 0.000000
0.679310 0.727964 0.000000
0.749275 0.726379 0.000000
0.819240 0.724794 0.000000
0.889206 0.723210 0.000000
0.959171 0.721625 0.000000
1.000000 0.720040 0.000000
1.000000 0.718638 0.000000
0.000000 0.812250 0.000000
0.046511 0.810665 0.000000
0.116476 0.809080 0.000000
0.186442 0.807496 0.000000
0.256407 0.805911 0.000000
0.326372 0.804326 0.000000
0.396338 0.802742 0.000000
0.466303 0.801157 0.000000
0.536268 0.799572 0.000000
0.606233 0.797987 0.000000
0.676199 0.796403 0.000000
0.746164 0.794818 0.000000
0.816129 0.793233 0.000000
0.886095 0.791649 0.000000
0.956265 0.790197 0.000000
1.000000 0.789941 0.000000
1.000000 0.789686 0.000000
0.000000 0.880689 0.000000
0.043400 0.879104 0.000000
0.113365 0.877519 0.000000
0.183331 0.875935 0.000000
0.253296 0.874350 0.000000
0.323261 0.872765 0.000000
0.393226 0.871180 0.000000
0.463192 0.869596 0.000000
0.533157 0.868011 0.000000
0.603122 0.866426 0.000000
0.673088 0.864842 0.000000
0.743053 0.863257 0.000000
0.813148 0.861757 0.000000
0.885155 0.861501 0.000000
0.957163 0.861245 0.000000
1.000000 0.860989 0.000000
1.000000 0.860733 0.000000
0.000000 0.949128 0.000000
0.040289 0.947543 0.000000
0.110254 0.945958 0.000000
0.180219 0.944373 0.000000
0.250185 0.942789 0.000000
0.320150 0.941204 0.000000
0.390115 0.939619 0.000000
0.460081 0.938035 0.000000
0.530046 0.936450 0.000000
0.600011 0.934865 0.000000
0.670031 0.933316 0.000000
0.742038 0.933060 0.000000
0.814046 0.932804 0.000000
0.886053 0.932549 0.000000
0.958060 0.932293 0.000000
1.000000 0.932037 0.000000
1.000000 0.931781 0.000000
0.000000 1.000000 0.000000
0.037178 1.000000 0.000000
0.107143 1.000000 0.000000
0.177108 1.000000 0.000000
0.247074 1.000000 0.000000
0.317039 1.000000 0.000000
0.387004 1.000000 0.000000
0.456970 1.000000 0.000000
0.526935 1.000000 0.000000
0.598922 1.000000 0.000000
0.670929 1.000000 0.000000
0.742936 1.000000 0.000000
0.814943 1.000000 0.000000
0.886951 1.000000 0.000000
0.958958 1.000000 0.000000
1.000000 1.000000 0.000000
1.000000 1.000000 0.000000
0.000000 1.000000 0.000000
0.034067 1.000000 0.000000
0.104032 1.000000 0.000000
0.173997 1.000000 0.000000
0.243963 1.000000 0.000000
0.313928 1.000000 0.000000
0.383893 1.000000 0.000000
0.455805 1.000000 0.000000
0.527812 1.000000 0.000000
0.599819 1.000000 0.000000
0.671827 1.000000 0.000000
0.743834 1.000000 0.000000
0.815841 1.000000 0.000000
0.887849 1.000000 0.000000
0.959856 1.000000 0.000000
1.000000 1.000000 0.000000
1.000000 1.000000 0.000000
0.000000 0.000000 0.106642
0.021234 0.000000 0.100013
0.095425 0.000000 0.093384
0.169617 0.000000 0.086755
0.243808 0.000000 0.080126
0.317999 0.000000 0.073496
0.392191 0.000000 0.066867
0.466382 0.000000 0.060238
0.540574 0.000000 0.053609
0.614765 0.000000 0.046980
0.688956 0.000000 0.040351
0.763148 0.000000 0.033722
0.837339 0.000000 0.027093
0.911531 0.000000 0.020464
0.985722 0.000000 0.013834
1.000000 0.000000 0.007205
1.000000 0.000000 0.002230
0.000000 0.059539 0.093628
0.026420 0.057902 0.086999
0.100611 0.056264 0.080369
0.174802 0.054627 0.073740
0.248994 0.052990 0.067111
0.323185 0.051352 0.060482
0.397376 0.049715 0.053853
0.471568 0.048078 0.047224
0.545759 0.046440 0.040595
0.619951 0.044803 0.033966
0.694142 0.043166 0.027337
0.768333 0.041528 0.020707
0.842525 0.039891 0.014078
0.916716 0.038254 0.007449
0.989678 0.036632 0.002288
1.000000 0.035047 0.000703
1.000000 0.033462 0.000000
0.000000 0.127874 0.080613
0.031605 0.126237 0.073984
0.105797 0.124600 0.067355
0.179988 0.122963 0.060726
0.254179 0.121325 0.054097
0.328371 0.119688 0.047468
0.402562 0.118051 0.040839
0.476753 0.116413 0.034210
0.550945 0.114776 0.027580
0.625136 0.113139 0.020951
0.699328 0.111501 0.014322
0.773519 0.109864 0.007693
0.846636 0.108240 0.002346
0.916601 0.106655 0.000761
0.986567 0.105071 0.000000
1.000000 0.103486 0.000000
1.000000 0.101901 0.000000
0.000000 0.196210 0.067599
0.036791 0.194573 0.060970
0.110982 0.192935 0.054341
0.185173 0.191298 0.047712
0.259365 0.189661 0.041083
0.333556 0.188024 0.034453
0.407748 0.186386 0.027824
0.481939 0.184749 0.021195
0.556130 0.183112 0.014566
0.630322 0.181474 0.007937
0.703594 0.179848 0.002404
0.773560 0.178264 0.000820
0.843525 0.176679 0.000000
0.913490 0.175094 0.000000
0.983456 0.173510 0.000000
1.000000 0.171925 0.000000
1.000000 0.170340 0.000000
0.000000 0.264546 0.054585
0.041976 0.262908 0.047955
0.116168 0.261271 0.041326
0.190359 0.259634 0.034697
0.264550 0.257996 0.028068
0.338742 0.256359 0.021439
0.412933 0.254722 0.014810
0.487125 0.253085 0.008181
0.560553 0.251457 0.002463
0.630518 0.249872 0.000878
0.700483 0.248287 0.000000
0.770449 0.246703 0.000000
0.840414 0.245118 0.000000
0.910379 0.243533 0.000000
0.980345 0.241949 0.000000
1.000000 0.240364 0.000000
1.000000 0.238779 0.000000
0.000000 0.332881 0.041570
0.047162 0.331244 0.034941
0.121353 0.329607 0.028312
0.195545 0.327969 0.021683
0.269736 0.326332 0.015054
0.343927 0.324695 0.008425
0.417511 0.323065 0.002521
0.487476 0.321480 0.000936
0.557442 0.319896 0.000000
0.627407 0.318311 0.000000
0.697372 0.316726 0.000000
0.767338 0.315142 0.000000
0.837303 0.313557 0.000000
0.907268 0.311972 0.000000
0.977233 0.310387 0.000000
1.000000 0.308803 0.000000
1.000000 0.307218 0.000000
0.000000 0.401217 0.028556
0.052347 0.399580 0.021927
0.126539 0.397942 0.015298
0.200730 0.396305 0.008669
0.274469 0.394673 0.002579
0.344435 0.393089 0.000995
0.414400 0.391504 0.000000
0.484365 0.389919 0.000000
0.554331 0.388335 0.000000
0.624296 0.386750 0.000000
0.694261 0.385165 0.000000
0.764226 0.383580 0.000000
0.834192 0.381996 0.000000
0.904157 0.380411 0.000000
0.974122 0.378826 0.000000
1.000000 0.377242 0.000000
1.000000 0.375657 0.000000
0.000000 0.469553 0.015542
0.057533 0.467915 0.008912
0.131428 0.466282 0.002638
0.201393 0.464697 0.001053
0.271358 0.463112 0.000000
0.341324 0.461528 0.000000
0.411289 0.459943 0.000000
0.481254 0.458358 0.000000
0.551219 0.456773 0.000000
0.621185 0.455189 0.000000
0.691150 0.453604 0.000000
0.761115 0.452019 0.000000
0.831081 0.450435 0.000000
0.901046 0.448850 0.000000
0.971011 0.447265 0.000000
1.000000 0.445681 0.000000
1.000000 0.444096 0.000000
0.000000 0.537890 0.002696
0.058351 0.536305 0.001111
0.128317 0.534721 0.000000
0.198282 0.533136 0.000000
0.268247 0.531551 0.000000
0.338212 0.529966 0.000000
0.408178 0.528382 0.000000
0.478143 0.526797 0.000000
0.548108 0.525212 0.000000
0.618074 0.523628 0.000000
0.688039 0.522043 0.000000
0.758004 0.520458 0.000000
0.827970 0.518874 0.000000
0.897935 0.517289 0.000000
0.967900 0.515704 0.000000
1.000000 0.514119 0.000000
1.000000 0.512535 0.000000
0.000000 0.606329 0.000000
0.055240 0.604744 0.000000
0.125205 0.603159 0.000000
0.195171 0.601575 0.000000
0.265136 0.599990 0.000000
0.335101 0.598405 0.000000
0.405067 0.596821 0.000000
0.475032 0.595236 0.000000
0.544997 0.593651 0.000000
0.614963 0.592067 0.000000
0.684928 0.590482 0.000000
0.754893 0.588897 0.000000
0.824858 0.587312 0.000000
0.894824 0.585728 0.000000
0.964789 0.584143 0.000000
1.000000 0.582558 0.000000
1.000000 0.580974 0.000000
0.000000 0.674768 0.000000
0.052129 0.673183 0.000000
0.122094 0.671598 0.000000
0.192060 0.670014 0.000000
0.262025 0.668429 0.000000
0.331990 0.666844 0.000000
0.401956 0.665260 0.000000
0.471921 0.663675 0.000000
0.541886 0.662090 0.000000
0.611851 0.660505 0.000000
0.681817 0.658921 0.000000
0.751782 0.657336 0.000000
0.821747 0.655751 0.000000
0.891713 0.654167 0.000000
0.961678 0.652582 0.000000
1.000000 0.650997 0.000000
1.000000 0.649413 0.000000
0.000000 0.743207 0.000000
0.049018 0.741622 0.000000
0.118983 0.740037 0.000000
0.188949 0.738453 0.000000
0.258914 0.736868 0.000000
0.328879 0.735283 0.000000
0.398844 0.733698 0.000000
0.468810 0.732114 0.000000
0.538775 0.730529 0.000000
0.608740 0.728944 0.000000
0.678706 0.727360 0.000000
0.748671 0.725775 0.000000
0.818636 0.724190 0.000000
0.888602 0.722606 0.000000
0.958567 0.721021 0.000000
1.000000 0.719436 0.000000
1.000000 0.718540 0.000000
0.000000 0.811646 0.000000
0.045907 0.810061 0.000000
0.115872 0.808476 0.000000
0.185837 0.806891 0.000000
0.255803 0.805307 0.000000
0.325768 0.803722 0.000000
0.395733 0.802137 0.000000
0.465699 0.800553 0.000000
0.535664 0.798968 0.000000
0.605629 0.797383 0.000000
0.675595 0.795799 0.000000
0.745560 0.794214 0.000000
0.815525 0.792629 0.000000
0.885490 0.791044 0.000000
0.956439 0.790100 0.000000
1.000000 0.789844 0.000000
1.000000 0.789588 0.000000
0.000000 0.880084 0.000000
0.042796 0.878500 0.000000
0.112761 0.876915 0.000000
0.182726 0.875330 0.000000
0.252692 0.873746 0.000000
0.322657 0.872161 0.000000
0.392622 0.870576 0.000000
0.462588 0.868992 0.000000
0.532553 0.867407 0.000000
0.602518 0.865822 0.000000
0.672483 0.864237 0.000000
0.742449 0.862653 0.000000
0.813322 0.861659 0.000000
0.885330 0.861403 0.000000
0.957337 0.861147 0.000000
1.000000 0.860892 0.000000
1.000000 0.860636 0.000000
0.000000 0.948523 0.000000
0.039685 0.946939 0.000000
0.109650 0.945354 0.000000
0.179615 0.943769 0.000000
0.249581 0.942185 0.000000
0.319546 0.940600 0.000000
0.389511 0.939015 0.000000
0.459476 0.937430 0.000000
0.529442 0.935846 0.000000
0.599407 0.934261 0.000000
0.670205 0.933219 0.000000
0.742213 0.932963 0.000000
0.814220 0.932707 0.000000
0.886227 0.932451 0.000000
0.958235 0.932195 0.000000
1.000000 0.931939 0.000000
1.000000 0.931684 0.000000
0.000000 1.000000 0.000000
0.036574 1.000000 0.000000
0.106539 1.000000 0.000000
0.176504 1.000000 0.000000
0.246469 1.000000 0.000000
0.316435 1.000000 0.000000
0.386400 1.000000 0.000000
0.456365 1.000000 0.000000
0.527089 1.000000 0.000000
0.599096 1.000000 0.000000
0.671103 1.000000 0.000000
0.743111 1.000000 0.000000
0.815118 1.000000 0.000000
0.887125 1.000000 0.000000
0.959132 1.000000 0.000000
1.000000 1.000000 0.000000
1.000000 1.000000 0.000000
0.000000 1.000000 0.000000
0.033462 1.000000 0.000000
0.103428 1.000000 0.000000
0.173393 1.000000 0.000000
0.243358 1.000000 0.000000
0.313324 1.000000 0.000000
0.383972 1.000000 0.000000
0.455979 1.000000 0.000000
0.527986 1.000000 0.000000
0.599994 1.000000 0.000000
0.672001 1.000000 0.000000
0.744008 1.000000 0.000000
0.816016 1.000000 0.000000
0.888023 1.000000 0.000000
0.960030 1.000000 0.000000
1.000000 1.000000 0.000000
1.000000 1.000000 0.000000
0.000000 0.000000 0.175665
0.022241 0.000000 0.169035
0.096432 0.000000 0.162406
0.170624 0.000000 0.155777
0.244815 0.000000 0.149148
0.319007 0.000000 0.142519
0.393198 0.000000 0.135890
0.467389 0.000000 0.129261
0.541581 0.000000 0.122632
0.615772 0.000000 0.116002
0.689963 0.000000 0.109373
0.764155 0.000000 0.102744
0.838346 0.000000 0.096115
0.912538 0.000000 0.089486
0.986729 0.000000 0.082857
1.000000 0.000000 0.076228
1.000000 0.000000 0.073175
0.000000 0.058915 0.162650
0.027427 0.057277 0.156021
0.101618 0.055640 0.149392
0.175809 0.054003 0.142763
0.250001 0.052365 0.136134
0.324192 0.050728 0.129505
0.398384 0.049091 0.122875
0.472575 0.047453 0.116246
0.546766 0.045816 0.109617
0.620958 0.044179 0.102988
0.695149 0.042541 0.096359
0.769340 0.040904 0.089730
0.843532 0.039267 0.083101
0.917723 0.037630 0.076472
0.989074 0.036028 0.073234
1.000000 0.034443 0.071649
1.000000 0.032858 0.070064
0.000000 0.127250 0.149636
0.032612 0.125613 0.143007
0.106804 0.123976 0.136378
0.180995 0.122338 0.129748
0.255186 0.120701 0.123119
0.329378 0.119064 0.116490
0.403569 0.117426 0.109861
0.477760 0.115789 0.103232
0.551952 0.114152 0.096603
0.626143 0.112514 0.089974
0.700335 0.110877 0.083345
0.774526 0.109240 0.076716
0.846032 0.107636 0.073292
0.915997 0.106051 0.071707
0.985963 0.104467 0.070123
1.000000 0.102882 0.068538
1.000000 0.101297 0.066953
0.000000 0.195586 0.136621
0.037798 0.193949 0.129992
0.111989 0.192311 0.123363
0.186181 0.190674 0.116734
0.260372 0.189037 0.110105
0.334563 0.187399 0.103476
0.408755 0.185762 0.096847
0.482946 0.184125 0.090218
0.557137 0.182487 0.083589
0.631329 0.180850 0.076959
0.702990 0.179244 0.073350
0.772956 0.177660 0.071766
0.842921 0.176075 0.070181
0.912886 0.174490 0.068596
0.982851 0.172905 0.067011
1.000000 0.171321 0.065427
1.000000 0.169736 0.063842
0.000000 0.263921 0.123607
0.042983 0.262284 0.116978
0.117175 0.260647 0.110349
0.191366 0.259010 0.103720
0.265558 0.257372 0.097091
0.339749 0.255735 0.090462
0.413940 0.254098 0.083832
0.488132 0.252460 0.077203
0.559949 0.250853 0.073409
0.629914 0.249268 0.071824
0.699879 0.247683 0.070239
0.769844 0.246098 0.068654
0.839810 0.244514 0.067070
0.909775 0.242929 0.065485
0.979740 0.241344 0.063900
1.000000 0.239760 0.062316
1.000000 0.238175 0.060731
0.000000 0.332257 0.110593
0.048169 0.330620 0.103964
0.122360 0.328982 0.097335
0.196552 0.327345 0.090705
0.270743 0.325708 0.084076
0.344934 0.324070 0.077447
0.416907 0.322461 0.073467
0.486872 0.320876 0.071882
0.556837 0.319291 0.070297
0.626803 0.317707 0.068713
0.696768 0.316122 0.067128
0.766733 0.314537 0.065543
0.836699 0.312953 0.063959
0.906664 0.311368 0.062374
0.976629 0.309783 0.060789
1.000000 0.308199 0.059205
1.000000 0.306614 0.057620
0.000000 0.400593 0.097578
0.053355 0.398955 0.090949
0.127546 0.397318 0.084320
0.201737 0.395681 0.077691
0.273865 0.394069 0.073525
0.343830 0.392484 0.071940
0.413796 0.390900 0.070356
0.483761 0.389315 0.068771
0.553726 0.387730 0.067186
0.623692 0.386146 0.065602
0.693657 0.384561 0.064017
0.763622 0.382976 0.062432
0.833588 0.381392 0.060848
0.903553 0.379807 0.059263
0.973518 0.378222 0.057678
1.000000 0.376637 0.056093
1.000000 0.375053 0.054509
0.000000 0.468928 0.084564
0.058540 0.467291 0.077935
0.130823 0.465677 0.073583
0.200789 0.464093 0.071999
0.270754 0.462508 0.070414
0.340719 0.460923 0.068829
0.410685 0.459339 0.067245
0.480650 0.457754 0.065660
0.550615 0.456169 0.064075
0.620581 0.454585 0.062491
0.690546 0.453000 0.060906
0.760511 0.451415 0.059321
0.830476 0.449830 0.057736
0.900442 0.448246 0.056152
0.970407 0.446661 0.054567
1.000000 0.445076 0.052982
1.000000 0.443492 0.051398
0.000000 0.537286 0.073642
0.057747 0.535701 0.072057
0.127712 0.534116 0.070472
0.197678 0.532532 0.068888
0.267643 0.530947 0.067303
0.337608 0.529362 0.065718
0.407574 0.527778 0.064134
0.477539 0.526193 0.062549
0.547504 0.524608 0.060964
0.617469 0.523023 0.059379
0.687435 0.521439 0.057795
0.757400 0.519854 0.056210
0.827365 0.518269 0.054625
0.897331 0.516685 0.053041
0.967296 0.515100 0.051456
1.000000 0.513515 0.049871
1.000000 0.511931 0.048287
0.000000 0.605725 0.070531
0.054636 0.604140 0.068946
0.124601 0.602555 0.067361
0.194567 0.600971 0.065777
0.264532 0.599386 0.064192
0.334497 0.597801 0.062607
0.404462 0.596216 0.061022
0.474428 0.594632 0.059438
0.544393 0.593047 0.057853
0.614358 0.591462 0.056268
0.684324 0.589878 0.054684
0.754289 0.588293 0.053099
0.824254 0.586708 0.051514
0.894220 0.585124 0.049930
0.964185 0.583539 0.048345
1.000000 0.581954 0.046760
1.000000 0.580369 0.045175
0.000000 0.674164 0.067420
0.051525 0.672579 0.065835
0.121490 0.670994 0.064250
0.191455 0.669409 0.062665
0.261421 0.667825 0.061081
0.331386 0.666240 0.059496
0.401351 0.664655 0.057911
0.471317 0.663071 0.056327
0.541282 0.661486 0.054742
0.611247 0.659901 0.053157
0.681213 0.658317 0.051573
0.751178 0.656732 0.049988
0.821143 0.655147 0.048403
0.891108 0.653562 0.046818
0.961074 0.651978 0.045234
1.000000 0.650393 0.043649
1.000000 0.648808 0.042064
0.000000 0.742602 0.064308
0.048414 0.741018 0.062724
0.118379 0.739433 0.061139
0.188344 0.737848 0.059554
0.258310 0.736264 0.057970
0.328275 0.734679 0.056385
0.398240 0.733094 0.054800
0.468206 0.731510 0.053216
0.538171 0.729925 0.051631
0.608136 0.728340 0.050046
0.678101 0.726755 0.048461
0.748067 0.725171 0.046877
0.818032 0.723586 0.045292
0.887997 0.722001 0.043707
0.957963 0.720417 0.042123
1.000000 0.718832 0.040538
1.000000 0.718443 0.037582
0.000000 0.811041 0.061197
0.045303 0.809457 0.059613
0.115268 0.807872 0.058028
0.185233 0.806287 0.056443
0.255199 0.804703 0.054859
0.325164 0.803118 0.053274
0.395129 0.801533 0.051689
0.465094 0.799948 0.050104
0.535060 0.798364 0.048520
0.605025 0.796779 0.046935
0.674990 0.795194 0.045350
0.744956 0.793610 0.043766
0.814921 0.792025 0.042181
0.884886 0.790440 0.040596
0.956613 0.790002 0.037697
1.000000 0.789746 0.034589
1.000000 0.789491 0.031480
0.000000 0.879480 0.058086
0.042192 0.877896 0.056502
0.112157 0.876311 0.054917
0.182122 0.874726 0.053332
0.252087 0.873141 0.051747
0.322053 0.871557 0.050163
0.392018 0.869972 0.048578
0.461983 0.868387 0.046993
0.531949 0.866803 0.045409
0.601914 0.865218 0.043824
0.671879 0.863633 0.042239
0.741845 0.862049 0.040655
0.813497 0.861562 0.037811
0.885504 0.861306 0.034703
0.957511 0.861050 0.031595
1.000000 0.860794 0.028486
1.000000 0.860538 0.025378
0.000000 0.947919 0.054975
0.039080 0.946334 0.053390
0.109046 0.944750 0.051806
0.179011 0.943165 0.050221
0.248976 0.941580 0.048636
0.318942 0.939996 0.047052
0.388907 0.938411 0.045467
0.458872 0.936826 0.043882
0.528838 0.935242 0.042298
0.598803 0.933657 0.040713
0.670380 0.933121 0.037926
0.742387 0.932865 0.034817
0.814394 0.932609 0.031709
0.886402 0.932354 0.028601
0.958409 0.932098 0.025492
1.000000 0.931842 0.022384
1.000000 0.931586 0.019276
0.000000 1.000000 0.051864
0.035969 1.000000 0.050279
0.105935 1.000000 0.048695
0.175900 1.000000 0.047110
0.245865 1.000000 0.045525
0.315831 1.000000 0.043941
0.385796 1.000000 0.042356
0.455761 1.000000 0.040771
0.527263 1.000000 0.038040
0.599270 1.000000 0.034932
0.671278 1.000000 0.031823
0.743285 1.000000 0.028715
0.815292 1.000000 0.025607
0.887299 1.000000 0.022498
0.959307 1.000000 0.019390
1.000000 1.000000 0.016282
1.000000 1.000000 0.013174
0.000000 1.000000 0.048753
0.032858 1.000000 0.047168
0.102824 1.000000 0.045584
0.172789 1.000000 0.043999
0.242754 1.000000 0.042414
0.312719 1.000000 0.040829
0.384146 1.000000 0.038154
0.456153 1.000000 0.035046
0.528161 1.000000 0.031938
0.600168 1.000000 0.028829
0.672175 1.000000 0.025721
0.744183 1.000000 0.022613
0.816190 1.000000 0.019505
0.888197 1.000000 0.016396
0.960205 1.000000 0.013288
1.000000 1.000000 0.010180
1.000000 1.000000 0.007071
0.000000 0.000000 0.244687
0.023248 0.000000 0.238058
0.097440 0.000000 0.231429
0.171631 0.000000 0.224800
0.245822 0.000000 0.218171
0.320014 0.000000 0.211541
0.394205 0.000000 0.204912
0.468396 0.000000 0.198283
0.542588 0.000000 0.191654
0.616779 0.000000 0.185025
0.690971 0.000000 0.178396
0.765162 0.000000 0.171767
0.839353 0.000000 0.165138
0.913545 0.000000 0.158509
0.987736 0.000000 0.151879
1.000000 0.000000 0.145706
1.000000 0.000000 0.144121
0.000000 0.058290 0.231673
0.028434 0.056653 0.225044
0.102625 0.055016 0.218414
