tools/fandomforge/assets/color_luts/leon-re2r-cutscenes.cube
TITLE "leon-re2r-cutscenes-RE2R"
LUT_3D_SIZE 5
0.000000 0.000000 0.079198
0.240256 0.000000 0.037562
0.542433 0.000000 0.000000
0.844611 0.000000 0.000000
1.000000 0.000000 0.000000
0.000000 0.266664 0.000000
0.256310 0.254330 0.000000
0.558487 0.241996 0.000000
0.843951 0.232431 0.000000
1.000000 0.223013 0.000000
0.000000 0.536450 0.000000
0.256298 0.526778 0.000000
0.540879 0.517359 0.000000
0.825461 0.507941 0.000000
1.000000 0.498522 0.000000
0.000000 0.811706 0.000000
0.237807 0.802287 0.000000
0.522389 0.792869 0.000000
0.806970 0.783450 0.000000
1.000000 0.778217 0.000000
0.000000 1.000000 0.000000
0.219317 1.000000 0.000000
0.509221 1.000000 0.000000
0.804702 1.000000 0.000000
1.000000 1.000000 0.000000
0.000000 0.000000 0.357324
0.243374 0.000000 0.315688
0.545551 0.000000 0.274052
0.847728 0.000000 0.232416
1.000000 0.000000 0.202632
0.000000 0.261962 0.275584
0.259428 0.249628 0.233948
0.555779 0.238259 0.202979
0.840360 0.228840 0.193560
1.000000 0.219422 0.184142
0.000000 0.532605 0.203325
0.252707 0.523187 0.193907
0.537288 0.513768 0.184488
0.821870 0.504350 0.175070
1.000000 0.494931 0.165651
0.000000 0.808115 0.184835
0.234216 0.798696 0.175416
0.518798 0.789278 0.165998
0.803379 0.779859 0.156579
1.000000 0.777664 0.138449
0.000000 1.000000 0.166344
0.215726 1.000000 0.156926
0.509786 1.000000 0.139150
0.805267 1.000000 0.120119
1.000000 1.000000 0.101089
0.000000 0.000000 0.635449
0.246491 0.000000 0.593813
0.548669 0.000000 0.552177
0.850846 0.000000 0.510541
1.000000 0.000000 0.493041
0.000000 0.257259 0.553709
0.262545 0.244925 0.512073
0.552188 0.234668 0.493388
0.836769 0.225249 0.483969
1.000000 0.215831 0.474551
0.000000 0.529014 0.493734
0.249116 0.519596 0.484316
0.533697 0.510177 0.474897
0.818279 0.500759 0.465479
1.000000 0.491340 0.456060
0.000000 0.804524 0.475244
0.230625 0.795105 0.465825
0.515207 0.785687 0.456407
0.802924 0.778561 0.444224
1.000000 0.777112 0.425194
0.000000 1.000000 0.456753
0.214869 1.000000 0.444924
0.510350 1.000000 0.425894
0.805832 1.000000 0.406864
1.000000 1.000000 0.387834
0.000000 0.000000 0.913574
0.249609 0.000000 0.871939
0.551787 0.000000 0.830303
0.851669 0.000000 0.792869
1.000000 0.000000 0.783450
0.000000 0.252556 0.831834
0.264015 0.240495 0.793215
0.548597 0.231077 0.783797
0.833178 0.221658 0.774378
1.000000 0.212240 0.764960
0.000000 0.525423 0.784143
0.245525 0.516005 0.774725
0.530106 0.506586 0.765306
0.814688 0.497168 0.755888
1.000000 0.487749 0.746469
0.000000 0.800933 0.765653
0.227034 0.791514 0.756234
0.511616 0.782096 0.746816
0.803488 0.778008 0.730968
1.000000 0.776559 0.711938
0.000000 1.000000 0.747162
0.215434 1.000000 0.731668
0.510915 1.000000 0.712638
0.806396 1.000000 0.693608
1.000000 1.000000 0.674578
0.000000 0.000000 1.000000
0.252727 0.000000 1.000000
0.554904 0.000000 1.000000
0.848078 0.000000 1.000000
1.000000 0.000000 1.000000
0.000000 0.247854 1.000000
0.260424 0.236904 1.000000
0.545006 0.227486 1.000000
0.829587 0.218067 1.000000
1.000000 0.208649 1.000000
0.000000 0.521832 1.000000
0.241934 0.512414 1.000000
0.526515 0.502995 1.000000
0.811097 0.493577 1.000000
1.000000 0.484851 1.000000
0.000000 0.797342 1.000000
0.223443 0.787923 1.000000
0.508572 0.778905 1.000000
0.804053 0.777456 1.000000
1.000000 0.776007 0.998683
0.000000 1.000000 1.000000
0.215999 1.000000 1.000000
0.511480 1.000000 0.999383
0.806961 1.000000 0.980353
1.000000 1.000000 0.961323
