tools/fandomforge/assets/color_luts/leon-infinite-darkness.cube
TITLE "leon-infinite-darkness-ID"
LUT_3D_SIZE 17
0.000000 0.000000 0.000000
0.000000 0.000000 0.000000
0.046261 0.000000 0.000000
0.125112 0.000000 0.000000
0.203962 0.000000 0.000000
0.282813 0.000000 0.000000
0.361663 0.000000 0.000000
0.440514 0.000000 0.000000
0.519364 0.000000 0.000000
0.598215 0.000000 0.000000
0.677065 0.000000 0.000000
0.755916 0.000000 0.000000
0.834767 0.000000 0.000000
0.913617 0.000000 0.000000
0.992468 0.000000 0.000000
1.000000 0.000000 0.000000
1.000000 0.000000 0.000000
0.000000 0.011585 0.000000
0.000000 0.011205 0.000000
0.052900 0.010826 0.000000
0.131751 0.010447 0.000000
0.210601 0.010068 0.000000
0.289452 0.009689 0.000000
0.368302 0.009310 0.000000
0.447153 0.008931 0.000000
0.526004 0.008552 0.000000
0.604854 0.008173 0.000000
0.683705 0.007794 0.000000
0.762555 0.007415 0.000000
0.841406 0.007036 0.000000
0.920256 0.006657 0.000000
0.999107 0.006278 0.000000
1.000000 0.005266 0.000000
1.000000 0.004191 0.000000
0.000000 0.086309 0.000000
0.000000 0.085930 0.000000
0.059539 0.085551 0.000000
0.138390 0.085172 0.000000
0.217241 0.084793 0.000000
0.296091 0.084414 0.000000
0.374942 0.084035 0.000000
0.453792 0.083656 0.000000
0.532643 0.083277 0.000000
0.611493 0.082898 0.000000
0.690344 0.082519 0.000000
0.769194 0.082139 0.000000
0.848045 0.081760 0.000000
0.923006 0.080774 0.000000
0.997400 0.079700 0.000000
1.000000 0.078625 0.000000
1.000000 0.077551 0.000000
0.000000 0.161034 0.000000
0.000000 0.160655 0.000000
0.066179 0.160276 0.000000
0.145029 0.159897 0.000000
0.223880 0.159517 0.000000
0.302730 0.159138 0.000000
0.381581 0.158759 0.000000
0.460431 0.158380 0.000000
0.539282 0.158001 0.000000
0.618132 0.157622 0.000000
0.696983 0.157243 0.000000
0.772108 0.156283 0.000000
0.846502 0.155208 0.000000
0.920896 0.154133 0.000000
0.995290 0.153059 0.000000
1.000000 0.151984 0.000000
1.000000 0.150910 0.000000
0.000000 0.235758 0.000000
0.000000 0.235379 0.000000
0.072818 0.235000 0.000000
0.151668 0.234621 0.000000
0.230519 0.234242 0.000000
0.309369 0.233863 0.000000
0.388220 0.233484 0.000000
0.467071 0.233105 0.000000
0.545921 0.232726 0.000000
0.621210 0.231791 0.000000
0.695604 0.230716 0.000000
0.769998 0.229642 0.000000
0.844392 0.228567 0.000000
0.918786 0.227493 0.000000
0.993181 0.226418 0.000000
1.000000 0.225344 0.000000
1.000000 0.224269 0.000000
0.000000 0.310483 0.000000
0.000606 0.310104 0.000000
0.079457 0.309725 0.000000
0.158308 0.309346 0.000000
0.237158 0.308967 0.000000
0.316009 0.308588 0.000000
0.394859 0.308208 0.000000
0.470312 0.307299 0.000000
0.544706 0.306225 0.000000
0.619100 0.305150 0.000000
0.693494 0.304076 0.000000
0.767888 0.303001 0.000000
0.842283 0.301926 0.000000
0.916677 0.300852 0.000000
0.991071 0.299777 0.000000
1.000000 0.298703 0.000000
1.000000 0.297628 0.000000
0.000000 0.385207 0.000000
0.007246 0.384828 0.000000
0.086096 0.384449 0.000000
0.164947 0.384070 0.000000
0.243797 0.383691 0.000000
0.319414 0.382807 0.000000
0.393808 0.381733 0.000000
0.468202 0.380658 0.000000
0.542596 0.379584 0.000000
0.616991 0.378509 0.000000
0.691385 0.377435 0.000000
0.765779 0.376360 0.000000
0.840173 0.375286 0.000000
0.914567 0.374211 0.000000
0.988962 0.373137 0.000000
1.000000 0.372062 0.000000
1.000000 0.370988 0.000000
0.000000 0.459932 0.000000
0.013885 0.459553 0.000000
0.092735 0.459174 0.000000
0.168516 0.458316 0.000000
0.242910 0.457241 0.000000
0.317304 0.456167 0.000000
0.391698 0.455092 0.000000
0.466093 0.454018 0.000000
0.540487 0.452943 0.000000
0.614881 0.451868 0.000000
0.689275 0.450794 0.000000
0.763669 0.449719 0.000000
0.838064 0.448645 0.000000
0.912458 0.447570 0.000000
0.986852 0.446496 0.000000
1.000000 0.445421 0.000000
1.000000 0.444347 0.000000
0.000000 0.534657 0.000000
0.017618 0.533824 0.000000
0.092012 0.532749 0.000000
0.166406 0.531675 0.000000
0.240800 0.530600 0.000000
0.315195 0.529526 0.000000
0.389589 0.528451 0.000000
0.463983 0.527377 0.000000
0.538377 0.526302 0.000000
0.612771 0.525228 0.000000
0.687166 0.524153 0.000000
0.761560 0.523079 0.000000
0.835954 0.522004 0.000000
0.910348 0.520930 0.000000
0.984743 0.519855 0.000000
1.000000 0.518781 0.000000
1.000000 0.517706 0.000000
0.000000 0.608258 0.000000
0.015508 0.607183 0.000000
0.089902 0.606109 0.000000
0.164297 0.605034 0.000000
0.238691 0.603960 0.000000
0.313085 0.602885 0.000000
0.387479 0.601811 0.000000
0.461873 0.600736 0.000000
0.536268 0.599661 0.000000
0.610662 0.598587 0.000000
0.685056 0.597512 0.000000
0.759450 0.596438 0.000000
0.833845 0.595363 0.000000
0.908239 0.594289 0.000000
0.982633 0.593214 0.000000
1.000000 0.592140 0.000000
1.000000 0.591065 0.000000
0.000000 0.681617 0.000000
0.013399 0.680542 0.000000
0.087793 0.679468 0.000000
0.162187 0.678393 0.000000
0.236581 0.677319 0.000000
0.310976 0.676244 0.000000
0.385370 0.675170 0.000000
0.459764 0.674095 0.000000
0.534158 0.673021 0.000000
0.608552 0.671946 0.000000
0.682947 0.670872 0.000000
0.757341 0.669797 0.000000
0.831735 0.668723 0.000000
0.906129 0.667648 0.000000
0.980523 0.666573 0.000000
1.000000 0.665499 0.000000
1.000000 0.664424 0.000000
0.000000 0.754976 0.000000
0.011289 0.753902 0.000000
0.085683 0.752827 0.000000
0.160078 0.751753 0.000000
0.234472 0.750678 0.000000
0.308866 0.749603 0.000000
0.383260 0.748529 0.000000
0.457654 0.747454 0.000000
0.532049 0.746380 0.000000
0.606443 0.745305 0.000000
0.680837 0.744231 0.000000
0.755231 0.743156 0.000000
0.829626 0.742082 0.000000
0.904020 0.741007 0.000000
0.978414 0.739933 0.000000
1.000000 0.738858 0.000000
1.000000 0.737881 0.000000
0.000000 0.828335 0.000000
0.009180 0.827261 0.000000
0.083574 0.826186 0.000000
0.157968 0.825112 0.000000
0.232362 0.824037 0.000000
0.306756 0.822963 0.000000
0.381151 0.821888 0.000000
0.455545 0.820814 0.000000
0.529939 0.819739 0.000000
0.604333 0.818665 0.000000
0.678728 0.817590 0.000000
0.753122 0.816516 0.000000
0.827516 0.815441 0.000000
0.901910 0.814366 0.000000
0.976527 0.813363 0.000000
1.000000 0.813000 0.000000
1.000000 0.812637 0.000000
0.000000 0.901695 0.000000
0.007070 0.900620 0.000000
0.081464 0.899546 0.000000
0.155858 0.898471 0.000000
0.230253 0.897396 0.000000
0.304647 0.896322 0.000000
0.379041 0.895247 0.000000
0.453435 0.894173 0.000000
0.527830 0.893098 0.000000
0.602224 0.892024 0.000000
0.676618 0.890949 0.000000
0.751012 0.889875 0.000000
0.825547 0.888845 0.000000
0.902157 0.888482 0.000000
0.978767 0.888119 0.000000
1.000000 0.887756 0.000000
1.000000 0.887392 0.000000
0.000000 0.975054 0.000000
0.004961 0.973979 0.000000
0.079355 0.972905 0.000000
0.153749 0.971830 0.000000
0.228143 0.970756 0.000000
0.302537 0.969681 0.000000
0.376932 0.968607 0.000000
0.451326 0.967532 0.000000
0.525720 0.966458 0.000000
0.600114 0.965383 0.000000
0.674568 0.964328 0.000000
0.751178 0.963964 0.000000
0.827787 0.963601 0.000000
0.904397 0.963238 0.000000
0.981007 0.962874 0.000000
1.000000 0.962511 0.000000
1.000000 0.962148 0.000000
0.000000 1.000000 0.000000
0.002851 1.000000 0.000000
0.077245 1.000000 0.000000
0.151639 1.000000 0.000000
0.226034 1.000000 0.000000
0.300428 1.000000 0.000000
0.374822 1.000000 0.000000
0.449216 1.000000 0.000000
0.523611 1.000000 0.000000
0.600198 1.000000 0.000000
0.676808 1.000000 0.000000
0.753418 1.000000 0.000000
0.830028 1.000000 0.000000
0.906637 1.000000 0.000000
0.983247 1.000000 0.000000
1.000000 1.000000 0.000000
1.000000 1.000000 0.000000
0.000000 1.000000 0.000000
0.000741 1.000000 0.000000
0.075136 1.000000 0.000000
0.149530 1.000000 0.000000
0.223924 1.000000 0.000000
0.298318 1.000000 0.000000
0.372713 1.000000 0.000000
0.449219 1.000000 0.000000
0.525828 1.000000 0.000000
0.602438 1.000000 0.000000
0.679048 1.000000 0.000000
0.755658 1.000000 0.000000
0.832268 1.000000 0.000000
0.908878 1.000000 0.000000
0.985487 1.000000 0.000000
1.000000 1.000000 0.000000
1.000000 1.000000 0.000000
0.000000 0.000000 0.070265
0.000000 0.000000 0.063868
0.047550 0.000000 0.057472
0.126401 0.000000 0.051076
0.205252 0.000000 0.044679
0.284102 0.000000 0.038283
0.362953 0.000000 0.031886
0.441803 0.000000 0.025490
0.520654 0.000000 0.019093
0.599504 0.000000 0.012697
0.678355 0.000000 0.006301
0.757205 0.000000 0.000000
0.836056 0.000000 0.000000
0.914906 0.000000 0.000000
0.993757 0.000000 0.000000
1.000000 0.000000 0.000000
1.000000 0.000000 0.000000
0.000000 0.011440 0.057707
0.000000 0.011061 0.051311
0.054190 0.010682 0.044915
0.133040 0.010303 0.038518
0.211891 0.009924 0.032122
0.290741 0.009545 0.025725
0.369592 0.009166 0.019329
0.448442 0.008787 0.012932
0.527293 0.008408 0.006536
0.606143 0.008028 0.000139
0.684994 0.007649 0.000000
0.763845 0.007270 0.000000
0.842695 0.006891 0.000000
0.921546 0.006512 0.000000
0.999100 0.005931 0.000000
1.000000 0.004856 0.000000
1.000000 0.003782 0.000000
0.000000 0.086165 0.045150
0.000000 0.085786 0.038753
0.060829 0.085406 0.032357
0.139679 0.085027 0.025961
0.218530 0.084648 0.019564
0.297380 0.084269 0.013168
0.376231 0.083890 0.006771
0.455082 0.083511 0.000375
0.533932 0.083132 0.000000
0.612783 0.082753 0.000000
0.691633 0.082374 0.000000
0.770484 0.081995 0.000000
0.848202 0.081439 0.000000
0.922596 0.080365 0.000000
0.996990 0.079290 0.000000
1.000000 0.078216 0.000000
1.000000 0.077141 0.000000
0.000000 0.160889 0.032592
0.000000 0.160510 0.026196
0.067468 0.160131 0.019799
0.146319 0.159752 0.013403
0.225169 0.159373 0.007007
0.304020 0.158994 0.000610
0.382870 0.158615 0.000000
0.461721 0.158236 0.000000
0.540571 0.157857 0.000000
0.619422 0.157478 0.000000
0.697304 0.156947 0.000000
0.771698 0.155873 0.000000
0.846092 0.154798 0.000000
0.920486 0.153724 0.000000
0.994881 0.152649 0.000000
1.000000 0.151575 0.000000
1.000000 0.150500 0.000000
0.000000 0.235614 0.020035
0.000000 0.235235 0.013638
0.074107 0.234856 0.007242
0.152958 0.234477 0.000845
0.231808 0.234098 0.000000
0.310659 0.233718 0.000000
0.389509 0.233339 0.000000
0.468360 0.232960 0.000000
0.546406 0.232456 0.000000
0.620800 0.231381 0.000000
0.695194 0.230307 0.000000
0.769588 0.229232 0.000000
0.843983 0.228158 0.000000
0.918377 0.227083 0.000000
0.992771 0.226008 0.000000
1.000000 0.224934 0.000000
1.000000 0.223859 0.000000
0.000000 0.310338 0.007477
0.001896 0.309959 0.001081
0.080746 0.309580 0.000000
0.159597 0.309201 0.000000
0.238447 0.308822 0.000000
0.317298 0.308443 0.000000
0.395508 0.307964 0.000000
0.469902 0.306889 0.000000
0.544296 0.305815 0.000000
0.618690 0.304740 0.000000
0.693085 0.303666 0.000000
0.767479 0.302591 0.000000
0.841873 0.301517 0.000000
0.916267 0.300442 0.000000
0.990661 0.299368 0.000000
1.000000 0.298293 0.000000
1.000000 0.297219 0.000000
0.000000 0.385063 0.000000
0.008535 0.384684 0.000000
0.087386 0.384305 0.000000
0.166236 0.383926 0.000000
0.244610 0.383472 0.000000
0.319004 0.382398 0.000000
0.393398 0.381323 0.000000
0.467792 0.380249 0.000000
0.542187 0.379174 0.000000
0.616581 0.378100 0.000000
0.690975 0.377025 0.000000
0.765369 0.375951 0.000000
0.839763 0.374876 0.000000
0.914158 0.373801 0.000000
0.988552 0.372727 0.000000
1.000000 0.371652 0.000000
1.000000 0.370578 0.000000
0.000000 0.459787 0.000000
0.015174 0.459408 0.000000
0.093712 0.458981 0.000000
0.168106 0.457906 0.000000
0.242500 0.456831 0.000000
0.316894 0.455757 0.000000
0.391289 0.454682 0.000000
0.465683 0.453608 0.000000
0.540077 0.452533 0.000000
0.614471 0.451459 0.000000
0.688866 0.450384 0.000000
0.763260 0.449310 0.000000
0.837654 0.448235 0.000000
0.912048 0.447161 0.000000
0.986442 0.446086 0.000000
1.000000 0.445012 0.000000
1.000000 0.443937 0.000000
0.000000 0.534489 0.000000
0.017208 0.533414 0.000000
0.091602 0.532340 0.000000
0.165996 0.531265 0.000000
0.240391 0.530191 0.000000
0.314785 0.529116 0.000000
0.389179 0.528042 0.000000
0.463573 0.526967 0.000000
0.537968 0.525893 0.000000
0.612362 0.524818 0.000000
0.686756 0.523743 0.000000
0.761150 0.522669 0.000000
0.835544 0.521594 0.000000
0.909939 0.520520 0.000000
0.984333 0.519445 0.000000
1.000000 0.518371 0.000000
1.000000 0.517296 0.000000
0.000000 0.607848 0.000000
0.015098 0.606773 0.000000
0.089493 0.605699 0.000000
0.163887 0.604624 0.000000
0.238281 0.603550 0.000000
0.312675 0.602475 0.000000
0.387070 0.601401 0.000000
0.461464 0.600326 0.000000
0.535858 0.599252 0.000000
0.610252 0.598177 0.000000
0.684646 0.597103 0.000000
0.759041 0.596028 0.000000
0.833435 0.594954 0.000000
0.907829 0.593879 0.000000
0.982223 0.592805 0.000000
1.000000 0.591730 0.000000
1.000000 0.590656 0.000000
0.000000 0.681207 0.000000
0.012989 0.680133 0.000000
0.087383 0.679058 0.000000
0.161777 0.677984 0.000000
0.236172 0.676909 0.000000
0.310566 0.675835 0.000000
0.384960 0.674760 0.000000
0.459354 0.673686 0.000000
0.533748 0.672611 0.000000
0.608143 0.671536 0.000000
0.682537 0.670462 0.000000
0.756931 0.669387 0.000000
0.831325 0.668313 0.000000
0.905720 0.667238 0.000000
0.980114 0.666164 0.000000
1.000000 0.665089 0.000000
1.000000 0.664015 0.000000
0.000000 0.754566 0.000000
0.010879 0.753492 0.000000
0.085274 0.752417 0.000000
0.159668 0.751343 0.000000
0.234062 0.750268 0.000000
0.308456 0.749194 0.000000
0.382851 0.748119 0.000000
0.457245 0.747045 0.000000
0.531639 0.745970 0.000000
0.606033 0.744896 0.000000
0.680427 0.743821 0.000000
0.754822 0.742747 0.000000
0.829216 0.741672 0.000000
0.903610 0.740598 0.000000
0.978004 0.739523 0.000000
1.000000 0.738448 0.000000
1.000000 0.737743 0.000000
0.000000 0.827926 0.000000
0.008770 0.826851 0.000000
0.083164 0.825777 0.000000
0.157558 0.824702 0.000000
0.231953 0.823628 0.000000
0.306347 0.822553 0.000000
0.380741 0.821478 0.000000
0.455135 0.820404 0.000000
0.529529 0.819329 0.000000
0.603924 0.818255 0.000000
0.678318 0.817180 0.000000
0.752712 0.816106 0.000000
0.827106 0.815031 0.000000
0.901501 0.813957 0.000000
0.976962 0.813225 0.000000
1.000000 0.812862 0.000000
1.000000 0.812498 0.000000
0.000000 0.901285 0.000000
0.006660 0.900210 0.000000
0.081055 0.899136 0.000000
0.155449 0.898061 0.000000
0.229843 0.896987 0.000000
0.304237 0.895912 0.000000
0.378631 0.894838 0.000000
0.453026 0.893763 0.000000
0.527420 0.892689 0.000000
0.601814 0.891614 0.000000
0.676208 0.890540 0.000000
0.750603 0.889465 0.000000
0.825982 0.888707 0.000000
0.902592 0.888344 0.000000
0.979202 0.887980 0.000000
1.000000 0.887617 0.000000
1.000000 0.887254 0.000000
0.000000 0.974644 0.000000
0.004551 0.973570 0.000000
0.078945 0.972495 0.000000
0.153339 0.971421 0.000000
0.227733 0.970346 0.000000
0.302128 0.969271 0.000000
0.376522 0.968197 0.000000
0.450916 0.967122 0.000000
0.525310 0.966048 0.000000
0.599705 0.964973 0.000000
0.675003 0.964189 0.000000
0.751613 0.963826 0.000000
0.828222 0.963462 0.000000
0.904832 0.963099 0.000000
0.981442 0.962736 0.000000
1.000000 0.962373 0.000000
1.000000 0.962009 0.000000
0.000000 1.000000 0.000000
0.002441 1.000000 0.000000
0.076836 1.000000 0.000000
0.151230 1.000000 0.000000
0.225624 1.000000 0.000000
0.300018 1.000000 0.000000
0.374412 1.000000 0.000000
0.448807 1.000000 0.000000
0.524023 1.000000 0.000000
0.600633 1.000000 0.000000
0.677243 1.000000 0.000000
0.753853 1.000000 0.000000
0.830463 1.000000 0.000000
0.907072 1.000000 0.000000
0.983682 1.000000 0.000000
1.000000 1.000000 0.000000
1.000000 1.000000 0.000000
0.000000 1.000000 0.000000
0.000332 1.000000 0.000000
0.074726 1.000000 0.000000
0.149120 1.000000 0.000000
0.223514 1.000000 0.000000
0.297909 1.000000 0.000000
0.373044 1.000000 0.000000
0.449654 1.000000 0.000000
0.526264 1.000000 0.000000
0.602873 1.000000 0.000000
0.679483 1.000000 0.000000
0.756093 1.000000 0.000000
0.832703 1.000000 0.000000
0.909313 1.000000 0.000000
0.985923 1.000000 0.000000
1.000000 1.000000 0.000000
1.000000 1.000000 0.000000
0.000000 0.000000 0.143295
0.000000 0.000000 0.136898
0.048840 0.000000 0.130502
0.127690 0.000000 0.124106
0.206541 0.000000 0.117709
0.285391 0.000000 0.111313
0.364242 0.000000 0.104916
0.443093 0.000000 0.098520
0.521943 0.000000 0.092123
0.600794 0.000000 0.085727
0.679644 0.000000 0.079331
0.758495 0.000000 0.072934
0.837345 0.000000 0.066538
0.916196 0.000000 0.060141
0.995046 0.000000 0.053745
1.000000 0.000000 0.047348
1.000000 0.000000 0.044725
0.000000 0.011295 0.130737
0.000000 0.010916 0.124341
0.055479 0.010537 0.117944
0.134330 0.010158 0.111548
0.213180 0.009779 0.105152
0.292031 0.009400 0.098755
0.370881 0.009021 0.092359
0.449732 0.008642 0.085962
0.528582 0.008263 0.079566
0.607433 0.007884 0.073169
0.686283 0.007505 0.066773
0.765134 0.007126 0.060377
0.843985 0.006747 0.053980
0.922835 0.006368 0.047584
0.998690 0.005521 0.044765
1.000000 0.004447 0.043690
1.000000 0.003372 0.042616
0.000000 0.086020 0.118180
0.000000 0.085641 0.111783
0.062118 0.085262 0.105387
0.140969 0.084883 0.098991
0.219819 0.084504 0.092594
0.298670 0.084125 0.086198
0.377520 0.083746 0.079801
0.456371 0.083367 0.073405
0.535221 0.082988 0.067008
0.614072 0.082609 0.060612
0.692923 0.082229 0.054215
0.771773 0.081850 0.047819
0.847792 0.081029 0.044804
0.922186 0.079955 0.043730
0.996580 0.078880 0.042655
1.000000 0.077806 0.041581
1.000000 0.076731 0.040506
0.000000 0.160745 0.105622
0.000000 0.160366 0.099226
0.068757 0.159987 0.092829
0.147608 0.159607 0.086433
0.226458 0.159228 0.080037
0.305309 0.158849 0.073640
0.384160 0.158470 0.067244
0.463010 0.158091 0.060847
0.541861 0.157712 0.054451
0.620711 0.157333 0.048054
0.696894 0.156538 0.044844
0.771288 0.155463 0.043769
0.845682 0.154389 0.042695
0.920077 0.153314 0.041620
0.994471 0.152240 0.040546
1.000000 0.151165 0.039471
1.000000 0.150091 0.038397
0.000000 0.235469 0.093065
0.000000 0.235090 0.086668
0.075397 0.234711 0.080272
0.154247 0.234332 0.073875
0.233098 0.233953 0.067479
0.311948 0.233574 0.061083
0.390799 0.233195 0.054686
0.469649 0.232816 0.048290
0.545996 0.232046 0.044883
0.620390 0.230971 0.043809
0.694784 0.229897 0.042734
0.769179 0.228822 0.041660
0.843573 0.227748 0.040585
0.917967 0.226673 0.039511
0.992361 0.225599 0.038436
1.000000 0.224524 0.037362
1.000000 0.223450 0.036287
0.000000 0.310194 0.080507
0.003185 0.309815 0.074111
0.082036 0.309436 0.067714
0.160886 0.309057 0.061318
0.239737 0.308678 0.054921
0.318587 0.308298 0.048525
0.395098 0.307554 0.044923
0.469492 0.306480 0.043848
0.543886 0.305405 0.042774
0.618281 0.304331 0.041699
0.692675 0.303256 0.040625
0.767069 0.302182 0.039550
0.841463 0.301107 0.038476
0.915858 0.300033 0.037401
0.990252 0.298958 0.036327
1.000000 0.297883 0.035252
1.000000 0.296809 0.034178
0.000000 0.384918 0.067950
0.009824 0.384539 0.061553
0.088675 0.384160 0.055157
0.167525 0.383781 0.048760
0.244200 0.383063 0.044963
0.318594 0.381988 0.043888
0.392988 0.380913 0.042813
0.467383 0.379839 0.041739
0.541777 0.378764 0.040664
0.616171 0.377690 0.039590
0.690565 0.376615 0.038515
0.764960 0.375541 0.037441
0.839354 0.374466 0.036366
0.913748 0.373392 0.035292
0.988142 0.372317 0.034217
1.000000 0.371243 0.033143
1.000000 0.370168 0.032068
0.000000 0.459643 0.055392
0.016464 0.459264 0.048996
0.093302 0.458571 0.045002
0.167696 0.457496 0.043928
0.242091 0.456422 0.042853
0.316485 0.455347 0.041778
0.390879 0.454273 0.040704
0.465273 0.453198 0.039629
0.539667 0.452124 0.038555
0.614062 0.451049 0.037480
0.688456 0.449975 0.036406
0.762850 0.448900 0.035331
0.837244 0.447826 0.034257
0.911638 0.446751 0.033182
0.986033 0.445676 0.032108
1.000000 0.444602 0.031033
1.000000 0.443527 0.029959
0.000000 0.534079 0.045042
0.016798 0.533005 0.043967
0.091193 0.531930 0.042893
0.165587 0.530856 0.041818
0.239981 0.529781 0.040743
0.314375 0.528706 0.039669
0.388769 0.527632 0.038594
0.463164 0.526557 0.037520
0.537558 0.525483 0.036445
0.611952 0.524408 0.035371
0.686346 0.523334 0.034296
0.760741 0.522259 0.033222
0.835135 0.521185 0.032147
0.909529 0.520110 0.031073
0.983923 0.519036 0.029998
1.000000 0.517961 0.028924
1.000000 0.516887 0.027849
0.000000 0.607438 0.042932
0.014689 0.606364 0.041858
0.089083 0.605289 0.040783
0.163477 0.604215 0.039708
0.237871 0.603140 0.038634
0.312266 0.602066 0.037559
0.386660 0.600991 0.036485
0.461054 0.599917 0.035410
0.535448 0.598842 0.034336
0.609843 0.597768 0.033261
0.684237 0.596693 0.032187
0.758631 0.595618 0.031112
0.833025 0.594544 0.030038
0.907419 0.593469 0.028963
0.981814 0.592395 0.027889
1.000000 0.591320 0.026814
1.000000 0.590246 0.025740
0.000000 0.680798 0.040823
0.012579 0.679723 0.039748
0.086973 0.678648 0.038673
0.161368 0.677574 0.037599
0.235762 0.676499 0.036524
0.310156 0.675425 0.035450
0.384550 0.674350 0.034375
0.458945 0.673276 0.033301
0.533339 0.672201 0.032226
0.607733 0.671127 0.031152
0.682127 0.670052 0.030077
0.756521 0.668978 0.029003
0.830916 0.667903 0.027928
0.905310 0.666829 0.026854
0.979704 0.665754 0.025779
1.000000 0.664680 0.024705
1.000000 0.663605 0.023630
0.000000 0.754157 0.038713
0.010470 0.753082 0.037638
0.084864 0.752008 0.036564
0.159258 0.750933 0.035489
0.233652 0.749859 0.034415
0.308047 0.748784 0.033340
0.382441 0.747710 0.032266
0.456835 0.746635 0.031191
0.531229 0.745561 0.030117
0.605623 0.744486 0.029042
0.680018 0.743411 0.027968
0.754412 0.742337 0.026893
0.828806 0.741262 0.025819
0.903200 0.740188 0.024744
0.977595 0.739113 0.023670
1.000000 0.738039 0.022595
1.000000 0.737604 0.019454
0.000000 0.827516 0.036603
0.008360 0.826441 0.035529
0.082754 0.825367 0.034454
0.157149 0.824292 0.033380
0.231543 0.823218 0.032305
0.305937 0.822143 0.031231
0.380331 0.821069 0.030156
0.454726 0.819994 0.029082
0.529120 0.818920 0.028007
0.603514 0.817845 0.026933
0.677908 0.816771 0.025858
0.752302 0.815696 0.024784
0.826697 0.814622 0.023709
0.901091 0.813547 0.022635
0.977397 0.813086 0.019578
1.000000 0.812723 0.016206
1.000000 0.812360 0.012834
0.000000 0.900875 0.034494
0.006251 0.899801 0.033419
0.080645 0.898726 0.032345
0.155039 0.897652 0.031270
0.229433 0.896577 0.030196
0.303828 0.895503 0.029121
0.378222 0.894428 0.028047
0.452616 0.893353 0.026972
0.527010 0.892279 0.025898
0.601404 0.891204 0.024823
0.675799 0.890130 0.023749
0.750193 0.889055 0.022674
0.826417 0.888568 0.019702
0.903027 0.888205 0.016330
0.979637 0.887842 0.012958
1.000000 0.887479 0.009586
1.000000 0.887115 0.006214
0.000000 0.974234 0.032384
0.004141 0.973160 0.031310
0.078535 0.972085 0.030235
0.152930 0.971011 0.029161
0.227324 0.969936 0.028086
0.301718 0.968862 0.027012
0.376112 0.967787 0.025937
0.450506 0.966713 0.024863
0.524901 0.965638 0.023788
0.599295 0.964564 0.022714
0.675438 0.964051 0.019826
0.752048 0.963687 0.016454
0.828658 0.963324 0.013082
0.905267 0.962961 0.009710
0.981877 0.962597 0.006338
1.000000 0.962234 0.002966
1.000000 0.961871 0.000000
0.000000 1.000000 0.030275
0.002032 1.000000 0.029200
0.076426 1.000000 0.028126
0.150820 1.000000 0.027051
0.225214 1.000000 0.025977
0.299608 1.000000 0.024902
0.374003 1.000000 0.023828
0.448397 1.000000 0.022753
0.524458 1.000000 0.019950
0.601068 1.000000 0.016578
0.677678 1.000000 0.013206
0.754288 1.000000 0.009834
0.830898 1.000000 0.006462
0.907508 1.000000 0.003090
0.984117 1.000000 0.000000
1.000000 1.000000 0.000000
1.000000 1.000000 0.000000
0.000000 1.000000 0.028165
0.000000 1.000000 0.027091
0.074316 1.000000 0.026016
0.148711 1.000000 0.024942
0.223105 1.000000 0.023867
0.297499 1.000000 0.022793
0.373479 1.000000 0.020074
0.450089 1.000000 0.016702
0.526699 1.000000 0.013330
0.603308 1.000000 0.009958
0.679918 1.000000 0.006586
0.756528 1.000000 0.003214
0.833138 1.000000 0.000000
0.909748 1.000000 0.000000
0.986358 1.000000 0.000000
1.000000 1.000000 0.000000
1.000000 1.000000 0.000000
0.000000 0.000000 0.216325
0.000000 0.000000 0.209928
0.050129 0.000000 0.203532
0.128980 0.000000 0.197136
0.207830 0.000000 0.190739
0.286681 0.000000 0.184343
0.365531 0.000000 0.177946
0.444382 0.000000 0.171550
0.523233 0.000000 0.165153
0.602083 0.000000 0.158757
0.680934 0.000000 0.152361
0.759784 0.000000 0.145964
0.838635 0.000000 0.139568
0.917485 0.000000 0.133171
0.996336 0.000000 0.126775
1.000000 0.000000 0.120859
1.000000 0.000000 0.119784
0.000000 0.011151 0.203767
0.000000 0.010772 0.197371
0.056768 0.010393 0.190974
