tools/fandomforge/assets/color_luts/leon-re2r-cutscenes.cube
TITLE "leon-re2r-cutscenes-RE2R"
LUT_3D_SIZE 9
0.000000 0.000000 0.079198
0.089167 0.000000 0.058380
0.240256 0.000000 0.037562
0.391344 0.000000 0.016744
0.542433 0.000000 0.000000
0.693522 0.000000 0.000000
0.844611 0.000000 0.000000
0.995699 0.000000 0.000000
1.000000 0.000000 0.000000
0.000000 0.131771 0.038328
0.097194 0.125604 0.017510
0.248283 0.119437 0.000000
0.399371 0.113270 0.000000
0.550460 0.107103 0.000000
0.701549 0.100936 0.000000
0.852638 0.094769 0.000000
0.995487 0.089967 0.000000
1.000000 0.085258 0.000000
0.000000 0.266664 0.000000
0.105221 0.260497 0.000000
0.256310 0.254330 0.000000
0.407398 0.248163 0.000000
0.558487 0.241996 0.000000
0.701661 0.237141 0.000000
0.843951 0.232431 0.000000
0.986242 0.227722 0.000000
1.000000 0.223013 0.000000
0.000000 0.401557 0.000000
0.113248 0.395390 0.000000
0.264337 0.389223 0.000000
0.407834 0.384314 0.000000
0.550125 0.379605 0.000000
0.692415 0.374895 0.000000
0.834706 0.370186 0.000000
0.976997 0.365477 0.000000
1.000000 0.360768 0.000000
0.000000 0.536450 0.000000
0.114007 0.531487 0.000000
0.256298 0.526778 0.000000
0.398589 0.522069 0.000000
0.540879 0.517359 0.000000
0.683170 0.512650 0.000000
0.825461 0.507941 0.000000
0.967752 0.503232 0.000000
1.000000 0.498522 0.000000
0.000000 0.673951 0.000000
0.104762 0.669242 0.000000
0.247053 0.664533 0.000000
0.389343 0.659823 0.000000
0.531634 0.655114 0.000000
0.673925 0.650405 0.000000
0.816216 0.645696 0.000000
0.958506 0.640986 0.000000
1.000000 0.636277 0.000000
0.000000 0.811706 0.000000
0.095517 0.806997 0.000000
0.237807 0.802287 0.000000
0.380098 0.797578 0.000000
0.522389 0.792869 0.000000
0.664680 0.788160 0.000000
0.806970 0.783450 0.000000
0.949535 0.778941 0.000000
1.000000 0.778217 0.000000
0.000000 0.949461 0.000000
0.086271 0.944751 0.000000
0.228562 0.940042 0.000000
0.370853 0.935333 0.000000
0.513144 0.930624 0.000000
0.655507 0.925968 0.000000
0.803248 0.925243 0.000000
0.950989 0.924519 0.000000
1.000000 0.923794 0.000000
0.000000 1.000000 0.000000
0.077026 1.000000 0.000000
0.219317 1.000000 0.000000
0.361608 1.000000 0.000000
0.509221 1.000000 0.000000
0.656961 1.000000 0.000000
0.804702 1.000000 0.000000
0.952443 1.000000 0.000000
1.000000 1.000000 0.000000
0.000000 0.000000 0.218261
0.090726 0.000000 0.197443
0.241815 0.000000 0.176625
0.392903 0.000000 0.155807
0.543992 0.000000 0.134989
0.695081 0.000000 0.114171
0.846169 0.000000 0.093353
0.997258 0.000000 0.072535
1.000000 0.000000 0.057428
0.000000 0.129420 0.177391
0.098753 0.123253 0.156573
0.249842 0.117086 0.135755
0.400930 0.110919 0.114937
0.552019 0.104752 0.094119
0.703108 0.098585 0.073301
0.851401 0.092881 0.057601
0.993692 0.088172 0.052892
1.000000 0.083463 0.048183
0.000000 0.264313 0.136521
0.106780 0.258146 0.115703
0.257869 0.251979 0.094885
0.408957 0.245812 0.074067
0.557574 0.240054 0.057774
0.699865 0.235345 0.053065
0.842156 0.230636 0.048356
0.984447 0.225927 0.043647
1.000000 0.221217 0.038937
0.000000 0.399206 0.095651
0.114807 0.393039 0.074833
0.263748 0.387228 0.057948
0.406038 0.382518 0.053238
0.548329 0.377809 0.048529
0.690620 0.373100 0.043820
0.832911 0.368391 0.039111
0.975201 0.363681 0.034401
1.000000 0.358972 0.029692
0.000000 0.534401 0.058121
0.112212 0.529692 0.053412
0.254502 0.524982 0.048702
0.396793 0.520273 0.043993
0.539084 0.515564 0.039284
0.681375 0.510855 0.034575
0.823665 0.506145 0.029865
0.965956 0.501436 0.025156
1.000000 0.496727 0.020447
0.000000 0.672156 0.048876
0.102966 0.667446 0.044166
0.245257 0.662737 0.039457
0.387548 0.658028 0.034748
0.529839 0.653319 0.030039
0.672129 0.648609 0.025329
0.814420 0.643900 0.020620
0.956711 0.639191 0.015911
1.000000 0.634482 0.011202
0.000000 0.809910 0.039630
0.093721 0.805201 0.034921
0.236012 0.800492 0.030212
0.378303 0.795783 0.025503
0.520593 0.791073 0.020793
0.662884 0.786364 0.016084
0.805175 0.781655 0.011375
0.949817 0.778665 0.004592
1.000000 0.777940 0.000000
0.000000 0.947665 0.030385
0.084476 0.942956 0.025676
0.226767 0.938247 0.020967
0.369057 0.933537 0.016257
0.511348 0.928828 0.011548
0.655790 0.925692 0.004942
0.803530 0.924967 0.000000
0.951271 0.924243 0.000000
1.000000 0.923518 0.000000
0.000000 1.000000 0.021140
0.075231 1.000000 0.016431
0.217521 1.000000 0.011721
0.361762 1.000000 0.005292
0.509503 1.000000 0.000000
0.657244 1.000000 0.000000
0.804984 1.000000 0.000000
0.952725 1.000000 0.000000
1.000000 1.000000 0.000000
0.000000 0.000000 0.357324
0.092285 0.000000 0.336506
0.243374 0.000000 0.315688
0.394462 0.000000 0.294870
0.545551 0.000000 0.274052
0.696640 0.000000 0.253234
0.847728 0.000000 0.232416
0.998817 0.000000 0.211598
1.000000 0.000000 0.202632
0.000000 0.127069 0.316454
0.100312 0.120902 0.295636
0.251401 0.114735 0.274818
0.402489 0.108568 0.254000
0.553578 0.102401 0.233182
0.704667 0.096234 0.212364
0.849606 0.091086 0.202806
0.991896 0.086376 0.198096
1.000000 0.081667 0.193387
0.000000 0.261962 0.275584
0.108339 0.255795 0.254766
0.259428 0.249628 0.233948
0.410516 0.243461 0.213130
0.555779 0.238259 0.202979
0.698070 0.233550 0.198270
0.840360 0.228840 0.193560
0.982651 0.224131 0.188851
1.000000 0.219422 0.184142
0.000000 0.396854 0.234713
0.116366 0.390687 0.213895
0.261952 0.385432 0.203152
0.404243 0.380723 0.198443
0.546534 0.376014 0.193734
0.688824 0.371304 0.189024
0.831115 0.366595 0.184315
0.973406 0.361886 0.179606
1.000000 0.357177 0.174897
0.000000 0.532605 0.203325
0.110416 0.527896 0.198616
0.252707 0.523187 0.193907
0.394998 0.518478 0.189198
0.537288 0.513768 0.184488
0.679579 0.509059 0.179779
0.821870 0.504350 0.175070
0.964161 0.499641 0.170361
1.000000 0.494931 0.165651
0.000000 0.670360 0.194080
0.101171 0.665651 0.189371
0.243462 0.660942 0.184662
0.385752 0.656232 0.179952
0.528043 0.651523 0.175243
0.670334 0.646814 0.170534
0.812625 0.642105 0.165825
0.954915 0.637395 0.161115
1.000000 0.632686 0.156406
0.000000 0.808115 0.184835
0.091926 0.803406 0.180126
0.234216 0.798696 0.175416
0.376507 0.793987 0.170707
0.518798 0.789278 0.165998
0.661089 0.784569 0.161289
0.803379 0.779859 0.156579
0.950099 0.778389 0.147964
1.000000 0.777664 0.138449
0.000000 0.945870 0.175590
0.082680 0.941160 0.170880
0.224971 0.936451 0.166171
0.367262 0.931742 0.161462
0.509553 0.927033 0.156753
0.656072 0.925415 0.148315
0.803813 0.924691 0.138799
0.951553 0.923966 0.129284
1.000000 0.923242 0.119769
0.000000 1.000000 0.166344
0.073435 1.000000 0.161635
0.215726 1.000000 0.156926
0.362045 1.000000 0.148665
0.509786 1.000000 0.139150
0.657526 1.000000 0.129635
0.805267 1.000000 0.120119
0.953008 1.000000 0.110604
1.000000 1.000000 0.101089
0.000000 0.000000 0.496386
0.093844 0.000000 0.475568
0.244932 0.000000 0.454750
0.396021 0.000000 0.433932
0.547110 0.000000 0.413114
0.698199 0.000000 0.392296
0.849287 0.000000 0.371479
0.999346 0.000000 0.352546
1.000000 0.000000 0.347837
0.000000 0.124717 0.455516
0.101871 0.118550 0.434698
0.252959 0.112383 0.413880
0.404048 0.106216 0.393062
0.555137 0.100049 0.372244
0.705519 0.093999 0.352719
0.847810 0.089290 0.348010
0.990101 0.084581 0.343301
1.000000 0.079872 0.338592
0.000000 0.259610 0.414646
0.109898 0.253443 0.393828
0.260986 0.247276 0.373010
0.411693 0.241173 0.352893
0.553983 0.236463 0.348183
0.696274 0.231754 0.343474
0.838565 0.227045 0.338765
0.980856 0.222336 0.334056
1.000000 0.217626 0.329346
0.000000 0.394503 0.373776
0.117866 0.388346 0.353066
0.260157 0.383637 0.348357
0.402447 0.378927 0.343647
0.544738 0.374218 0.338938
0.687029 0.369509 0.334229
0.829320 0.364800 0.329520
0.971610 0.360090 0.324810
1.000000 0.355381 0.320101
0.000000 0.530810 0.348530
0.108621 0.526101 0.343821
0.250911 0.521391 0.339111
0.393202 0.516682 0.334402
0.535493 0.511973 0.329693
0.677784 0.507264 0.324984
0.820074 0.502554 0.320274
0.962365 0.497845 0.315565
1.000000 0.493136 0.310856
0.000000 0.668565 0.339285
0.099375 0.663855 0.334575
0.241666 0.659146 0.329866
0.383957 0.654437 0.325157
0.526248 0.649728 0.320448
0.668538 0.645018 0.315738
0.810829 0.640309 0.311029
0.953120 0.635600 0.306320
1.000000 0.631810 0.300502
0.000000 0.806319 0.330039
0.090130 0.801610 0.325330
0.232421 0.796901 0.320621
0.374712 0.792192 0.315912
0.517002 0.787482 0.311202
0.659293 0.782773 0.306493
0.802641 0.778837 0.300852
0.950382 0.778112 0.291337
1.000000 0.777388 0.281822
0.000000 0.944074 0.320794
0.080885 0.939365 0.316085
0.223176 0.934656 0.311376
0.365466 0.929946 0.306666
0.508614 0.925864 0.301202
0.656355 0.925139 0.291687
0.804095 0.924415 0.282172
0.951836 0.923690 0.272657
1.000000 0.922966 0.263142
0.000000 1.000000 0.311549
0.071640 1.000000 0.306840
0.214587 1.000000 0.301552
0.362327 1.000000 0.292037
0.510068 1.000000 0.282522
0.657809 1.000000 0.273007
0.805549 1.000000 0.263492
0.953290 1.000000 0.253977
1.000000 1.000000 0.244462
0.000000 0.000000 0.635449
0.095403 0.000000 0.614631
0.246491 0.000000 0.593813
0.397580 0.000000 0.572995
0.548669 0.000000 0.552177
0.699758 0.000000 0.531359
0.850846 0.000000 0.510541
0.997551 0.000000 0.497751
1.000000 0.000000 0.493041
0.000000 0.122366 0.594579
0.103430 0.116199 0.573761
0.254518 0.110032 0.552943
0.405607 0.103865 0.532125
0.556696 0.097698 0.511307
0.703724 0.092204 0.497924
0.846015 0.087495 0.493215
0.988305 0.082785 0.488505
1.000000 0.078076 0.483796
0.000000 0.257259 0.553709
0.111457 0.251092 0.532891
0.262545 0.244925 0.512073
0.409897 0.239377 0.498097
0.552188 0.234668 0.493388
0.694479 0.229959 0.488679
0.836769 0.225249 0.483969
0.979060 0.220540 0.479260
1.000000 0.215831 0.474551
0.000000 0.392152 0.512839
0.116070 0.386550 0.498270
0.258361 0.381841 0.493561
0.400652 0.377132 0.488852
0.542943 0.372423 0.484143
0.685233 0.367713 0.479433
0.827524 0.363004 0.474724
0.969815 0.358295 0.470015
1.000000 0.353586 0.465306
0.000000 0.529014 0.493734
0.106825 0.524305 0.489025
0.249116 0.519596 0.484316
0.391407 0.514887 0.479607
0.533697 0.510177 0.474897
0.675988 0.505468 0.470188
0.818279 0.500759 0.465479
0.960570 0.496050 0.460770
1.000000 0.491340 0.456060
0.000000 0.666769 0.484489
0.097580 0.662060 0.479780
0.239871 0.657351 0.475071
0.382161 0.652641 0.470361
0.524452 0.647932 0.465652
0.666743 0.643223 0.460943
0.809034 0.638514 0.456234
0.951324 0.633804 0.451524
1.000000 0.631534 0.443874
0.000000 0.804524 0.475244
0.088335 0.799815 0.470535
0.230625 0.795105 0.465825
0.372916 0.790396 0.461116
0.515207 0.785687 0.456407
0.657498 0.780978 0.451698
0.802924 0.778561 0.444224
0.950664 0.777836 0.434709
1.000000 0.777112 0.425194
0.000000 0.942279 0.465999
0.079089 0.937569 0.461289
0.221380 0.932860 0.456580
0.363671 0.928151 0.451871
0.508896 0.925587 0.444574
0.656637 0.924863 0.435059
0.804378 0.924138 0.425544
0.952118 0.923414 0.416029
1.000000 0.922690 0.406514
0.000000 1.000000 0.456753
0.069844 1.000000 0.452044
0.214869 1.000000 0.444924
0.362610 1.000000 0.435409
0.510350 1.000000 0.425894
0.658091 1.000000 0.416379
0.805832 1.000000 0.406864
0.953572 1.000000 0.397349
1.000000 1.000000 0.387834
0.000000 0.000000 0.774512
0.096962 0.000000 0.753694
0.248050 0.000000 0.732876
0.399139 0.000000 0.712058
0.550228 0.000000 0.691240
0.701316 0.000000 0.670422
0.852405 0.000000 0.649604
0.995755 0.000000 0.642955
1.000000 0.000000 0.638246
0.000000 0.120015 0.733642
0.104989 0.113848 0.712824
0.256077 0.107681 0.692006
0.407166 0.101514 0.671188
0.558255 0.095347 0.650370
0.701928 0.090408 0.643128
0.844219 0.085699 0.638419
0.986510 0.080990 0.633710
1.000000 0.076281 0.629001
0.000000 0.254908 0.692772
0.113016 0.248741 0.671954
0.264104 0.242574 0.651136
0.408102 0.237582 0.643302
0.550392 0.232872 0.638592
0.692683 0.228163 0.633883
0.834974 0.223454 0.629174
0.977265 0.218745 0.624465
1.000000 0.214035 0.619755
0.000000 0.389801 0.651902
0.114275 0.384755 0.643475
0.256566 0.380046 0.638766
0.398856 0.375336 0.634056
0.541147 0.370627 0.629347
0.683438 0.365918 0.624638
0.825729 0.361209 0.619929
0.968019 0.356499 0.615219
1.000000 0.351790 0.610510
0.000000 0.527219 0.638939
0.105030 0.522510 0.634230
0.247320 0.517800 0.629520
0.389611 0.513091 0.624811
0.531902 0.508382 0.620102
0.674193 0.503673 0.615393
0.816483 0.498963 0.610683
0.958774 0.494254 0.605974
1.000000 0.489545 0.601265
0.000000 0.664974 0.629694
0.095784 0.660264 0.624984
0.238075 0.655555 0.620275
0.380366 0.650846 0.615566
0.522657 0.646137 0.610857
0.664947 0.641427 0.606147
0.807238 0.636718 0.601438
0.949529 0.632009 0.596729
1.000000 0.631258 0.587246
0.000000 0.802728 0.620448
0.086539 0.798019 0.615739
0.228830 0.793310 0.611030
0.371121 0.788601 0.606321
0.513411 0.783891 0.601611
0.655702 0.779182 0.596902
0.803206 0.778284 0.587596
0.950947 0.777560 0.578081
1.000000 0.776836 0.568566
0.000000 0.940483 0.611203
0.077294 0.935774 0.606494
0.219585 0.931065 0.601785
0.361875 0.926355 0.597075
0.509179 0.925311 0.587946
0.656919 0.924587 0.578431
0.804660 0.923862 0.568916
0.952401 0.923138 0.559401
1.000000 0.922413 0.549886
0.000000 1.000000 0.601958
0.068049 1.000000 0.597249
0.215151 1.000000 0.588296
0.362892 1.000000 0.578781
0.510633 1.000000 0.569266
0.658373 1.000000 0.559751
0.806114 1.000000 0.550236
0.953855 1.000000 0.540721
1.000000 1.000000 0.531206
0.000000 0.000000 0.913574
0.098520 0.000000 0.892757
0.249609 0.000000 0.871939
0.400698 0.000000 0.851121
0.551787 0.000000 0.830303
0.702875 0.000000 0.809485
0.851669 0.000000 0.792869
0.993960 0.000000 0.788160
1.000000 0.000000 0.783450
0.000000 0.117663 0.872704
0.106547 0.111496 0.851886
0.257636 0.105329 0.831068
0.408725 0.099163 0.810251
0.557842 0.093322 0.793042
0.700133 0.088613 0.788333
0.842424 0.083904 0.783624
0.984714 0.079194 0.778914
1.000000 0.074485 0.774205
0.000000 0.252556 0.831834
0.114574 0.246389 0.811016
0.264015 0.240495 0.793215
0.406306 0.235786 0.788506
0.548597 0.231077 0.783797
0.690888 0.226368 0.779088
0.833178 0.221658 0.774378
0.975469 0.216949 0.769669
1.000000 0.212240 0.764960
0.000000 0.387669 0.793389
0.112479 0.382959 0.788679
0.254770 0.378250 0.783970
0.397061 0.373541 0.779261
0.539352 0.368832 0.774552
0.681642 0.364122 0.769842
0.823933 0.359413 0.765133
0.966224 0.354704 0.760424
1.000000 0.349995 0.755715
0.000000 0.525423 0.784143
0.103234 0.520714 0.779434
0.245525 0.516005 0.774725
0.387816 0.511296 0.770016
0.530106 0.506586 0.765306
0.672397 0.501877 0.760597
0.814688 0.497168 0.755888
0.956979 0.492459 0.751179
1.000000 0.487749 0.746469
0.000000 0.663178 0.774898
0.093989 0.658469 0.770189
0.236280 0.653760 0.765480
0.378570 0.649050 0.760770
0.520861 0.644341 0.756061
0.663152 0.639632 0.751352
0.805443 0.634923 0.746643
0.949775 0.631706 0.740133
1.000000 0.630982 0.730618
0.000000 0.800933 0.765653
0.084744 0.796224 0.760944
0.227034 0.791514 0.756234
0.369325 0.786805 0.751525
0.511616 0.782096 0.746816
0.655748 0.778733 0.740483
0.803488 0.778008 0.730968
0.951229 0.777284 0.721453
1.000000 0.776559 0.711938
0.000000 0.938688 0.756408
0.075498 0.933978 0.751698
0.217789 0.929269 0.746989
0.361720 0.925759 0.740833
0.509461 0.925035 0.731318
0.657202 0.924311 0.721803
0.804942 0.923586 0.712288
0.952683 0.922862 0.702773
1.000000 0.922137 0.693258
0.000000 1.000000 0.747162
0.067693 1.000000 0.741183
0.215434 1.000000 0.731668
0.363174 1.000000 0.722153
0.510915 1.000000 0.712638
0.658656 1.000000 0.703123
0.806396 1.000000 0.693608
0.954137 1.000000 0.684093
1.000000 1.000000 0.674578
0.000000 0.000000 1.000000
0.100079 0.000000 1.000000
0.251168 0.000000 1.000000
0.402257 0.000000 0.990183
0.553346 0.000000 0.969365
0.704434 0.000000 0.948547
0.849873 0.000000 0.938073
0.992164 0.000000 0.933364
1.000000 0.000000 0.928655
0.000000 0.115312 1.000000
0.108106 0.109145 0.990949
0.259195 0.102978 0.970131
0.410284 0.096811 0.949313
0.556047 0.091527 0.938247
0.698337 0.086817 0.933537
0.840628 0.082108 0.928828
0.982919 0.077399 0.924119
1.000000 0.072690 0.919410
0.000000 0.250205 0.970897
0.116133 0.244038 0.950079
0.262220 0.238700 0.938420
0.404511 0.233991 0.933711
0.546801 0.229281 0.929001
0.689092 0.224572 0.924292
0.831383 0.219863 0.919583
0.973674 0.215154 0.914874
1.000000 0.210444 0.910164
0.000000 0.385873 0.938593
0.110684 0.381164 0.933884
0.252975 0.376455 0.929175
0.395265 0.371745 0.924465
0.537556 0.367036 0.919756
0.679847 0.362327 0.915047
0.822138 0.357618 0.910338
0.964428 0.352908 0.905628
1.000000 0.348199 0.900919
0.000000 0.523628 0.929348
0.101439 0.518919 0.924639
0.243729 0.514209 0.919929
0.386020 0.509500 0.915220
0.528311 0.504791 0.910511
0.670602 0.500082 0.905802
0.812892 0.495372 0.901092
0.955183 0.490663 0.896383
1.000000 0.485954 0.891674
0.000000 0.661383 0.920103
0.092193 0.656673 0.915393
0.234484 0.651964 0.910684
0.376775 0.647255 0.905975
0.519066 0.642546 0.901266
0.661356 0.637836 0.896556
0.803647 0.633127 0.891847
0.950057 0.631430 0.883505
1.000000 0.630705 0.873990
0.000000 0.799137 0.910857
0.082948 0.794428 0.906148
0.225239 0.789719 0.901439
0.367530 0.785010 0.896730
0.509820 0.780300 0.892020
0.656030 0.778457 0.883856
0.803771 0.777732 0.874340
0.951511 0.777008 0.864825
1.000000 0.776283 0.855310
0.000000 0.936892 0.901612
0.073703 0.932183 0.896903
0.215994 0.927474 0.892194
0.362003 0.925483 0.884206
0.509743 0.924759 0.874691
0.657484 0.924034 0.865175
0.805225 0.923310 0.855660
0.952965 0.922585 0.846145
1.000000 0.921861 0.836630
0.000000 1.000000 0.892367
0.067976 1.000000 0.884556
0.215716 1.000000 0.875041
0.363457 1.000000 0.865526
0.511198 1.000000 0.856011
0.658938 1.000000 0.846495
0.806679 1.000000 0.836980
0.954419 1.000000 0.827465
1.000000 1.000000 0.817950
0.000000 0.000000 1.000000
0.101638 0.000000 1.000000
0.252727 0.000000 1.000000
0.403816 0.000000 1.000000
0.554904 0.000000 1.000000
0.705787 0.000000 1.000000
0.848078 0.000000 1.000000
0.990369 0.000000 1.000000
1.000000 0.000000 1.000000
0.000000 0.112961 1.000000
0.109665 0.106794 1.000000
0.260754 0.100627 1.000000
0.411843 0.094460 1.000000
0.554251 0.089731 1.000000
0.696542 0.085022 1.000000
0.838833 0.080313 1.000000
0.981123 0.075603 1.000000
1.000000 0.070894 1.000000
0.000000 0.247854 1.000000
0.117692 0.241687 1.000000
0.260424 0.236904 1.000000
0.402715 0.232195 1.000000
0.545006 0.227486 1.000000
0.687297 0.222777 1.000000
0.829587 0.218067 1.000000
0.971878 0.213358 1.000000
1.000000 0.208649 1.000000
0.000000 0.384078 1.000000
0.108888 0.379368 1.000000
0.251179 0.374659 1.000000
0.393470 0.369950 1.000000
0.535761 0.365241 1.000000
0.678051 0.360531 1.000000
0.820342 0.355822 1.000000
0.962633 0.351113 1.000000
1.000000 0.346404 1.000000
0.000000 0.521832 1.000000
0.099643 0.517123 1.000000
0.241934 0.512414 1.000000
0.384225 0.507705 1.000000
0.526515 0.502995 1.000000
0.668806 0.498286 1.000000
0.811097 0.493577 1.000000
0.953388 0.488868 1.000000
1.000000 0.484851 1.000000
0.000000 0.659587 1.000000
0.090398 0.654878 1.000000
0.232689 0.650169 1.000000
0.374979 0.645459 1.000000
0.517270 0.640750 1.000000
0.659561 0.636041 1.000000
0.802599 0.631878 1.000000
0.950340 0.631154 1.000000
1.000000 0.630429 1.000000
0.000000 0.797342 1.000000
0.081153 0.792633 1.000000
0.223443 0.787923 1.000000
0.365734 0.783214 1.000000
0.508572 0.778905 1.000000
0.656312 0.778180 1.000000
0.804053 0.777456 1.000000
0.951794 0.776731 1.000000
1.000000 0.776007 0.998683
0.000000 0.935097 1.000000
0.071907 0.930387 1.000000
0.214545 0.925931 1.000000
0.362285 0.925207 1.000000
0.510026 0.924483 1.000000
0.657766 0.923758 1.000000
0.805507 0.923034 0.999033
0.953248 0.922309 0.989518
1.000000 0.921585 0.980003
0.000000 1.000000 1.000000
0.068258 1.000000 1.000000
0.215999 1.000000 1.000000
0.363739 1.000000 1.000000
0.511480 1.000000 0.999383
0.659221 1.000000 0.989868
0.806961 1.000000 0.980353
0.954702 1.000000 0.970838
1.000000 1.000000 0.961323
