tools/fandomforge/assets/color_luts/leon-damnation.cube
TITLE "leon-damnation-Damnation"
LUT_3D_SIZE 5
0.000000 0.000000 0.002400
0.211021 0.000000 0.007503
0.445906 0.008185 0.012606
0.680791 0.019833 0.017709
0.915677 0.031480 0.022813
0.007567 0.226632 0.012419
0.242452 0.238279 0.017522
0.477338 0.249927 0.022625
0.707985 0.261480 0.033850
0.938409 0.273029 0.045399
0.038999 0.468373 0.022437
0.269810 0.479930 0.033425
0.500234 0.491479 0.044974
0.730658 0.503028 0.056523
0.961082 0.514577 0.068072
0.062059 0.709929 0.044549
0.292483 0.721478 0.056098
0.522907 0.733027 0.067647
0.753331 0.744576 0.079196
0.986262 0.757487 0.089816
0.084732 0.951477 0.067222
0.315156 0.963026 0.078771
0.547912 0.975842 0.089456
0.783111 0.989984 0.099236
1.000000 1.000000 0.109016
0.000000 0.000000 0.223221
0.217125 0.000979 0.228324
0.452010 0.012626 0.233427
0.686896 0.024273 0.238530
0.920140 0.035885 0.246005
0.013671 0.231072 0.233239
0.248557 0.242720 0.238342
0.481965 0.254335 0.245580
0.712389 0.265884 0.257129
0.942812 0.277432 0.268677
0.043790 0.472785 0.245155
0.274214 0.484334 0.256704
0.504638 0.495883 0.268253
0.735061 0.507431 0.279801
0.965485 0.518980 0.291350
0.066463 0.714333 0.267828
0.296887 0.725882 0.279377
0.527310 0.737430 0.290925
0.757734 0.748979 0.302474
0.992486 0.762879 0.312420
0.089136 0.955881 0.290501
0.319559 0.967429 0.302049
0.554136 0.981234 0.312060
0.789335 0.995376 0.321840
1.000000 1.000000 0.331619
0.000000 0.000000 0.444042
0.223229 0.005419 0.449145
0.458115 0.017067 0.454248
0.693000 0.028714 0.459351
0.924543 0.040288 0.469283
0.019776 0.235513 0.454060
0.254661 0.247161 0.459163
0.486368 0.258738 0.468858
0.716792 0.270287 0.480407
0.947216 0.281836 0.491956
0.048193 0.477188 0.468433
0.278617 0.488737 0.479982
0.509041 0.500286 0.491531
0.739465 0.511835 0.503080
0.969889 0.523384 0.514629
0.070866 0.718736 0.491106
0.301290 0.730285 0.502655
0.531714 0.741834 0.514204
0.763511 0.754129 0.525244
0.998710 0.768271 0.535023
0.093539 0.960284 0.513779
0.325160 0.972483 0.524884
0.560360 0.986626 0.534664
0.795559 1.000000 0.544443
1.000000 1.000000 0.554223
0.000000 0.000000 0.664862
0.229333 0.009860 0.669965
0.464219 0.021508 0.675068
0.698522 0.033142 0.681012
0.928946 0.044691 0.692561
0.025880 0.239954 0.674881
0.260347 0.251592 0.680587
0.490771 0.263141 0.692136
0.721195 0.274690 0.703685
0.951619 0.286239 0.715234
0.052596 0.481591 0.691711
0.283020 0.493140 0.703260
0.513444 0.504689 0.714809
0.743868 0.516238 0.726358
0.974292 0.527787 0.737907
0.075269 0.723139 0.714384
0.305693 0.734688 0.725933
0.536117 0.746237 0.737482
0.769735 0.759521 0.747847
1.000000 0.773663 0.757627
0.097942 0.964687 0.737057
0.331384 0.977875 0.747488
0.566583 0.992018 0.757267
0.801783 1.000000 0.767047
1.000000 1.000000 0.776827
0.000552 0.002654 0.885683
0.235438 0.014301 0.890786
0.470323 0.025948 0.895889
0.702925 0.037545 0.904290
0.933349 0.049094 0.915839
0.031984 0.244395 0.895701
0.264751 0.255996 0.903866
0.495174 0.267544 0.915414
0.725598 0.279093 0.926963
0.956022 0.290642 0.938512
0.057000 0.485995 0.914990
0.287423 0.497543 0.926538
0.517847 0.509092 0.938087
0.748271 0.520641 0.949636
0.979110 0.532416 0.961031
0.079672 0.727542 0.937662
0.310096 0.739091 0.949211
0.540760 0.750770 0.960671
0.775959 0.764913 0.970451
1.000000 0.779056 0.980231
0.102409 0.969125 0.960312
0.337608 0.983268 0.970091
0.572807 0.997410 0.979871
0.808006 1.000000 0.989651
1.000000 1.000000 0.999431
