tools/fandomforge/assets/color_luts/leon-all-eras-badass.cube
TITLE "leon-all-eras-badass"
LUT_3D_SIZE 9
0.117776 0.161322 0.098725
0.274016 0.168352 0.117114
0.430255 0.175382 0.135503
0.586495 0.182412 0.153892
0.742735 0.189442 0.172280
0.898974 0.196472 0.190669
1.000000 0.203503 0.209058
1.000000 0.210533 0.227447
1.000000 0.217563 0.245836
0.146222 0.316874 0.134826
0.302462 0.323904 0.153215
0.458702 0.330934 0.171604
0.614941 0.337964 0.189993
0.771181 0.344994 0.208381
0.927420 0.352024 0.226770
1.000000 0.359054 0.245159
1.000000 0.356561 0.243388
1.000000 0.353421 0.240248
0.174668 0.472425 0.170927
0.330908 0.479455 0.189316
0.487148 0.486485 0.207705
0.643387 0.493515 0.226094
0.799627 0.500545 0.244483
0.940006 0.498426 0.243503
1.000000 0.495287 0.240364
1.000000 0.492147 0.237224
1.000000 0.489008 0.234085
0.203114 0.627977 0.207028
0.359354 0.635007 0.225417
0.515594 0.642037 0.243806
0.656621 0.640292 0.243619
0.795232 0.637152 0.240479
0.933842 0.634013 0.237340
1.000000 0.630873 0.234200
1.000000 0.627734 0.231061
1.000000 0.624594 0.227921
0.231560 0.783528 0.243130
0.373237 0.782157 0.243734
0.511847 0.779018 0.240595
0.650458 0.775878 0.237455
0.789068 0.772739 0.234316
0.927679 0.769599 0.231176
1.000000 0.766460 0.228037
1.000000 0.763320 0.224897
1.000000 0.760181 0.221758
0.228463 0.920883 0.240710
0.367073 0.917744 0.237571
0.505684 0.914604 0.234431
0.644294 0.911465 0.231292
0.782905 0.908325 0.228152
0.921515 0.905186 0.225013
1.000000 0.902046 0.221873
1.000000 0.898907 0.218734
1.000000 0.895767 0.215594
0.222299 1.000000 0.234547
0.360910 1.000000 0.231407
0.499520 1.000000 0.228268
0.638131 1.000000 0.225128
0.776741 1.000000 0.221989
0.915352 1.000000 0.218849
1.000000 1.000000 0.215710
1.000000 1.000000 0.213673
1.000000 1.000000 0.232523
0.216136 1.000000 0.228383
0.354746 1.000000 0.225244
0.493357 1.000000 0.222104
0.631967 1.000000 0.218965
0.770578 1.000000 0.215825
0.909433 1.000000 0.212980
1.000000 1.000000 0.231830
1.000000 1.000000 0.250680
1.000000 1.000000 0.269530
0.209972 1.000000 0.222220
0.348583 1.000000 0.219080
0.487193 1.000000 0.215941
0.625804 1.000000 0.212801
0.782247 1.000000 0.231136
0.939117 1.000000 0.249987
1.000000 1.000000 0.268837
1.000000 1.000000 0.287687
1.000000 1.000000 0.306537
0.123301 0.164002 0.247486
0.279540 0.171032 0.265875
0.435780 0.178063 0.284264
0.592019 0.185093 0.302653
0.748259 0.192123 0.321042
0.904499 0.199153 0.339430
1.000000 0.206183 0.357819
1.000000 0.213213 0.376208
1.000000 0.216638 0.386965
0.151747 0.319554 0.283587
0.307986 0.326584 0.301976
0.464226 0.333614 0.320365
0.620465 0.340644 0.338754
0.776705 0.347674 0.357143
0.932945 0.354704 0.375531
1.000000 0.358503 0.387080
1.000000 0.355364 0.383941
1.000000 0.352224 0.380801
0.180193 0.475105 0.319688
0.336432 0.482136 0.338077
0.492672 0.489166 0.356466
0.648912 0.496196 0.374855
0.800198 0.500369 0.387196
0.938809 0.497229 0.384056
1.000000 0.494090 0.380917
1.000000 0.490950 0.377777
1.000000 0.487811 0.374638
0.208639 0.630657 0.355790
0.364878 0.637687 0.374178
0.516814 0.642234 0.387311
0.655424 0.639095 0.384172
0.794035 0.635955 0.381032
0.932645 0.632816 0.377893
1.000000 0.629676 0.374753
1.000000 0.626537 0.371614
1.000000 0.623397 0.368474
0.233429 0.784100 0.387427
0.372040 0.780960 0.384287
0.510650 0.777821 0.381148
0.649261 0.774681 0.378008
0.787871 0.771542 0.374869
0.926482 0.768402 0.371729
1.000000 0.765263 0.368590
1.000000 0.762123 0.365450
1.000000 0.758984 0.362311
0.227266 0.919686 0.381263
0.365876 0.916547 0.378124
0.504487 0.913407 0.374984
0.643097 0.910268 0.371845
0.781708 0.907128 0.368705
0.920318 0.903989 0.365566
1.000000 0.900849 0.362426
1.000000 0.897710 0.359287
1.000000 0.894570 0.356147
0.221102 1.000000 0.375100
0.359713 1.000000 0.371960
0.498323 1.000000 0.368821
0.636934 1.000000 0.365681
0.775544 1.000000 0.362542
0.914155 1.000000 0.359402
1.000000 1.000000 0.356263
1.000000 1.000000 0.362610
1.000000 1.000000 0.381461
0.214939 1.000000 0.368936
0.353549 1.000000 0.365797
0.492160 1.000000 0.362657
0.630770 1.000000 0.359518
0.769381 1.000000 0.356378
0.915198 1.000000 0.361917
1.000000 1.000000 0.380767
1.000000 1.000000 0.399617
1.000000 1.000000 0.418467
0.208775 1.000000 0.362773
0.347386 1.000000 0.359633
0.485996 1.000000 0.356494
0.631141 1.000000 0.361223
0.788012 1.000000 0.380074
0.944882 1.000000 0.398924
1.000000 1.000000 0.417774
1.000000 1.000000 0.436624
1.000000 1.000000 0.455474
0.128825 0.166683 0.396247
0.285065 0.173713 0.414636
0.441304 0.180743 0.433025
0.597544 0.187773 0.451414
0.753783 0.194803 0.469803
0.910023 0.201833 0.488191
1.000000 0.208863 0.506580
1.000000 0.215893 0.524969
1.000000 0.215441 0.527518
0.157271 0.322234 0.432349
0.313511 0.329264 0.450737
0.469750 0.336294 0.469126
0.625990 0.343325 0.487515
0.782229 0.350355 0.505904
0.938469 0.357385 0.524293
1.000000 0.357306 0.527633
1.000000 0.354167 0.524494
1.000000 0.351027 0.521354
0.185717 0.477786 0.468450
0.341957 0.484816 0.486838
0.498196 0.491846 0.505227
0.654436 0.498876 0.523616
0.799001 0.499172 0.527749
0.937612 0.496032 0.524609
1.000000 0.492893 0.521470
1.000000 0.489753 0.518330
1.000000 0.486614 0.515191
0.214163 0.633337 0.504551
0.370403 0.640367 0.522939
0.515617 0.641037 0.527864
0.654227 0.637898 0.524725
0.792838 0.634758 0.521585
0.931448 0.631619 0.518446
1.000000 0.628479 0.515306
1.000000 0.625340 0.512167
1.000000 0.622200 0.509027
0.232232 0.782903 0.527980
0.370843 0.779763 0.524840
0.509453 0.776624 0.521701
0.648064 0.773484 0.518561
0.786674 0.770345 0.515422
0.925285 0.767205 0.512282
1.000000 0.764066 0.509143
1.000000 0.760926 0.506003
1.000000 0.757787 0.502864
0.226069 0.918489 0.521816
0.364679 0.915350 0.518677
0.503290 0.912210 0.515537
0.641900 0.909071 0.512398
0.780511 0.905931 0.509258
0.919121 0.902792 0.506119
1.000000 0.899652 0.502979
1.000000 0.896513 0.499840
1.000000 0.893373 0.496700
0.219905 1.000000 0.515653
0.358516 1.000000 0.512513
0.497126 1.000000 0.509374
0.635737 1.000000 0.506234
0.774347 1.000000 0.503095
0.912958 1.000000 0.499955
1.000000 1.000000 0.496816
1.000000 1.000000 0.511547
1.000000 1.000000 0.530398
0.213742 1.000000 0.509489
0.352352 1.000000 0.506350
0.490963 1.000000 0.503210
0.629573 1.000000 0.500071
0.768184 1.000000 0.496931
0.920963 1.000000 0.510854
1.000000 1.000000 0.529704
1.000000 1.000000 0.548554
1.000000 1.000000 0.567404
0.207578 1.000000 0.503326
0.346189 1.000000 0.500186
0.484799 1.000000 0.497047
0.636906 1.000000 0.510160
0.793777 1.000000 0.529011
0.950647 1.000000 0.547861
1.000000 1.000000 0.566711
1.000000 1.000000 0.585561
1.000000 1.000000 0.604411
0.134350 0.169363 0.545009
0.290589 0.176393 0.563397
0.446829 0.183423 0.581786
0.603068 0.190453 0.600175
0.759308 0.197483 0.618564
0.915547 0.204514 0.636953
1.000000 0.211544 0.655341
1.000000 0.217383 0.671210
1.000000 0.214244 0.668071
0.162796 0.324915 0.581110
0.319035 0.331945 0.599498
0.475275 0.338975 0.617887
0.631514 0.346005 0.636276
0.787754 0.353035 0.654665
0.942578 0.359249 0.671326
1.000000 0.356109 0.668186
1.000000 0.352970 0.665047
1.000000 0.349830 0.661907
0.191242 0.480466 0.617211
0.347481 0.487496 0.635600
0.503721 0.494526 0.653988
0.659194 0.501114 0.671441
0.797804 0.497975 0.668302
0.936415 0.494835 0.665162
1.000000 0.491696 0.662023
1.000000 0.488556 0.658883
1.000000 0.485417 0.655744
0.219688 0.636018 0.653312
0.375809 0.642980 0.671557
0.514420 0.639840 0.668417
0.653030 0.636701 0.665278
0.791641 0.633561 0.662138
0.930251 0.630422 0.658999
1.000000 0.627282 0.655859
1.000000 0.624143 0.652720
1.000000 0.621003 0.649580
0.231035 0.781706 0.668533
0.369646 0.778566 0.665393
0.508256 0.775427 0.662254
0.646867 0.772287 0.659114
0.785477 0.769148 0.655975
0.924088 0.766008 0.652835
1.000000 0.762869 0.649696
1.000000 0.759729 0.646556
1.000000 0.756590 0.643417
0.224872 0.917292 0.662369
0.363482 0.914153 0.659230
0.502093 0.911013 0.656090
0.640703 0.907874 0.652951
0.779314 0.904734 0.649811
0.917924 0.901595 0.646672
1.000000 0.898455 0.643532
1.000000 0.895316 0.640393
1.000000 0.895177 0.642328
0.218708 1.000000 0.656206
0.357319 1.000000 0.653066
0.495929 1.000000 0.649927
0.634540 1.000000 0.646787
0.773150 1.000000 0.643648
0.911761 1.000000 0.640508
1.000000 1.000000 0.641634
1.000000 1.000000 0.660484
1.000000 1.000000 0.679335
0.212545 1.000000 0.650042
0.351155 1.000000 0.646903
0.489766 1.000000 0.643763
0.628376 1.000000 0.640624
0.769857 1.000000 0.640941
0.926728 1.000000 0.659791
1.000000 1.000000 0.678641
1.000000 1.000000 0.697491
1.000000 1.000000 0.716341
0.206381 1.000000 0.643879
0.344992 1.000000 0.640739
0.485801 1.000000 0.640247
0.642671 1.000000 0.659097
0.799542 1.000000 0.677948
0.956412 1.000000 0.696798
1.000000 1.000000 0.715648
1.000000 1.000000 0.734498
1.000000 1.000000 0.753348
0.139874 0.172043 0.693770
0.296114 0.179074 0.712158
0.452353 0.186104 0.730547
0.608593 0.193134 0.748936
0.764832 0.200164 0.767325
0.921072 0.207194 0.785714
1.000000 0.214224 0.804102
1.000000 0.216186 0.811763
1.000000 0.213047 0.808624
0.168320 0.327595 0.729871
0.324560 0.334625 0.748260
0.480799 0.341655 0.766648
0.637039 0.348685 0.785037
0.793278 0.355715 0.803426
0.941381 0.358052 0.811879
1.000000 0.354912 0.808739
1.000000 0.351773 0.805600
1.000000 0.348633 0.802460
0.196766 0.483147 0.765972
0.353006 0.490177 0.784361
0.509245 0.497207 0.802749
0.657997 0.499917 0.811994
0.796607 0.496778 0.808855
0.935218 0.493638 0.805715
1.000000 0.490499 0.802576
1.000000 0.487359 0.799436
1.000000 0.484220 0.796297
0.225212 0.638698 0.802073
0.374612 0.641783 0.812110
0.513223 0.638643 0.808970
0.651833 0.635504 0.805831
0.790444 0.632364 0.802691
0.929054 0.629225 0.799552
1.000000 0.626085 0.796412
1.000000 0.622946 0.793273
1.000000 0.619806 0.790133
0.229838 0.780509 0.809086
0.368449 0.777369 0.805946
0.507059 0.774230 0.802807
0.645670 0.771090 0.799667
0.784280 0.767951 0.796528
0.922891 0.764811 0.793388
1.000000 0.761672 0.790249
1.000000 0.758532 0.787109
1.000000 0.755393 0.783970
0.223675 0.916095 0.802922
0.362285 0.912956 0.799783
0.500896 0.909816 0.796643
0.639506 0.906677 0.793504
0.778117 0.903537 0.790364
0.916727 0.900398 0.787225
1.000000 0.897258 0.784085
1.000000 0.894119 0.780946
1.000000 0.898939 0.791265
0.217511 1.000000 0.796759
0.356122 1.000000 0.793619
0.494732 1.000000 0.790480
0.633343 1.000000 0.787340
0.771953 1.000000 0.784201
0.910564 1.000000 0.781061
1.000000 1.000000 0.790571
1.000000 1.000000 0.809421
1.000000 1.000000 0.828272
0.211348 1.000000 0.790595
0.349958 1.000000 0.787456
0.488569 1.000000 0.784316
0.627179 1.000000 0.781177
0.775622 1.000000 0.789878
0.932493 1.000000 0.808728
1.000000 1.000000 0.827578
1.000000 1.000000 0.846428
1.000000 1.000000 0.865279
0.205184 1.000000 0.784432
0.343795 1.000000 0.781292
0.491566 1.000000 0.789184
0.648436 1.000000 0.808034
0.805307 1.000000 0.826885
0.962177 1.000000 0.845735
1.000000 1.000000 0.864585
1.000000 1.000000 0.883435
1.000000 1.000000 0.902285
0.145399 0.174724 0.842531
0.301638 0.181754 0.860920
0.457878 0.188784 0.879308
0.614117 0.195814 0.897697
0.770357 0.202844 0.916086
0.926596 0.209874 0.934475
1.000000 0.216904 0.952864
1.000000 0.214989 0.952316
1.000000 0.211850 0.949177
0.173845 0.330275 0.878632
0.330084 0.337305 0.897021
0.486324 0.344336 0.915409
0.642563 0.351366 0.933798
0.798803 0.358396 0.952187
0.940184 0.356855 0.952432
1.000000 0.353715 0.949292
1.000000 0.350576 0.946153
1.000000 0.347436 0.943013
0.202291 0.485827 0.914733
0.358530 0.492857 0.933122
0.514770 0.499887 0.951511
0.656800 0.498720 0.952547
0.795410 0.495581 0.949408
0.934021 0.492441 0.946268
1.000000 0.489302 0.943129
1.000000 0.486162 0.939989
1.000000 0.483023 0.936850
0.230737 0.641378 0.950834
0.373415 0.640586 0.952663
0.512026 0.637446 0.949523
0.650636 0.634307 0.946384
0.789247 0.631167 0.943244
0.927857 0.628028 0.940105
1.000000 0.624888 0.936965
1.000000 0.621749 0.933826
1.000000 0.618609 0.930686
0.228641 0.779312 0.949639
0.367252 0.776172 0.946499
0.505862 0.773033 0.943360
0.644473 0.769893 0.940220
0.783083 0.766754 0.937081
0.921694 0.763614 0.933941
1.000000 0.760475 0.930802
1.000000 0.757335 0.927662
1.000000 0.754196 0.924523
0.222478 0.914898 0.943475
0.361088 0.911759 0.940336
0.499699 0.908619 0.937196
0.638309 0.905480 0.934057
0.776920 0.902340 0.930917
0.915530 0.899201 0.927778
1.000000 0.896061 0.924638
1.000000 0.892922 0.921499
1.000000 0.902700 0.940202
0.216314 1.000000 0.937312
0.354925 1.000000 0.934172
0.493535 1.000000 0.931033
0.632146 1.000000 0.927893
0.770756 1.000000 0.924754
0.909367 1.000000 0.921614
1.000000 1.000000 0.939508
1.000000 1.000000 0.958358
1.000000 1.000000 0.977209
0.210151 1.000000 0.931148
0.348761 1.000000 0.928009
0.487372 1.000000 0.924869
0.625982 1.000000 0.921730
0.781387 1.000000 0.938815
0.938258 1.000000 0.957665
1.000000 1.000000 0.976515
1.000000 1.000000 0.995365
1.000000 1.000000 1.000000
0.203987 1.000000 0.924985
0.342598 1.000000 0.921845
0.497331 1.000000 0.938121
0.654201 1.000000 0.956971
0.811072 1.000000 0.975822
0.967942 1.000000 0.994672
1.000000 1.000000 1.000000
1.000000 1.000000 1.000000
1.000000 1.000000 1.000000
0.150923 0.177404 0.991292
0.307163 0.184434 1.000000
0.463402 0.191464 1.000000
0.619642 0.198494 1.000000
0.775881 0.205525 1.000000
0.932121 0.212555 1.000000
1.000000 0.216932 1.000000
1.000000 0.213792 1.000000
1.000000 0.210653 1.000000
0.179369 0.332956 1.000000
0.335609 0.339986 1.000000
0.491848 0.347016 1.000000
0.648088 0.354046 1.000000
0.800377 0.358797 1.000000
0.938987 0.355658 1.000000
1.000000 0.352518 1.000000
1.000000 0.349379 1.000000
1.000000 0.346239 1.000000
0.207815 0.488507 1.000000
0.364055 0.495537 1.000000
0.516992 0.500663 1.000000
0.655603 0.497523 1.000000
0.794213 0.494384 1.000000
0.932824 0.491244 1.000000
1.000000 0.488105 1.000000
1.000000 0.484965 1.000000
1.000000 0.481826 1.000000
0.233608 0.642528 1.000000
0.372218 0.639389 1.000000
0.510829 0.636249 1.000000
0.649439 0.633110 1.000000
0.788050 0.629970 1.000000
0.926660 0.626831 1.000000
1.000000 0.623691 1.000000
1.000000 0.620552 1.000000
1.000000 0.617412 1.000000
0.227444 0.778115 1.000000
0.366055 0.774975 1.000000
0.504665 0.771836 1.000000
0.643276 0.768696 1.000000
0.781886 0.765557 1.000000
0.920497 0.762417 1.000000
1.000000 0.759278 1.000000
1.000000 0.756138 1.000000
1.000000 0.752999 1.000000
0.221281 0.913701 1.000000
0.359891 0.910562 1.000000
0.498502 0.907422 1.000000
0.637112 0.904283 1.000000
0.775723 0.901143 1.000000
0.914333 0.898004 1.000000
1.000000 0.894864 1.000000
1.000000 0.896596 1.000000
1.000000 0.906461 1.000000
0.215117 1.000000 1.000000
0.353728 1.000000 1.000000
0.492338 1.000000 1.000000
0.630949 1.000000 1.000000
0.769559 1.000000 1.000000
0.914338 1.000000 1.000000
1.000000 1.000000 1.000000
1.000000 1.000000 1.000000
1.000000 1.000000 1.000000
0.208954 1.000000 1.000000
0.347564 1.000000 1.000000
0.486175 1.000000 1.000000
0.630282 1.000000 1.000000
0.787152 1.000000 1.000000
0.944023 1.000000 1.000000
1.000000 1.000000 1.000000
1.000000 1.000000 1.000000
1.000000 1.000000 1.000000
0.202790 1.000000 1.000000
0.346225 1.000000 1.000000
0.503096 1.000000 1.000000
0.659966 1.000000 1.000000
0.816837 1.000000 1.000000
0.973707 1.000000 1.000000
1.000000 1.000000 1.000000
1.000000 1.000000 1.000000
1.000000 1.000000 1.000000
0.156447 0.180085 1.000000
0.312687 0.187115 1.000000
0.468927 0.194145 1.000000
0.625166 0.201175 1.000000
0.781406 0.208205 1.000000
0.937645 0.215235 1.000000
1.000000 0.215735 1.000000
1.000000 0.212595 1.000000
1.000000 0.209456 1.000000
0.184894 0.335636 1.000000
0.341133 0.342666 1.000000
0.497373 0.349696 1.000000
0.653612 0.356726 1.000000
0.799180 0.357600 1.000000
0.937790 0.354461 1.000000
1.000000 0.351321 1.000000
1.000000 0.348182 1.000000
1.000000 0.345042 1.000000
0.213340 0.491188 1.000000
0.369579 0.498218 1.000000
0.515795 0.499466 1.000000
0.654406 0.496326 1.000000
0.793016 0.493187 1.000000
0.931627 0.490047 1.000000
1.000000 0.486908 1.000000
1.000000 0.483768 1.000000
1.000000 0.480629 1.000000
0.232411 0.641331 1.000000
0.371021 0.638192 1.000000
0.509632 0.635052 1.000000
0.648242 0.631913 1.000000
0.786853 0.628773 1.000000
0.925463 0.625634 1.000000
1.000000 0.622494 1.000000
1.000000 0.619355 1.000000
1.000000 0.616215 1.000000
0.226247 0.776918 1.000000
0.364858 0.773778 1.000000
0.503468 0.770639 1.000000
0.642079 0.767499 1.000000
0.780689 0.764360 1.000000
0.919300 0.761220 1.000000
1.000000 0.758081 1.000000
1.000000 0.754941 1.000000
1.000000 0.751802 1.000000
0.220084 0.912504 1.000000
0.358694 0.909365 1.000000
0.497305 0.906225 1.000000
0.635915 0.903086 1.000000
0.774526 0.899946 1.000000
0.913136 0.896807 1.000000
1.000000 0.893667 1.000000
1.000000 0.900357 1.000000
1.000000 0.910222 1.000000
0.213920 1.000000 1.000000
0.352531 1.000000 1.000000
0.491141 1.000000 1.000000
0.629752 1.000000 1.000000
0.768362 1.000000 1.000000
0.920103 1.000000 1.000000
1.000000 1.000000 1.000000
1.000000 1.000000 1.000000
1.000000 1.000000 1.000000
0.207757 1.000000 1.000000
0.346367 1.000000 1.000000
0.484978 1.000000 1.000000
0.636047 1.000000 1.000000
0.792917 1.000000 1.000000
0.949788 1.000000 1.000000
1.000000 1.000000 1.000000
1.000000 1.000000 1.000000
1.000000 1.000000 1.000000
0.201593 1.000000 1.000000
0.351990 1.000000 1.000000
0.508861 1.000000 1.000000
0.665731 1.000000 1.000000
0.822602 1.000000 1.000000
0.979472 1.000000 1.000000
1.000000 1.000000 1.000000
1.000000 1.000000 1.000000
1.000000 1.000000 1.000000
0.161972 0.182765 1.000000
0.318211 0.189795 1.000000
0.474451 0.196825 1.000000
0.630691 0.203855 1.000000
0.786930 0.210885 1.000000
0.942757 0.217677 1.000000
1.000000 0.214538 1.000000
1.000000 0.211398 1.000000
1.000000 0.208259 1.000000
0.190418 0.338316 1.000000
0.346657 0.345347 1.000000
0.502897 0.352377 1.000000
0.659137 0.359407 1.000000
0.797983 0.356403 1.000000
0.936593 0.353264 1.000000
1.000000 0.350124 1.000000
1.000000 0.346985 1.000000
1.000000 0.343845 1.000000
0.218864 0.493868 1.000000
0.375104 0.500898 1.000000
0.514598 0.498269 1.000000
0.653209 0.495129 1.000000
0.791819 0.491990 1.000000
0.930430 0.488850 1.000000
1.000000 0.485711 1.000000
1.000000 0.482571 1.000000
1.000000 0.479432 1.000000
0.231214 0.640134 1.000000
0.369824 0.636995 1.000000
0.508435 0.633855 1.000000
0.647045 0.630716 1.000000
0.785656 0.627576 1.000000
0.924266 0.624437 1.000000
1.000000 0.621297 1.000000
1.000000 0.618158 1.000000
1.000000 0.615018 1.000000
0.225050 0.775721 1.000000
0.363661 0.772581 1.000000
0.502271 0.769442 1.000000
0.640882 0.766302 1.000000
0.779492 0.763163 1.000000
0.918103 0.760023 1.000000
1.000000 0.756884 1.000000
1.000000 0.753744 1.000000
1.000000 0.752866 1.000000
0.218887 0.911307 1.000000
0.357497 0.908168 1.000000
0.496108 0.905028 1.000000
0.634718 0.901889 1.000000
0.773329 0.898749 1.000000
0.911939 0.895610 1.000000
1.000000 0.894254 1.000000
1.000000 0.904118 1.000000
1.000000 0.913983 1.000000
0.212723 1.000000 1.000000
0.351334 1.000000 1.000000
0.489944 1.000000 1.000000
0.628555 1.000000 1.000000
0.768998 1.000000 1.000000
0.925868 1.000000 1.000000
1.000000 1.000000 1.000000
1.000000 1.000000 1.000000
1.000000 1.000000 1.000000
0.206560 1.000000 1.000000
0.345170 1.000000 1.000000
0.484941 1.000000 1.000000
0.641812 1.000000 1.000000
0.798682 1.000000 1.000000
0.955553 1.000000 1.000000
1.000000 1.000000 1.000000
1.000000 1.000000 1.000000
1.000000 1.000000 1.000000
0.200885 1.000000 1.000000
0.357755 1.000000 1.000000
0.514626 1.000000 1.000000
0.671496 1.000000 1.000000
0.828367 1.000000 1.000000
0.985237 1.000000 1.000000
1.000000 1.000000 1.000000
1.000000 1.000000 1.000000
1.000000 1.000000 1.000000
