tools/fandomforge/assets/color_luts/leon-re4r-cutscenes.cube
TITLE "leon-re4r-cutscenes-RE4R"
LUT_3D_SIZE 17
0.000000 0.000000 0.030248
0.023897 0.000000 0.027065
0.088163 0.000000 0.023881
0.152428 0.000000 0.020698
0.216694 0.000000 0.017514
0.280959 0.000000 0.014331
0.345224 0.000000 0.011148
0.409490 0.000000 0.007964
0.473755 0.000000 0.004781
0.538020 0.000000 0.001597
0.602286 0.000000 0.000000
0.666551 0.000000 0.000000
0.730817 0.000000 0.000000
0.795082 0.000000 0.000000
0.859347 0.000000 0.000000
0.923613 0.000000 0.000000
0.987878 0.000000 0.000000
0.000000 0.035156 0.023998
0.026284 0.036372 0.020815
0.090549 0.037587 0.017632
0.154814 0.038802 0.014448
0.219080 0.040018 0.011265
0.283345 0.041233 0.008081
0.347610 0.042448 0.004898
0.411876 0.043664 0.001715
0.476141 0.044879 0.000000
0.540407 0.046095 0.000000
0.604672 0.047310 0.000000
0.668937 0.048525 0.000000
0.733203 0.049741 0.000000
0.797468 0.050956 0.000000
0.861733 0.052171 0.000000
0.925424 0.052812 0.000000
0.989057 0.053395 0.000000
0.000000 0.100592 0.017749
0.028670 0.101808 0.014565
0.092935 0.103023 0.011382
0.157200 0.104238 0.008198
0.221466 0.105454 0.005015
0.285731 0.106669 0.001832
0.349996 0.107884 0.000000
0.414262 0.109100 0.000000
0.478527 0.110315 0.000000
0.542793 0.111531 0.000000
0.607058 0.112746 0.000000
0.671323 0.113961 0.000000
0.735589 0.115177 0.000000
0.799302 0.115840 0.000000
0.862935 0.116423 0.000000
0.926568 0.117006 0.000000
0.990201 0.117589 0.000000
0.000000 0.166028 0.011499
0.031056 0.167244 0.008316
0.095321 0.168459 0.005132
0.159586 0.169674 0.001949
0.223852 0.170890 0.000000
0.288117 0.172105 0.000000
0.352382 0.173320 0.000000
0.416648 0.174536 0.000000
0.480913 0.175751 0.000000
0.545179 0.176967 0.000000
0.609444 0.178182 0.000000
0.673181 0.178869 0.000000
0.736814 0.179452 0.000000
0.800447 0.180035 0.000000
0.864080 0.180618 0.000000
0.927713 0.181201 0.000000
0.991346 0.181784 0.000000
0.000000 0.231464 0.005249
0.033442 0.232680 0.002066
0.097707 0.233895 0.000000
0.161972 0.235110 0.000000
0.226238 0.236326 0.000000
0.290503 0.237541 0.000000
0.354769 0.238757 0.000000
0.419034 0.239972 0.000000
0.483299 0.241187 0.000000
0.547059 0.241897 0.000000
0.610692 0.242480 0.000000
0.674325 0.243063 0.000000
0.737958 0.243646 0.000000
0.801591 0.244229 0.000000
0.865224 0.244812 0.000000
0.928857 0.245395 0.000000
0.992491 0.245979 0.000000
0.000000 0.296900 0.000000
0.035828 0.298116 0.000000
0.100093 0.299331 0.000000
0.164358 0.300546 0.000000
0.228624 0.301762 0.000000
0.292889 0.302977 0.000000
0.357155 0.304193 0.000000
0.420938 0.304926 0.000000
0.484571 0.305509 0.000000
0.548204 0.306092 0.000000
0.611837 0.306675 0.000000
0.675470 0.307258 0.000000
0.739103 0.307841 0.000000
0.802736 0.308424 0.000000
0.866369 0.309007 0.000000
0.930002 0.309590 0.000000
0.993635 0.310173 0.000000
0.000000 0.362336 0.000000
0.038214 0.363552 0.000000
0.102479 0.364767 0.000000
0.166744 0.365982 0.000000
0.231010 0.367198 0.000000
0.294816 0.367954 0.000000
0.358449 0.368537 0.000000
0.422082 0.369120 0.000000
0.485715 0.369703 0.000000
0.549348 0.370286 0.000000
0.612982 0.370870 0.000000
0.676615 0.371453 0.000000
0.740248 0.372036 0.000000
0.803881 0.372619 0.000000
0.867514 0.373202 0.000000
0.931147 0.373785 0.000000
0.994780 0.374368 0.000000
0.000000 0.427772 0.000000
0.040600 0.428988 0.000000
0.104865 0.430203 0.000000
0.168695 0.430983 0.000000
0.232328 0.431566 0.000000
0.295961 0.432149 0.000000
0.359594 0.432732 0.000000
0.423227 0.433315 0.000000
0.486860 0.433898 0.000000
0.550493 0.434481 0.000000
0.614126 0.435064 0.000000
0.677759 0.435647 0.000000
0.741392 0.436230 0.000000
0.805025 0.436813 0.000000
0.868658 0.437396 0.000000
0.932291 0.437979 0.000000
0.995924 0.438562 0.000000
0.000000 0.493208 0.000000
0.042573 0.494011 0.000000
0.106206 0.494594 0.000000
0.169839 0.495177 0.000000
0.233473 0.495761 0.000000
0.297106 0.496344 0.000000
0.360739 0.496927 0.000000
0.424372 0.497510 0.000000
0.488005 0.498093 0.000000
0.551638 0.498676 0.000000
0.615271 0.499259 0.000000
0.678904 0.499842 0.000000
0.742537 0.500425 0.000000
0.806170 0.501008 0.000000
0.869803 0.501591 0.000000
0.933436 0.502174 0.000000
0.997069 0.502757 0.000000
0.000000 0.557623 0.000000
0.043718 0.558206 0.000000
0.107351 0.558789 0.000000
0.170984 0.559372 0.000000
0.234617 0.559955 0.000000
0.298250 0.560538 0.000000
0.361883 0.561121 0.000000
0.425516 0.561704 0.000000
0.489149 0.562287 0.000000
0.552782 0.562870 0.000000
0.616415 0.563453 0.000000
0.680049 0.564037 0.000000
0.743682 0.564620 0.000000
0.807315 0.565203 0.000000
0.870948 0.565786 0.000000
0.934581 0.566369 0.000000
0.998214 0.566952 0.000000
0.000000 0.621818 0.000000
0.044863 0.622401 0.000000
0.108496 0.622984 0.000000
0.172129 0.623567 0.000000
0.235762 0.624150 0.000000
0.299395 0.624733 0.000000
0.363028 0.625316 0.000000
0.426661 0.625899 0.000000
0.490294 0.626482 0.000000
0.553927 0.627065 0.000000
0.617560 0.627648 0.000000
0.681193 0.628231 0.000000
0.744826 0.628814 0.000000
0.808459 0.629397 0.000000
0.872092 0.629980 0.000000
0.935725 0.630563 0.000000
0.999358 0.631146 0.000000
0.000000 0.686012 0.000000
0.046007 0.686595 0.000000
0.109640 0.687178 0.000000
0.173273 0.687761 0.000000
0.236906 0.688344 0.000000
0.300540 0.688928 0.000000
0.364173 0.689511 0.000000
0.427806 0.690094 0.000000
0.491439 0.690677 0.000000
0.555072 0.691260 0.000000
0.618705 0.691843 0.000000
0.682338 0.692426 0.000000
0.745971 0.693009 0.000000
0.809604 0.693592 0.000000
0.873237 0.694175 0.000000
0.936870 0.694758 0.000000
1.000000 0.695430 0.000000
0.000000 0.750207 0.000000
0.047152 0.750790 0.000000
0.110785 0.751373 0.000000
0.174418 0.751956 0.000000
0.238051 0.752539 0.000000
0.301684 0.753122 0.000000
0.365317 0.753705 0.000000
0.428950 0.754288 0.000000
0.492583 0.754871 0.000000
0.556216 0.755454 0.000000
0.619849 0.756037 0.000000
0.683482 0.756620 0.000000
0.747116 0.757204 0.000000
0.810749 0.757787 0.000000
0.874573 0.758435 0.000000
0.940113 0.759669 0.000000
1.000000 0.760902 0.000000
0.000000 0.814402 0.000000
0.048297 0.814985 0.000000
0.111930 0.815568 0.000000
0.175563 0.816151 0.000000
0.239196 0.816734 0.000000
0.302829 0.817317 0.000000
0.366462 0.817900 0.000000
0.430095 0.818483 0.000000
0.493728 0.819066 0.000000
0.557361 0.819649 0.000000
0.620994 0.820232 0.000000
0.684627 0.820815 0.000000
0.748381 0.821440 0.000000
0.813922 0.822673 0.000000
0.879462 0.823907 0.000000
0.945003 0.825140 0.000000
1.000000 0.826374 0.000000
0.000000 0.878596 0.000000
0.049441 0.879179 0.000000
0.113074 0.879762 0.000000
0.176707 0.880345 0.000000
0.240340 0.880928 0.000000
0.303973 0.881511 0.000000
0.367607 0.882095 0.000000
0.431240 0.882678 0.000000
0.494873 0.883261 0.000000
0.558506 0.883844 0.000000
0.622190 0.884444 0.000000
0.687730 0.885678 0.000000
0.753271 0.886911 0.000000
0.818811 0.888145 0.000000
0.884352 0.889379 0.000000
0.949892 0.890612 0.000000
1.000000 0.891846 0.000000
0.000000 0.942791 0.000000
0.050586 0.943374 0.000000
0.114219 0.943957 0.000000
0.177852 0.944540 0.000000
0.241485 0.945123 0.000000
0.305118 0.945706 0.000000
0.368751 0.946289 0.000000
0.432384 0.946872 0.000000
0.496017 0.947455 0.000000
0.561539 0.948682 0.000000
0.627079 0.949916 0.000000
0.692619 0.951150 0.000000
0.758160 0.952383 0.000000
0.823700 0.953617 0.000000
0.889241 0.954851 0.000000
0.954781 0.956084 0.000000
1.000000 0.957318 0.000000
0.000000 1.000000 0.000000
0.051731 1.000000 0.000000
0.115364 1.000000 0.000000
0.178997 1.000000 0.000000
0.242630 1.000000 0.000000
0.306263 1.000000 0.000000
0.369896 1.000000 0.000000
0.435347 1.000000 0.000000
0.500887 1.000000 0.000000
0.566428 1.000000 0.000000
0.631968 1.000000 0.000000
0.697509 1.000000 0.000000
0.763049 1.000000 0.000000
0.828590 1.000000 0.000000
0.894130 1.000000 0.000000
0.959670 1.000000 0.000000
1.000000 1.000000 0.000000
0.000000 0.000000 0.092084
0.024361 0.000000 0.088901
0.088626 0.000000 0.085718
0.152892 0.000000 0.082534
0.217157 0.000000 0.079351
0.281422 0.000000 0.076167
0.345688 0.000000 0.072984
0.409953 0.000000 0.069800
0.474219 0.000000 0.066617
0.538484 0.000000 0.063434
0.602749 0.000000 0.060250
0.667015 0.000000 0.057067
0.731280 0.000000 0.053883
0.795545 0.000000 0.050700
0.859811 0.000000 0.047517
0.924076 0.000000 0.044333
0.988134 0.000000 0.042384
0.000000 0.035620 0.085835
0.026747 0.036835 0.082651
0.091012 0.038050 0.079468
0.155278 0.039266 0.076284
0.219543 0.040481 0.073101
0.283808 0.041696 0.069918
0.348074 0.042912 0.066734
0.412339 0.044127 0.063551
0.476605 0.045343 0.060367
0.540870 0.046558 0.057184
0.605135 0.047773 0.054001
0.669401 0.048989 0.050817
0.733666 0.050204 0.047634
0.797931 0.051419 0.044450
0.862013 0.052451 0.042363
0.925646 0.053034 0.042946
0.989279 0.053617 0.043529
0.000000 0.101056 0.079585
0.029133 0.102271 0.076402
0.093398 0.103486 0.073218
0.157664 0.104702 0.070035
0.221929 0.105917 0.066851
0.286194 0.107132 0.063668
0.350460 0.108348 0.060484
0.414725 0.109563 0.057301
0.478991 0.110779 0.054118
0.543256 0.111994 0.050934
0.607521 0.113209 0.047751
0.671787 0.114425 0.044567
0.735891 0.115479 0.042341
0.799524 0.116062 0.042924
0.863157 0.116645 0.043507
0.926790 0.117228 0.044090
0.990424 0.117812 0.044674
0.000000 0.166492 0.073335
0.031519 0.167707 0.070152
0.095784 0.168922 0.066968
0.160050 0.170138 0.063785
0.224315 0.171353 0.060602
0.288580 0.172568 0.057418
0.352846 0.173784 0.054235
0.417111 0.174999 0.051051
0.481377 0.176215 0.047868
0.545642 0.177430 0.044685
0.609770 0.178508 0.042320
0.673403 0.179091 0.042903
0.737036 0.179674 0.043486
0.800669 0.180257 0.044069
0.864302 0.180840 0.044652
0.927935 0.181423 0.045235
0.991568 0.182006 0.045818
0.000000 0.231928 0.067086
0.033905 0.233143 0.063902
0.098170 0.234358 0.060719
0.162436 0.235574 0.057535
0.226701 0.236789 0.054352
0.290967 0.238005 0.051168
0.355232 0.239220 0.047985
0.419497 0.240435 0.044802
0.483648 0.241536 0.042298
0.547281 0.242119 0.042881
0.610915 0.242703 0.043465
0.674548 0.243286 0.044048
0.738181 0.243869 0.044631
0.801814 0.244452 0.045214
0.865447 0.245035 0.045797
0.929080 0.245618 0.046380
0.992713 0.246201 0.046963
0.000000 0.297364 0.060836
0.036291 0.298579 0.057652
0.100556 0.299794 0.054469
0.164822 0.301010 0.051286
0.229087 0.302225 0.048102
0.293353 0.303441 0.044919
0.357527 0.304565 0.042277
0.421160 0.305148 0.042860
0.484793 0.305731 0.043443
0.548426 0.306314 0.044026
0.612059 0.306897 0.044609
0.675692 0.307480 0.045192
0.739325 0.308063 0.045775
0.802958 0.308646 0.046358
0.866591 0.309229 0.046941
0.930224 0.309812 0.047524
0.993857 0.310395 0.048107
0.000000 0.362800 0.054586
0.038677 0.364015 0.051403
0.102942 0.365230 0.048219
0.167208 0.366446 0.045036
0.231406 0.367594 0.042256
0.295039 0.368177 0.042839
0.358672 0.368760 0.043422
0.422305 0.369343 0.044005
0.485938 0.369926 0.044588
0.549571 0.370509 0.045171
0.613204 0.371092 0.045754
0.676837 0.371675 0.046337
0.740470 0.372258 0.046920
0.804103 0.372841 0.047503
0.867736 0.373424 0.048086
0.931369 0.374007 0.048669
0.995002 0.374590 0.049252
0.000000 0.428236 0.048336
0.041063 0.429451 0.045153
0.105284 0.430622 0.042234
0.168917 0.431205 0.042817
0.232550 0.431788 0.043400
0.296183 0.432371 0.043983
0.359816 0.432954 0.044566
0.423449 0.433537 0.045149
0.487082 0.434120 0.045732
0.550715 0.434703 0.046315
0.614348 0.435286 0.046898
0.677982 0.435870 0.047482
0.741615 0.436453 0.048065
0.805248 0.437036 0.048648
0.868881 0.437619 0.049231
0.932514 0.438202 0.049814
0.996147 0.438785 0.050397
0.000000 0.493651 0.042213
0.042796 0.494234 0.042796
0.106429 0.494817 0.043379
0.170062 0.495400 0.043962
0.233695 0.495983 0.044545
0.297328 0.496566 0.045128
0.360961 0.497149 0.045711
0.424594 0.497732 0.046294
0.488227 0.498315 0.046877
0.551860 0.498898 0.047460
0.615493 0.499481 0.048043
0.679126 0.500064 0.048626
0.742759 0.500647 0.049209
0.806392 0.501230 0.049792
0.870025 0.501813 0.050375
0.933658 0.502396 0.050958
0.997291 0.502979 0.051541
0.000000 0.557845 0.043357
0.043940 0.558428 0.043940
0.107573 0.559011 0.044523
0.171206 0.559594 0.045106
0.234839 0.560177 0.045689
0.298473 0.560761 0.046273
0.362106 0.561344 0.046856
0.425739 0.561927 0.047439
0.489372 0.562510 0.048022
0.553005 0.563093 0.048605
0.616638 0.563676 0.049188
0.680271 0.564259 0.049771
0.743904 0.564842 0.050354
0.807537 0.565425 0.050937
0.871170 0.566008 0.051520
0.934803 0.566591 0.052103
0.998436 0.567174 0.052686
0.000000 0.622040 0.044502
0.045085 0.622623 0.045085
0.108718 0.623206 0.045668
0.172351 0.623789 0.046251
0.235984 0.624372 0.046834
0.299617 0.624955 0.047417
0.363250 0.625538 0.048000
0.426883 0.626121 0.048583
0.490516 0.626704 0.049166
0.554149 0.627287 0.049749
0.617782 0.627870 0.050332
0.681415 0.628453 0.050915
0.745049 0.629037 0.051499
0.808682 0.629620 0.052082
0.872315 0.630203 0.052665
0.935948 0.630786 0.053248
0.999581 0.631369 0.053831
0.000000 0.686235 0.045647
0.046230 0.686818 0.046230
0.109863 0.687401 0.046813
0.173496 0.687984 0.047396
0.237129 0.688567 0.047979
0.300762 0.689150 0.048562
0.364395 0.689733 0.049145
0.428028 0.690316 0.049728
0.491661 0.690899 0.050311
0.555294 0.691482 0.050894
0.618927 0.692065 0.051477
0.682560 0.692648 0.052060
0.746193 0.693231 0.052643
0.809826 0.693814 0.053226
0.873459 0.694397 0.053809
0.937092 0.694980 0.054392
1.000000 0.695901 0.054010
0.000000 0.750429 0.046791
0.047374 0.751012 0.047374
0.111007 0.751595 0.047957
0.174640 0.752178 0.048540
0.238273 0.752761 0.049123
0.301906 0.753344 0.049706
0.365540 0.753928 0.050290
0.429173 0.754511 0.050873
0.492806 0.755094 0.051456
0.556439 0.755677 0.052039
0.620072 0.756260 0.052622
0.683705 0.756843 0.053205
0.747338 0.757426 0.053788
0.810971 0.758009 0.054371
0.875523 0.758905 0.054057
0.941063 0.760139 0.052777
1.000000 0.761373 0.051497
0.000000 0.814624 0.047936
0.048519 0.815207 0.048519
0.112152 0.815790 0.049102
0.175785 0.816373 0.049685
0.239418 0.816956 0.050268
0.303051 0.817539 0.050851
0.366684 0.818122 0.051434
0.430317 0.818705 0.052017
0.493950 0.819288 0.052600
0.557583 0.819871 0.053183
0.621216 0.820454 0.053766
0.684849 0.821037 0.054349
0.749331 0.821910 0.054104
0.814871 0.823144 0.052824
0.880412 0.824377 0.051544
0.945952 0.825611 0.050264
1.000000 0.826844 0.048984
0.000000 0.878819 0.049081
0.049664 0.879402 0.049664
0.113297 0.879985 0.050247
0.176930 0.880568 0.050830
0.240563 0.881151 0.051413
0.304196 0.881734 0.051996
0.367829 0.882317 0.052579
0.431462 0.882900 0.053162
0.495095 0.883483 0.053745
0.558728 0.884066 0.054328
0.623139 0.884915 0.054151
0.688680 0.886148 0.052871
0.754220 0.887382 0.051591
0.819761 0.888615 0.050311
0.885301 0.889849 0.049031
0.950842 0.891083 0.047751
1.000000 0.892316 0.046471
0.000000 0.943013 0.050225
0.050808 0.943596 0.050808
0.114441 0.944179 0.051391
0.178074 0.944762 0.051974
0.241707 0.945345 0.052557
0.305340 0.945928 0.053140
0.368973 0.946511 0.053723
0.432607 0.947095 0.054307
0.496948 0.947919 0.054198
0.562488 0.949153 0.052918
0.628029 0.950386 0.051638
0.693569 0.951620 0.050358
0.759109 0.952854 0.049078
0.824650 0.954087 0.047798
0.890190 0.955321 0.046518
0.955731 0.956555 0.045238
1.000000 0.957788 0.043958
0.000000 1.000000 0.051370
0.051953 1.000000 0.051953
0.115586 1.000000 0.052536
0.179219 1.000000 0.053119
0.242852 1.000000 0.053702
0.306485 1.000000 0.054285
0.370756 1.000000 0.054245
0.436297 1.000000 0.052965
0.501837 1.000000 0.051685
0.567377 1.000000 0.050405
0.632918 1.000000 0.049125
0.698458 1.000000 0.047845
0.763999 1.000000 0.046565
0.829539 1.000000 0.045285
0.895080 1.000000 0.044005
0.960620 1.000000 0.042726
1.000000 1.000000 0.041446
0.000000 0.000000 0.153921
0.024824 0.000000 0.150737
0.089090 0.000000 0.147554
0.153355 0.000000 0.144370
0.217620 0.000000 0.141187
0.281886 0.000000 0.138004
0.346151 0.000000 0.134820
0.410417 0.000000 0.131637
0.474682 0.000000 0.128453
0.538947 0.000000 0.125270
0.603213 0.000000 0.122086
0.667478 0.000000 0.118903
0.731743 0.000000 0.115720
0.796009 0.000000 0.112536
0.860274 0.000000 0.109353
0.924540 0.000000 0.106169
0.988357 0.000000 0.105657
0.000000 0.036083 0.147671
0.027210 0.037298 0.144488
0.091476 0.038514 0.141304
0.155741 0.039729 0.138121
0.220006 0.040944 0.134937
0.284272 0.042160 0.131754
0.348537 0.043375 0.128570
0.412803 0.044591 0.125387
0.477068 0.045806 0.122204
0.541333 0.047021 0.119020
0.605599 0.048237 0.115837
0.669864 0.049452 0.112653
0.734129 0.050667 0.109470
0.798395 0.051883 0.106287
0.862235 0.052673 0.105635
0.925868 0.053256 0.106218
0.989501 0.053839 0.106801
0.000000 0.101519 0.141421
0.029596 0.102734 0.138238
0.093862 0.103950 0.135054
0.158127 0.105165 0.131871
0.222392 0.106380 0.128688
0.286658 0.107596 0.125504
0.350923 0.108811 0.122321
0.415189 0.110027 0.119137
0.479454 0.111242 0.115954
0.543719 0.112457 0.112770
0.607985 0.113673 0.109587
0.672250 0.114888 0.106404
0.736114 0.115702 0.105614
0.799747 0.116285 0.106197
0.863380 0.116868 0.106780
0.927013 0.117451 0.107363
0.990646 0.118034 0.107946
0.000000 0.166955 0.135171
0.031982 0.168170 0.131988
0.096248 0.169386 0.128805
0.160513 0.170601 0.125621
0.224778 0.171816 0.122438
0.289044 0.173032 0.119254
0.353309 0.174247 0.116071
0.417575 0.175463 0.112888
0.481840 0.176678 0.109704
0.546105 0.177893 0.106521
0.609992 0.178730 0.105592
0.673625 0.179313 0.106175
0.737258 0.179896 0.106758
0.800891 0.180479 0.107341
0.864524 0.181062 0.107924
0.928157 0.181645 0.108507
0.991790 0.182228 0.109090
0.000000 0.232391 0.128922
0.034368 0.233606 0.125738
0.098634 0.234822 0.122555
0.162899 0.236037 0.119372
0.227165 0.237253 0.116188
0.291430 0.238468 0.113005
0.355695 0.239683 0.109821
0.419961 0.240899 0.106638
0.483871 0.241759 0.105571
0.547504 0.242342 0.106154
0.611137 0.242925 0.106737
0.674770 0.243508 0.107320
0.738403 0.244091 0.107903
0.802036 0.244674 0.108486
0.865669 0.245257 0.109069
0.929302 0.245840 0.109652
0.992935 0.246423 0.110235
0.000000 0.297827 0.122672
0.036754 0.299042 0.119489
0.101020 0.300258 0.116305
0.165285 0.301473 0.113122
0.229551 0.302689 0.109938
0.293816 0.303904 0.106755
0.357749 0.304787 0.105549
0.421382 0.305370 0.106132
0.485015 0.305953 0.106715
0.548648 0.306536 0.107298
0.612281 0.307119 0.107881
0.675915 0.307703 0.108465
0.739548 0.308286 0.109048
0.803181 0.308869 0.109631
0.866814 0.309452 0.110214
0.930447 0.310035 0.110797
0.994080 0.310618 0.111380
0.000000 0.363263 0.116422
0.039140 0.364478 0.113239
0.103406 0.365694 0.110056
0.167671 0.366909 0.106872
0.231628 0.367816 0.105528
0.295261 0.368399 0.106111
0.358894 0.368982 0.106694
0.422527 0.369565 0.107277
0.486160 0.370148 0.107860
0.549793 0.370731 0.108443
0.613426 0.371314 0.109026
0.677059 0.371897 0.109609
0.740692 0.372480 0.110192
0.804325 0.373063 0.110775
0.867958 0.373646 0.111358
0.931591 0.374229 0.111941
0.995224 0.374812 0.112524
0.000000 0.428699 0.110173
0.041527 0.429915 0.106989
0.105506 0.430844 0.105506
0.169139 0.431427 0.106089
0.232772 0.432010 0.106672
0.296406 0.432594 0.107256
0.360039 0.433177 0.107839
0.423672 0.433760 0.108422
0.487305 0.434343 0.109005
0.550938 0.434926 0.109588
0.614571 0.435509 0.110171
0.678204 0.436092 0.110754
0.741837 0.436675 0.111337
0.805470 0.437258 0.111920
0.869103 0.437841 0.112503
0.932736 0.438424 0.113086
0.996369 0.439007 0.113669
0.000000 0.493873 0.105485
0.043018 0.494456 0.106068
0.106651 0.495039 0.106651
0.170284 0.495622 0.107234
0.233917 0.496205 0.107817
0.297550 0.496788 0.108400
0.361183 0.497371 0.108983
0.424816 0.497954 0.109566
0.488449 0.498537 0.110149
0.552082 0.499120 0.110732
0.615715 0.499703 0.111315
0.679348 0.500286 0.111898
0.742982 0.500870 0.112482
0.806615 0.501453 0.113065
0.870248 0.502036 0.113648
0.933881 0.502619 0.114231
0.997514 0.503202 0.114814
0.000000 0.558068 0.106630
0.044163 0.558651 0.107213
0.107796 0.559234 0.107796
0.171429 0.559817 0.108379
0.235062 0.560400 0.108962
0.298695 0.560983 0.109545
0.362328 0.561566 0.110128
0.425961 0.562149 0.110711
0.489594 0.562732 0.111294
0.553227 0.563315 0.111877
0.616860 0.563898 0.112460
0.680493 0.564481 0.113043
0.744126 0.565064 0.113626
0.807759 0.565647 0.114209
0.871392 0.566230 0.114792
0.935025 0.566813 0.115375
0.998658 0.567396 0.115958
0.000000 0.622262 0.107774
0.045307 0.622845 0.108357
0.108940 0.623428 0.108940
0.172573 0.624011 0.109523
0.236206 0.624594 0.110106
0.299839 0.625177 0.110689
0.363473 0.625761 0.111273
0.427106 0.626344 0.111856
0.490739 0.626927 0.112439
0.554372 0.627510 0.113022
0.618005 0.628093 0.113605
0.681638 0.628676 0.114188
0.745271 0.629259 0.114771
0.808904 0.629842 0.115354
0.872537 0.630425 0.115937
0.936170 0.631008 0.116520
0.999803 0.631591 0.117103
0.000000 0.686457 0.108919
0.046452 0.687040 0.109502
0.110085 0.687623 0.110085
0.173718 0.688206 0.110668
0.237351 0.688789 0.111251
0.300984 0.689372 0.111834
0.364617 0.689955 0.112417
0.428250 0.690538 0.113000
0.491883 0.691121 0.113583
0.555516 0.691704 0.114166
0.619149 0.692287 0.114749
0.682782 0.692870 0.115332
0.746415 0.693453 0.115915
0.810049 0.694037 0.116499
0.873682 0.694620 0.117082
0.937315 0.695203 0.117665
1.000000 0.696371 0.116572
0.000000 0.750652 0.110064
0.047597 0.751235 0.110647
0.111230 0.751818 0.111230
0.174863 0.752401 0.111813
0.238496 0.752984 0.112396
0.302129 0.753567 0.112979
0.365762 0.754150 0.113562
0.429395 0.754733 0.114145
0.493028 0.755316 0.114728
0.556661 0.755899 0.115311
0.620294 0.756482 0.115894
0.683927 0.757065 0.116477
0.747560 0.757648 0.117060
0.811193 0.758231 0.117643
0.876472 0.759376 0.116619
0.942013 0.760609 0.115339
1.000000 0.761843 0.114059
0.000000 0.814846 0.111208
0.048741 0.815429 0.111791
0.112374 0.816012 0.112374
0.176007 0.816595 0.112957
0.239640 0.817178 0.113540
0.303273 0.817761 0.114123
0.366906 0.818344 0.114706
0.430540 0.818928 0.115290
0.494173 0.819511 0.115873
0.557806 0.820094 0.116456
0.621439 0.820677 0.117039
0.685072 0.821260 0.117622
0.750280 0.822380 0.116666
0.815821 0.823614 0.115386
0.881361 0.824848 0.114106
0.946902 0.826081 0.112826
1.000000 0.827315 0.111546
0.000000 0.879041 0.112353
0.049886 0.879624 0.112936
0.113519 0.880207 0.113519
0.177152 0.880790 0.114102
0.240785 0.881373 0.114685
0.304418 0.881956 0.115268
0.368051 0.882539 0.115851
0.431684 0.883122 0.116434
0.495317 0.883705 0.117017
0.558950 0.884288 0.117600
0.624089 0.885385 0.116713
0.689629 0.886618 0.115433
0.755170 0.887852 0.114153
0.820710 0.889086 0.112873
0.886251 0.890319 0.111593
0.951791 0.891553 0.110313
1.000000 0.892787 0.109033
0.000000 0.943235 0.113497
0.051031 0.943819 0.114081
0.114664 0.944402 0.114664
0.178297 0.944985 0.115247
0.241930 0.945568 0.115830
0.305563 0.946151 0.116413
0.369196 0.946734 0.116996
0.432829 0.947317 0.117579
0.497897 0.948389 0.116760
0.563438 0.949623 0.115480
0.628978 0.950857 0.114200
0.694519 0.952090 0.112920
0.760059 0.953324 0.111640
0.825599 0.954558 0.110360
0.891140 0.955791 0.109080
0.956680 0.957025 0.107800
1.000000 0.958259 0.106520
0.000000 1.000000 0.114642
0.052175 1.000000 0.115225
0.115808 1.000000 0.115808
0.179441 1.000000 0.116391
0.243074 1.000000 0.116974
0.306707 1.000000 0.117557
0.371706 1.000000 0.116807
0.437246 1.000000 0.115527
0.502786 1.000000 0.114247
0.568327 1.000000 0.112967
0.633867 1.000000 0.111687
0.699408 1.000000 0.110407
0.764948 1.000000 0.109127
0.830489 1.000000 0.107847
0.896029 1.000000 0.106567
0.961570 1.000000 0.105288
1.000000 1.000000 0.104008
0.000000 0.000000 0.215757
0.025288 0.000000 0.212573
0.089553 0.000000 0.209390
0.153818 0.000000 0.206207
0.218084 0.000000 0.203023
0.282349 0.000000 0.199840
0.346615 0.000000 0.196656
0.410880 0.000000 0.193473
0.475145 0.000000 0.190290
0.539411 0.000000 0.187106
0.603676 0.000000 0.183923
0.667941 0.000000 0.180739
0.732207 0.000000 0.177556
0.796472 0.000000 0.174373
0.860738 0.000000 0.171189
0.924946 0.000000 0.168346
0.988579 0.000000 0.168929
0.000000 0.036546 0.209507
0.027674 0.037762 0.206324
0.091939 0.038977 0.203140
