tools/fandomforge/assets/color_luts/leon-vendetta.cube
TITLE "leon-vendetta-Vendetta"
LUT_3D_SIZE 9
0.000000 0.000000 0.003930
0.057628 0.000000 0.004735
0.183405 0.000000 0.005540
0.309183 0.000000 0.006346
0.434961 0.000000 0.007151
0.560738 0.002193 0.007956
0.686516 0.010856 0.008761
0.812293 0.019518 0.009566
0.938071 0.028181 0.010371
0.000000 0.088512 0.005511
0.083449 0.097174 0.006316
0.209227 0.105837 0.007121
0.335004 0.114500 0.007926
0.460782 0.123162 0.008731
0.586559 0.131825 0.009537
0.712337 0.140487 0.010342
0.831363 0.146603 0.015958
0.949931 0.152546 0.021901
0.000000 0.218143 0.007091
0.109270 0.226806 0.007897
0.235048 0.235468 0.008702
0.360826 0.244131 0.009507
0.486603 0.252794 0.010312
0.605894 0.259009 0.015739
0.724462 0.264952 0.021682
0.843030 0.270895 0.027625
0.961597 0.276837 0.033567
0.009314 0.347775 0.008672
0.135092 0.356437 0.009477
0.260869 0.365100 0.010282
0.380426 0.371416 0.015521
0.498993 0.377358 0.021463
0.617561 0.383301 0.027406
0.736129 0.389244 0.033349
0.854696 0.395186 0.039291
0.973264 0.401129 0.045234
0.035135 0.477406 0.010253
0.154957 0.483822 0.015302
0.273525 0.489765 0.021245
0.392092 0.495707 0.027187
0.510660 0.501650 0.033130
0.629228 0.507593 0.039073
0.747795 0.513535 0.045015
0.866363 0.519478 0.050958
0.984930 0.525420 0.056900
0.048056 0.602171 0.021026
0.166624 0.608114 0.026969
0.285191 0.614056 0.032911
0.403759 0.619999 0.038854
0.522327 0.625942 0.044797
0.640894 0.631884 0.050739
0.759462 0.637827 0.056682
0.878029 0.643769 0.062624
0.996597 0.649712 0.068567
0.059723 0.726463 0.032693
0.178290 0.732405 0.038635
0.296858 0.738348 0.044578
0.415426 0.744291 0.050521
0.533993 0.750233 0.056463
0.652561 0.756176 0.062406
0.771128 0.762118 0.068348
0.889818 0.768127 0.074188
1.000000 0.775382 0.078075
0.071389 0.850754 0.044359
0.189957 0.856697 0.050302
0.308525 0.862640 0.056245
0.427092 0.868582 0.062187
0.545660 0.874525 0.068130
0.664260 0.880485 0.074045
0.785262 0.887740 0.077932
0.906264 0.894994 0.081819
1.000000 0.902249 0.085707
0.083056 0.975046 0.056026
0.201624 0.980989 0.061969
0.320191 0.986931 0.067911
0.438759 0.992874 0.073854
0.559704 1.000000 0.077789
0.680706 1.000000 0.081676
0.801708 1.000000 0.085563
0.922711 1.000000 0.089451
1.000000 1.000000 0.093338
0.000000 0.000000 0.116862
0.062642 0.000000 0.117667
0.188420 0.000000 0.118472
0.314198 0.000000 0.119278
0.439975 0.000000 0.120083
0.565753 0.005496 0.120888
0.691530 0.014159 0.121693
0.817308 0.022821 0.122498
0.940530 0.030520 0.125125
0.000000 0.091814 0.118443
0.088464 0.100477 0.119248
0.214241 0.109140 0.120053
0.340019 0.117802 0.120858
0.465797 0.126465 0.121663
0.591574 0.135128 0.122469
0.715061 0.142926 0.124906
0.833629 0.148869 0.130849
0.952196 0.154811 0.136791
0.000000 0.221446 0.120023
0.114285 0.230109 0.120829
0.240063 0.238771 0.121634
0.365840 0.247434 0.122439
0.489592 0.255332 0.124687
0.608160 0.261275 0.130630
0.726728 0.267218 0.136573
0.845295 0.273160 0.142515
0.963863 0.279103 0.148458
0.014329 0.351078 0.121604
0.140106 0.359740 0.122409
0.264124 0.367739 0.124469
0.382691 0.373681 0.130411
0.501259 0.379624 0.136354
0.619827 0.385567 0.142297
0.738394 0.391509 0.148239
0.856962 0.397452 0.154182
0.975530 0.403395 0.160125
0.038655 0.480145 0.124250
0.157223 0.486088 0.130193
0.275790 0.492030 0.136135
0.394358 0.497973 0.142078
0.512926 0.503916 0.148021
0.631493 0.509858 0.153963
0.750061 0.515801 0.159906
0.868629 0.521744 0.165849
0.987196 0.527686 0.171791
0.050322 0.604437 0.135917
0.168889 0.610379 0.141859
0.287457 0.616322 0.147802
0.406025 0.622265 0.153745
0.524592 0.628207 0.159687
0.643160 0.634150 0.165630
0.761728 0.640093 0.171573
0.880295 0.646035 0.177515
0.998863 0.651978 0.183458
0.061988 0.728728 0.147583
0.180556 0.734671 0.153526
0.299124 0.740614 0.159469
0.417691 0.746556 0.165411
0.536259 0.752499 0.171354
0.654827 0.758442 0.177297
0.773394 0.764384 0.183239
0.893012 0.770893 0.188295
1.000000 0.778148 0.192182
0.073655 0.853020 0.159250
0.192223 0.858963 0.165193
0.310790 0.864905 0.171135
0.429358 0.870848 0.177078
0.547926 0.876791 0.183021
0.667454 0.883251 0.188152
0.788456 0.890506 0.192039
0.909458 0.897760 0.195926
1.000000 0.905015 0.199814
0.085322 0.977312 0.170917
0.203889 0.983254 0.176859
0.322457 0.989197 0.182802
0.441896 0.995609 0.188009
0.562898 1.000000 0.191896
0.683900 1.000000 0.195783
0.804902 1.000000 0.199671
0.925904 1.000000 0.203558
1.000000 1.000000 0.207445
0.000000 0.000000 0.229794
0.067657 0.000000 0.230599
0.193435 0.000000 0.231404
0.319212 0.000000 0.232210
0.444990 0.000136 0.233015
0.570768 0.008799 0.233820
0.696545 0.017461 0.234625
0.822323 0.026124 0.235430
0.942795 0.032785 0.240015
0.000000 0.095117 0.231375
0.093478 0.103780 0.232180
0.219256 0.112443 0.232985
0.345034 0.121105 0.233790
0.470811 0.129768 0.234595
0.596589 0.138430 0.235401
0.717327 0.145192 0.239797
0.835894 0.151134 0.245739
0.954462 0.157077 0.251682
0.000000 0.224749 0.232955
0.119300 0.233411 0.233761
0.245077 0.242074 0.234566
0.370855 0.250737 0.235371
0.491858 0.257598 0.239578
0.610426 0.263541 0.245521
0.728993 0.269483 0.251463
0.847561 0.275426 0.257406
0.966129 0.281369 0.263349
0.019344 0.354380 0.234536
0.145121 0.363043 0.235341
0.266390 0.370005 0.239360
0.384957 0.375947 0.245302
0.503525 0.381890 0.251245
0.622092 0.387832 0.257187
0.740660 0.393775 0.263130
0.859228 0.399718 0.269073
0.977795 0.405660 0.275015
0.040921 0.482411 0.239141
0.159489 0.488354 0.245084
0.278056 0.494296 0.251026
0.396624 0.500239 0.256969
0.515191 0.506181 0.262911
0.633759 0.512124 0.268854
0.752327 0.518067 0.274797
0.870894 0.524009 0.280739
0.989462 0.529952 0.286682
0.052588 0.606703 0.250808
0.171155 0.612645 0.256750
0.289723 0.618588 0.262693
0.408290 0.624530 0.268635
0.526858 0.630473 0.274578
0.645426 0.636416 0.280521
0.763993 0.642358 0.286463
0.882561 0.648301 0.292406
1.000000 0.654244 0.298349
0.064254 0.730994 0.262474
0.182822 0.736937 0.268417
0.301389 0.742879 0.274359
0.419957 0.748822 0.280302
0.538525 0.754765 0.286245
0.657092 0.760707 0.292187
0.775660 0.766650 0.298130
0.896206 0.773659 0.302402
1.000000 0.780914 0.306289
0.075921 0.855286 0.274141
0.194488 0.861228 0.280083
0.313056 0.867171 0.286026
0.431624 0.873114 0.291969
0.550191 0.879056 0.297911
0.670648 0.886017 0.302259
0.791650 0.893272 0.306146
0.912652 0.900526 0.310033
1.000000 0.907781 0.313921
0.087587 0.979577 0.285807
0.206155 0.985520 0.291750
0.324723 0.991463 0.297693
0.445090 0.998375 0.302116
0.566092 1.000000 0.306003
0.687094 1.000000 0.309890
0.808096 1.000000 0.313778
0.929098 1.000000 0.317665
1.000000 1.000000 0.321552
0.000000 0.000000 0.342726
0.072672 0.000000 0.343531
0.198449 0.000000 0.344336
0.324227 0.000000 0.345142
0.450005 0.003439 0.345947
0.575782 0.012102 0.346752
0.701560 0.020764 0.347557
0.826494 0.029109 0.348964
0.945061 0.035051 0.354906
0.000000 0.098420 0.344307
0.098493 0.107083 0.345112
0.224271 0.115745 0.345917
0.350048 0.124408 0.346722
0.475826 0.133071 0.347527
0.601025 0.141515 0.348745
0.719593 0.147458 0.354688
0.838160 0.153400 0.360630
0.956728 0.159343 0.366573
0.000000 0.228052 0.345887
0.124315 0.236714 0.346693
0.250092 0.245377 0.347498
0.375556 0.253921 0.348526
0.494124 0.259864 0.354469
0.612692 0.265807 0.360412
0.731259 0.271749 0.366354
0.849827 0.277692 0.372297
0.968394 0.283634 0.378239
0.024358 0.357683 0.347468
0.150088 0.366328 0.348308
0.268655 0.372270 0.354250
0.387223 0.378213 0.360193
0.505791 0.384156 0.366136
0.624358 0.390098 0.372078
0.742926 0.396041 0.378021
0.861493 0.401983 0.383963
0.980061 0.407926 0.389906
0.043187 0.484677 0.354032
0.161754 0.490619 0.359974
0.280322 0.496562 0.365917
0.398890 0.502505 0.371860
0.517457 0.508447 0.377802
0.636025 0.514390 0.383745
0.754592 0.520332 0.389687
0.873160 0.526275 0.395630
0.991728 0.532218 0.401573
0.054853 0.608968 0.365698
0.173421 0.614911 0.371641
0.291989 0.620854 0.377584
0.410556 0.626796 0.383526
0.529124 0.632739 0.389469
0.647691 0.638681 0.395411
0.766259 0.644624 0.401354
0.884827 0.650567 0.407297
1.000000 0.656812 0.412765
0.066520 0.733260 0.377365
0.185088 0.739203 0.383308
0.303655 0.745145 0.389250
0.422223 0.751088 0.395193
0.540790 0.757030 0.401135
0.659358 0.762973 0.407078
0.778398 0.769170 0.412622
0.899400 0.776425 0.416509
1.000000 0.783680 0.420396
0.078187 0.857552 0.389032
0.196754 0.863494 0.394974
0.315322 0.869437 0.400917
0.433889 0.875379 0.406859
0.552840 0.881528 0.412479
0.673842 0.888783 0.416366
0.794844 0.896038 0.420253
0.915846 0.903292 0.424141
1.000000 0.910547 0.428028
0.089853 0.981843 0.400698
0.208421 0.987786 0.406641
0.327282 0.993886 0.412336
0.448284 1.000000 0.416223
0.569286 1.000000 0.420110
0.690288 1.000000 0.423998
0.811290 1.000000 0.427885
0.932292 1.000000 0.431772
1.000000 1.000000 0.435659
0.000000 0.000000 0.455658
0.077687 0.000000 0.456463
0.203464 0.000000 0.457268
0.329242 0.000000 0.458073
0.455019 0.006742 0.458879
0.580797 0.015404 0.459684
0.706575 0.024067 0.460489
0.828759 0.031374 0.463854
0.947327 0.037317 0.469797
0.000000 0.101723 0.457239
0.103508 0.110386 0.458044
0.229285 0.119048 0.458849
0.355063 0.127711 0.459654
0.480841 0.136373 0.460459
0.603291 0.143781 0.463636
0.721858 0.149723 0.469578
0.840426 0.155666 0.475521
0.958994 0.161609 0.481464
0.003552 0.231354 0.458819
0.129329 0.240017 0.459625
0.255107 0.248680 0.460430
0.377822 0.256187 0.463417
0.496390 0.262130 0.469360
0.614957 0.268072 0.475302
0.733525 0.274015 0.481245
0.852093 0.279958 0.487188
0.970660 0.285900 0.493130
0.029373 0.360986 0.460400
0.152353 0.368593 0.463198
0.270921 0.374536 0.469141
0.389489 0.380479 0.475084
0.508056 0.386421 0.481026
0.626624 0.392364 0.486969
0.745192 0.398307 0.492912
0.863759 0.404249 0.498854
0.982327 0.410192 0.504797
0.045452 0.486942 0.468922
0.164020 0.492885 0.474865
0.282588 0.498828 0.480808
0.401155 0.504770 0.486750
0.519723 0.510713 0.492693
0.638291 0.516656 0.498636
0.756858 0.522598 0.504578
0.875426 0.528541 0.510521
0.993993 0.534483 0.516463
0.057119 0.611234 0.480589
0.175687 0.617177 0.486532
0.294254 0.623119 0.492474
0.412822 0.629062 0.498417
0.531390 0.635005 0.504360
0.649957 0.640947 0.510302
0.768525 0.646890 0.516245
0.887092 0.652832 0.522187
1.000000 0.659578 0.526872
0.068786 0.735526 0.492256
0.187353 0.741468 0.498198
0.305921 0.747411 0.504141
0.424489 0.753354 0.510084
0.543056 0.759296 0.516026
0.661624 0.765239 0.521969
0.781592 0.771936 0.526729
0.902594 0.779191 0.530616
1.000000 0.786446 0.534503
0.080452 0.859817 0.503922
0.199020 0.865760 0.509865
0.317588 0.871703 0.515808
0.436155 0.877645 0.521750
0.556034 0.884294 0.526586
0.677036 0.891549 0.530473
0.798038 0.898804 0.534360
0.919040 0.906058 0.538248
1.000000 0.913313 0.542135
0.092119 0.984109 0.515589
0.210687 0.990052 0.521532
0.330475 0.996652 0.526443
0.451478 1.000000 0.530330
0.572480 1.000000 0.534217
0.693482 1.000000 0.538105
0.814484 1.000000 0.541992
0.935486 1.000000 0.545879
1.000000 1.000000 0.549766
0.000000 0.000000 0.568590
0.082701 0.000000 0.569395
0.208479 0.000000 0.570200
0.334256 0.001382 0.571005
0.460034 0.010045 0.571811
0.585812 0.018707 0.572616
0.711589 0.027370 0.573421
0.831025 0.033640 0.578745
0.949593 0.039583 0.584688
0.000000 0.105026 0.570171
0.108523 0.113688 0.570976
0.234300 0.122351 0.571781
0.360078 0.131014 0.572586
0.485855 0.139676 0.573391
0.605556 0.146046 0.578526
0.724124 0.151989 0.584469
0.842692 0.157932 0.590412
0.961259 0.163874 0.596354
0.008566 0.234657 0.571751
0.134344 0.243320 0.572557
0.260122 0.251983 0.573362
0.380088 0.258453 0.578308
0.498655 0.264395 0.584250
0.617223 0.270338 0.590193
0.735791 0.276281 0.596136
0.854358 0.282223 0.602078
0.972926 0.288166 0.608021
0.034388 0.364289 0.573332
0.154619 0.370859 0.578089
0.273187 0.376802 0.584032
0.391754 0.382744 0.589974
0.510322 0.388687 0.595917
0.628890 0.394630 0.601860
0.747457 0.400572 0.607802
0.866025 0.406515 0.613745
0.984593 0.412458 0.619688
0.047718 0.489208 0.583813
0.166286 0.495151 0.589756
0.284853 0.501093 0.595698
0.403421 0.507036 0.601641
0.521989 0.512979 0.607584
0.640556 0.518921 0.613526
0.759124 0.524864 0.619469
0.877692 0.530807 0.625412
0.996259 0.536749 0.631354
0.059385 0.613500 0.595480
0.177952 0.619442 0.601422
0.296520 0.625385 0.607365
0.415088 0.631328 0.613308
0.533655 0.637270 0.619250
0.652223 0.643213 0.625193
0.770791 0.649156 0.631136
0.889358 0.655098 0.637078
1.000000 0.662344 0.640979
0.071051 0.737791 0.607146
0.189619 0.743734 0.613089
0.308187 0.749677 0.619032
0.426754 0.755619 0.624974
0.545322 0.761562 0.630917
0.663890 0.767505 0.636860
0.784786 0.774702 0.640836
0.905788 0.781957 0.644723
1.000000 0.789212 0.648610
0.082718 0.862083 0.618813
0.201286 0.868026 0.624756
0.319853 0.873968 0.630698
0.438421 0.879911 0.636641
0.559228 0.887060 0.640693
0.680230 0.894315 0.644580
0.801232 0.901570 0.648467
0.922234 0.908824 0.652355
1.000000 0.916079 0.656242
0.094385 0.986375 0.630480
0.212952 0.992317 0.636422
0.333669 0.999418 0.640550
0.454672 1.000000 0.644437
0.575674 1.000000 0.648324
0.696676 1.000000 0.652212
0.817678 1.000000 0.656099
0.938680 1.000000 0.659986
1.000000 1.000000 0.663873
0.000000 0.000000 0.681522
0.087716 0.000000 0.682327
0.213494 0.000000 0.683132
0.339271 0.004685 0.683937
0.465049 0.013347 0.684743
0.590826 0.022010 0.685548
0.714723 0.029963 0.687693
0.833291 0.035906 0.693636
0.951858 0.041848 0.699578
0.000000 0.108328 0.683103
0.113537 0.116991 0.683908
0.239315 0.125654 0.684713
0.365093 0.134316 0.685518
0.489255 0.142370 0.687475
0.607822 0.148312 0.693417
0.726390 0.154255 0.699360
0.844957 0.160197 0.705302
0.963525 0.166140 0.711245
0.013581 0.237960 0.684683
0.139359 0.246623 0.685489
0.263786 0.254776 0.687256
0.382354 0.260719 0.693199
0.500921 0.266661 0.699141
0.619489 0.272604 0.705084
0.738056 0.278546 0.711026
0.856624 0.284489 0.716969
0.975192 0.290432 0.722912
0.038317 0.367182 0.687037
0.156885 0.373125 0.692980
0.275453 0.379068 0.698923
0.394020 0.385010 0.704865
0.512588 0.390953 0.710808
0.631155 0.396895 0.716750
0.749723 0.402838 0.722693
0.868291 0.408781 0.728636
0.986858 0.414723 0.734578
0.049984 0.491474 0.698704
0.168552 0.497417 0.704647
0.287119 0.503359 0.710589
0.405687 0.509302 0.716532
0.524254 0.515244 0.722474
0.642822 0.521187 0.728417
0.761390 0.527130 0.734360
0.879957 0.533072 0.740302
0.998525 0.539015 0.746245
0.061651 0.615766 0.710371
0.180218 0.621708 0.716313
0.298786 0.627651 0.722256
0.417353 0.633593 0.728198
0.535921 0.639536 0.734141
0.654489 0.645479 0.740084
0.773056 0.651421 0.746026
0.892536 0.657855 0.751199
1.000000 0.665110 0.755086
0.073317 0.740057 0.722037
0.191885 0.746000 0.727980
0.310452 0.751942 0.733922
0.429020 0.757885 0.739865
0.547588 0.763828 0.745808
0.666978 0.770213 0.751056
0.787980 0.777468 0.754943
0.908982 0.784723 0.758830
1.000000 0.791978 0.762718
0.084984 0.864349 0.733704
0.203551 0.870291 0.739646
0.322119 0.876234 0.745589
0.441419 0.882572 0.750913
0.562422 0.889826 0.754800
0.683424 0.897081 0.758687
0.804426 0.904336 0.762575
0.925428 0.911590 0.766462
1.000000 0.918845 0.770349
0.096650 0.988640 0.745370
0.215861 0.994930 0.750770
0.336863 1.000000 0.754657
0.457866 1.000000 0.758544
0.578868 1.000000 0.762432
0.699870 1.000000 0.766319
0.820872 1.000000 0.770206
0.941874 1.000000 0.774093
1.000000 1.000000 0.777980
0.000000 0.000000 0.794454
0.092731 0.000000 0.795259
0.218508 0.000000 0.796064
0.344286 0.007988 0.796869
0.470063 0.016650 0.797675
0.595841 0.025313 0.798480
0.716989 0.032229 0.802584
0.835557 0.038172 0.808527
0.954124 0.044114 0.814469
0.000000 0.111631 0.796035
0.118552 0.120294 0.796840
0.244330 0.128957 0.797645
0.370107 0.137619 0.798450
0.491520 0.144635 0.802365
0.610088 0.150578 0.808308
0.728656 0.156521 0.814251
0.847223 0.162463 0.820193
0.965791 0.168406 0.826136
0.018596 0.241263 0.797615
0.144373 0.249926 0.798421
0.266052 0.257042 0.802147
0.384619 0.262984 0.808089
0.503187 0.268927 0.814032
0.621755 0.274870 0.819975
0.740322 0.280812 0.825917
0.858890 0.286755 0.831860
0.977457 0.292697 0.837802
0.040583 0.369448 0.801928
0.159151 0.375391 0.807871
0.277718 0.381333 0.813813
0.396286 0.387276 0.819756
0.514854 0.393219 0.825699
0.633421 0.399161 0.831641
0.751989 0.405104 0.837584
0.870556 0.411046 0.843526
0.989124 0.416989 0.849469
0.052250 0.493740 0.813595
0.170817 0.499682 0.819537
0.289385 0.505625 0.825480
0.407953 0.511568 0.831423
0.526520 0.517510 0.837365
0.645088 0.523453 0.843308
0.763655 0.529395 0.849250
0.882223 0.535338 0.855193
1.000000 0.541281 0.861136
0.063916 0.618031 0.825261
0.182484 0.623974 0.831204
0.301052 0.629917 0.837147
0.419619 0.635859 0.843089
0.538187 0.641802 0.849032
0.656754 0.647744 0.854974
0.775322 0.653687 0.860917
0.895730 0.660621 0.865306
1.000000 0.667876 0.869193
0.075583 0.742323 0.836928
0.194151 0.748266 0.842871
0.312718 0.754208 0.848813
0.431286 0.760151 0.854756
0.549853 0.766093 0.860698
0.670172 0.772979 0.865163
0.791174 0.780234 0.869050
0.912176 0.787489 0.872937
1.000000 0.794744 0.876825
0.087250 0.866615 0.848595
0.205817 0.872557 0.854537
0.324385 0.878500 0.860480
0.444613 0.885338 0.865020
0.565616 0.892592 0.868907
0.686618 0.899847 0.872794
0.807620 0.907102 0.876682
0.928622 0.914356 0.880569
1.000000 0.921611 0.884456
0.098916 0.990906 0.860261
0.219055 0.997696 0.864877
0.340057 1.000000 0.868764
0.461060 1.000000 0.872651
0.582062 1.000000 0.876539
0.703064 1.000000 0.880426
0.824066 1.000000 0.884313
0.945068 1.000000 0.888200
1.000000 1.000000 0.892087
0.000000 0.000000 0.907386
0.097745 0.000000 0.908191
0.223523 0.002628 0.908996
0.349301 0.011290 0.909801
0.475078 0.019953 0.910607
0.600687 0.028552 0.911532
0.719255 0.034495 0.917475
0.837822 0.040437 0.923417
0.956390 0.046380 0.929360
0.000000 0.114934 0.908967
0.123567 0.123597 0.909772
0.249344 0.132259 0.910577
0.375122 0.140922 0.911382
0.493786 0.146901 0.917256
0.612354 0.152844 0.923199
0.730921 0.158786 0.929141
0.849489 0.164729 0.935084
0.968057 0.170672 0.941027
0.023610 0.244566 0.910547
0.149388 0.253228 0.911352
0.268317 0.259307 0.917037
0.386885 0.265250 0.922980
0.505453 0.271193 0.928923
0.624020 0.277135 0.934865
0.742588 0.283078 0.940808
0.861156 0.289021 0.946751
0.979723 0.294963 0.952693
0.042849 0.371714 0.916819
0.161416 0.377656 0.922761
0.279984 0.383599 0.928704
0.398552 0.389542 0.934647
0.517119 0.395484 0.940589
0.635687 0.401427 0.946532
0.754255 0.407370 0.952475
0.872822 0.413312 0.958417
0.991390 0.419255 0.964360
0.054515 0.496005 0.928485
0.173083 0.501948 0.934428
0.291651 0.507891 0.940371
0.410218 0.513833 0.946313
0.528786 0.519776 0.952256
0.647354 0.525719 0.958199
0.765921 0.531661 0.964141
0.884489 0.537604 0.970084
1.000000 0.543775 0.975669
0.066182 0.620297 0.940152
0.184750 0.626240 0.946095
0.303317 0.632182 0.952037
0.421885 0.638125 0.957980
0.540453 0.644068 0.963923
0.659020 0.650010 0.969865
0.777922 0.656133 0.975526
0.898924 0.663387 0.979413
1.000000 0.670642 0.983300
0.077849 0.744589 0.951819
0.196416 0.750531 0.957761
0.314984 0.756474 0.963704
0.433552 0.762417 0.969647
0.552363 0.768491 0.975383
0.673366 0.775745 0.979270
0.794368 0.783000 0.983157
0.915370 0.790255 0.987045
1.000000 0.797510 0.990932
0.089515 0.868880 0.963485
0.208083 0.874823 0.969428
0.326805 0.880849 0.975240
0.447807 0.888104 0.979127
0.568810 0.895358 0.983014
0.689812 0.902613 0.986902
0.810814 0.909868 0.990789
0.931816 0.917122 0.994676
1.000000 0.924377 0.998563
0.101247 0.993207 0.975097
0.222249 1.000000 0.978984
0.343251 1.000000 0.982871
0.464254 1.000000 0.986759
0.585256 1.000000 0.990646
0.706258 1.000000 0.994533
0.827260 1.000000 0.998420
0.948262 1.000000 1.000000
1.000000 1.000000 1.000000
