tools/fandomforge/assets/color_luts/leon-all-eras-badass.cube
TITLE "leon-all-eras-badass"
LUT_3D_SIZE 5
0.117776 0.161322 0.098725
0.430255 0.175382 0.135503
0.742735 0.189442 0.172280
1.000000 0.203503 0.209058
1.000000 0.217563 0.245836
0.174668 0.472425 0.170927
0.487148 0.486485 0.207705
0.799627 0.500545 0.244483
1.000000 0.495287 0.240364
1.000000 0.489008 0.234085
0.231560 0.783528 0.243130
0.511847 0.779018 0.240595
0.789068 0.772739 0.234316
1.000000 0.766460 0.228037
1.000000 0.760181 0.221758
0.222299 1.000000 0.234547
0.499520 1.000000 0.228268
0.776741 1.000000 0.221989
1.000000 1.000000 0.215710
1.000000 1.000000 0.232523
0.209972 1.000000 0.222220
0.487193 1.000000 0.215941
0.782247 1.000000 0.231136
1.000000 1.000000 0.268837
1.000000 1.000000 0.306537
0.128825 0.166683 0.396247
0.441304 0.180743 0.433025
0.753783 0.194803 0.469803
1.000000 0.208863 0.506580
1.000000 0.215441 0.527518
0.185717 0.477786 0.468450
0.498196 0.491846 0.505227
0.799001 0.499172 0.527749
1.000000 0.492893 0.521470
1.000000 0.486614 0.515191
0.232232 0.782903 0.527980
0.509453 0.776624 0.521701
0.786674 0.770345 0.515422
1.000000 0.764066 0.509143
1.000000 0.757787 0.502864
0.219905 1.000000 0.515653
0.497126 1.000000 0.509374
0.774347 1.000000 0.503095
1.000000 1.000000 0.496816
1.000000 1.000000 0.530398
0.207578 1.000000 0.503326
0.484799 1.000000 0.497047
0.793777 1.000000 0.529011
1.000000 1.000000 0.566711
1.000000 1.000000 0.604411
0.139874 0.172043 0.693770
0.452353 0.186104 0.730547
0.764832 0.200164 0.767325
1.000000 0.214224 0.804102
1.000000 0.213047 0.808624
0.196766 0.483147 0.765972
0.509245 0.497207 0.802749
0.796607 0.496778 0.808855
1.000000 0.490499 0.802576
1.000000 0.484220 0.796297
0.229838 0.780509 0.809086
0.507059 0.774230 0.802807
0.784280 0.767951 0.796528
1.000000 0.761672 0.790249
1.000000 0.755393 0.783970
0.217511 1.000000 0.796759
0.494732 1.000000 0.790480
0.771953 1.000000 0.784201
1.000000 1.000000 0.790571
1.000000 1.000000 0.828272
0.205184 1.000000 0.784432
0.491566 1.000000 0.789184
0.805307 1.000000 0.826885
1.000000 1.000000 0.864585
1.000000 1.000000 0.902285
0.150923 0.177404 0.991292
0.463402 0.191464 1.000000
0.775881 0.205525 1.000000
1.000000 0.216932 1.000000
1.000000 0.210653 1.000000
0.207815 0.488507 1.000000
0.516992 0.500663 1.000000
0.794213 0.494384 1.000000
1.000000 0.488105 1.000000
1.000000 0.481826 1.000000
0.227444 0.778115 1.000000
0.504665 0.771836 1.000000
0.781886 0.765557 1.000000
1.000000 0.759278 1.000000
1.000000 0.752999 1.000000
0.215117 1.000000 1.000000
0.492338 1.000000 1.000000
0.769559 1.000000 1.000000
1.000000 1.000000 1.000000
1.000000 1.000000 1.000000
0.202790 1.000000 1.000000
0.503096 1.000000 1.000000
0.816837 1.000000 1.000000
1.000000 1.000000 1.000000
1.000000 1.000000 1.000000
0.161972 0.182765 1.000000
0.474451 0.196825 1.000000
0.786930 0.210885 1.000000
1.000000 0.214538 1.000000
1.000000 0.208259 1.000000
0.218864 0.493868 1.000000
0.514598 0.498269 1.000000
0.791819 0.491990 1.000000
1.000000 0.485711 1.000000
1.000000 0.479432 1.000000
0.225050 0.775721 1.000000
0.502271 0.769442 1.000000
0.779492 0.763163 1.000000
1.000000 0.756884 1.000000
1.000000 0.752866 1.000000
0.212723 1.000000 1.000000
0.489944 1.000000 1.000000
0.768998 1.000000 1.000000
1.000000 1.000000 1.000000
1.000000 1.000000 1.000000
0.200885 1.000000 1.000000
0.514626 1.000000 1.000000
0.828367 1.000000 1.000000
1.000000 1.000000 1.000000
1.000000 1.000000 1.000000
