tools/fandomforge/assets/color_luts/leon-damnation.cube
TITLE "leon-damnation-Damnation"
LUT_3D_SIZE 9
0.000000 0.000000 0.002400
0.093578 0.000000 0.004952
0.211021 0.000000 0.007503
0.328463 0.002361 0.010055
0.445906 0.008185 0.012606
0.563349 0.014009 0.015158
0.680791 0.019833 0.017709
0.798234 0.025656 0.020261
0.915677 0.031480 0.022813
0.000000 0.105761 0.007409
0.109294 0.111585 0.009961
0.226736 0.117408 0.012513
0.344179 0.123232 0.015064
0.461622 0.129056 0.017616
0.579064 0.134880 0.020167
0.696507 0.140703 0.022719
0.811861 0.146481 0.028288
0.927073 0.152255 0.034063
0.007567 0.226632 0.012419
0.125010 0.232455 0.014970
0.242452 0.238279 0.017522
0.359895 0.244103 0.020073
0.477338 0.249927 0.022625
0.592773 0.255706 0.028076
0.707985 0.261480 0.033850
0.823197 0.267255 0.039625
0.938409 0.273029 0.045399
0.023283 0.347502 0.017428
0.140725 0.353326 0.019979
0.258168 0.359150 0.022531
0.373686 0.364931 0.027863
0.488898 0.370705 0.033638
0.604110 0.376480 0.039412
0.719322 0.382254 0.045187
0.834534 0.388029 0.050961
0.949746 0.393803 0.056736
0.038999 0.468373 0.022437
0.154599 0.474156 0.027651
0.269810 0.479930 0.033425
0.385022 0.485705 0.039200
0.500234 0.491479 0.044974
0.615446 0.497254 0.050749
0.730658 0.503028 0.056523
0.845870 0.508803 0.062298
0.961082 0.514577 0.068072
0.050723 0.589156 0.033213
0.165935 0.594930 0.038987
0.281147 0.600704 0.044762
0.396359 0.606479 0.050536
0.511571 0.612253 0.056311
0.626783 0.618028 0.062085
0.741995 0.623802 0.067860
0.857207 0.629577 0.073634
0.972419 0.635351 0.079409
0.062059 0.709929 0.044549
0.177271 0.715704 0.050324
0.292483 0.721478 0.056098
0.407695 0.727253 0.061873
0.522907 0.733027 0.067647
0.638119 0.738802 0.073422
0.753331 0.744576 0.079196
0.868663 0.750416 0.084926
0.986262 0.757487 0.089816
0.073396 0.830703 0.055886
0.188608 0.836478 0.061660
0.303820 0.842252 0.067435
0.419032 0.848027 0.073209
0.534244 0.853801 0.078984
0.649488 0.859593 0.084746
0.767087 0.866664 0.089636
0.884687 0.873736 0.094526
1.000000 0.880807 0.099416
0.084732 0.951477 0.067222
0.199944 0.957252 0.072997
0.315156 0.963026 0.078771
0.430368 0.968801 0.084546
0.547912 0.975842 0.089456
0.665511 0.982913 0.094346
0.783111 0.989984 0.099236
0.900710 0.997056 0.104126
1.000000 1.000000 0.109016
0.000000 0.000000 0.112811
0.096630 0.000000 0.115362
0.214073 0.000000 0.117914
0.331515 0.004582 0.120465
0.448958 0.010406 0.123017
0.566401 0.016229 0.125568
0.683843 0.022053 0.128120
0.801286 0.027877 0.130671
0.917938 0.033683 0.134365
0.000000 0.107981 0.117820
0.112346 0.113805 0.120371
0.229789 0.119629 0.122923
0.347231 0.125453 0.125474
0.464674 0.131276 0.128026
0.582117 0.137100 0.130577
0.698851 0.142908 0.134153
0.814062 0.148682 0.139927
0.929274 0.154457 0.145702
0.010619 0.228852 0.122829
0.128062 0.234676 0.125381
0.245504 0.240499 0.127932
0.362947 0.246323 0.130484
0.479763 0.252133 0.133941
0.594975 0.257908 0.139715
0.710187 0.263682 0.145489
0.825399 0.269456 0.151264
0.940611 0.275231 0.157038
0.026335 0.349723 0.127838
0.143778 0.355546 0.130390
0.260676 0.361358 0.133728
0.375888 0.367133 0.139503
0.491100 0.372907 0.145277
0.606311 0.378681 0.151051
0.721523 0.384456 0.156826
0.836735 0.390230 0.162600
0.951947 0.396005 0.168375
0.041588 0.470583 0.133516
0.156800 0.476358 0.139290
0.272012 0.482132 0.145065
0.387224 0.487907 0.150839
0.502436 0.493681 0.156613
0.617648 0.499455 0.162388
0.732860 0.505230 0.168162
0.848072 0.511004 0.173937
0.963284 0.516779 0.179711
0.052925 0.591357 0.144852
0.168137 0.597132 0.150627
0.283349 0.602906 0.156401
0.398560 0.608680 0.162175
0.513772 0.614455 0.167950
0.628984 0.620229 0.173724
0.744196 0.626004 0.179499
0.859408 0.631778 0.185273
0.974620 0.637553 0.191048
0.064261 0.712131 0.156189
0.179473 0.717906 0.161963
0.294685 0.723680 0.167737
0.409897 0.729454 0.173512
0.525109 0.735229 0.179286
0.640321 0.741003 0.185061
0.755533 0.746778 0.190835
0.871775 0.753112 0.196228
0.989374 0.760183 0.201118
0.075598 0.832905 0.167525
0.190809 0.838679 0.173299
0.306021 0.844454 0.179074
0.421233 0.850228 0.184848
0.536445 0.856003 0.190623
0.652599 0.862289 0.196048
0.770199 0.869360 0.200938
0.887799 0.876432 0.205828
1.000000 0.883503 0.210718
0.086934 0.953679 0.178861
0.202146 0.959453 0.184636
0.317358 0.965228 0.190410
0.433424 0.971466 0.195868
0.551024 0.978538 0.200758
0.668623 0.985609 0.205648
0.786223 0.992680 0.210538
0.903822 0.999752 0.215428
1.000000 1.000000 0.220317
0.000000 0.000000 0.223221
0.099682 0.000000 0.225772
0.217125 0.000979 0.228324
0.334568 0.006802 0.230876
0.452010 0.012626 0.233427
0.569453 0.018450 0.235979
0.686896 0.024273 0.238530
0.804338 0.030097 0.241082
0.920140 0.035885 0.246005
0.000000 0.110202 0.228230
0.115398 0.116026 0.230782
0.232841 0.121849 0.233333
0.350283 0.127673 0.235885
0.467726 0.133497 0.238436
0.585169 0.139320 0.240988
0.701052 0.145110 0.245792
0.816264 0.150884 0.251567
0.931476 0.156659 0.257341
0.013671 0.231072 0.233239
0.131114 0.236896 0.235791
0.248557 0.242720 0.238342
0.365999 0.248544 0.240894
0.481965 0.254335 0.245580
0.597177 0.260109 0.251354
0.712389 0.265884 0.257129
0.827601 0.271658 0.262903
0.942812 0.277432 0.268677
0.029387 0.351943 0.238249
0.146830 0.357767 0.240800
0.262877 0.363560 0.245367
0.378089 0.369334 0.251142
0.493301 0.375109 0.256916
0.608513 0.380883 0.262691
0.723725 0.386658 0.268465
0.838937 0.392432 0.274239
0.954149 0.398206 0.280014
0.043790 0.472785 0.245155
0.159002 0.478559 0.250929
0.274214 0.484334 0.256704
0.389426 0.490108 0.262478
0.504638 0.495883 0.268253
0.619850 0.501657 0.274027
0.735061 0.507431 0.279801
0.850273 0.513206 0.285576
0.965485 0.518980 0.291350
0.055126 0.593559 0.256491
0.170338 0.599333 0.262266
0.285550 0.605108 0.268040
0.400762 0.610882 0.273815
0.515974 0.616657 0.279589
0.631186 0.622431 0.285363
0.746398 0.628205 0.291138
0.861610 0.633980 0.296912
0.976822 0.639754 0.302687
0.066463 0.714333 0.267828
0.181675 0.720107 0.273602
0.296887 0.725882 0.279377
0.412099 0.731656 0.285151
0.527310 0.737430 0.290925
0.642522 0.743205 0.296700
0.757734 0.748979 0.302474
0.874887 0.755808 0.307530
0.992486 0.762879 0.312420
0.077799 0.835107 0.279164
0.193011 0.840881 0.284939
0.308223 0.846656 0.290713
0.423435 0.852430 0.296487
0.538647 0.858204 0.302262
0.655711 0.864985 0.307350
0.773311 0.872056 0.312240
0.890910 0.879128 0.317130
1.000000 0.886199 0.322020
0.089136 0.955881 0.290501
0.204348 0.961655 0.296275
0.319559 0.967429 0.302049
0.436536 0.974162 0.307170
0.554136 0.981234 0.312060
0.671735 0.988305 0.316950
0.789335 0.995376 0.321840
0.906934 1.000000 0.326729
1.000000 1.000000 0.331619
0.000000 0.000000 0.333631
0.102734 0.000000 0.336183
0.220177 0.003199 0.338734
0.337620 0.009023 0.341286
0.455062 0.014846 0.343837
0.572505 0.020670 0.346389
0.689948 0.026494 0.348940
0.807129 0.032312 0.351869
0.922341 0.038086 0.357644
0.001008 0.112422 0.338640
0.118450 0.118246 0.341192
0.235893 0.124070 0.343744
0.353336 0.129893 0.346295
0.470778 0.135717 0.348847
0.588042 0.141537 0.351657
0.703254 0.147311 0.357431
0.818466 0.153086 0.363206
0.933678 0.158860 0.368980
0.016723 0.233293 0.343650
0.134166 0.239117 0.346201
0.251609 0.244940 0.348753
0.368954 0.250762 0.351444
0.484166 0.256536 0.357219
0.599378 0.262311 0.362993
0.714590 0.268085 0.368768
0.829802 0.273860 0.374542
0.945014 0.279634 0.380317
0.032439 0.354164 0.348659
0.149867 0.359987 0.351232
0.265079 0.365761 0.357006
0.380291 0.371536 0.362781
0.495503 0.377310 0.368555
0.610715 0.383085 0.374330
0.725927 0.388859 0.380104
0.841139 0.394634 0.385879
0.956351 0.400408 0.391653
0.045991 0.474986 0.356794
0.161203 0.480761 0.362568
0.276415 0.486535 0.368343
0.391627 0.492310 0.374117
0.506839 0.498084 0.379892
0.622051 0.503859 0.385666
0.737263 0.509633 0.391441
0.852475 0.515408 0.397215
0.967687 0.521182 0.402989
0.057328 0.595760 0.368130
0.172540 0.601535 0.373905
0.287752 0.607309 0.379679
0.402964 0.613084 0.385454
0.518176 0.618858 0.391228
0.633388 0.624633 0.397003
0.748600 0.630407 0.402777
0.863811 0.636181 0.408551
0.979574 0.642255 0.414122
0.068664 0.716534 0.379467
0.183876 0.722309 0.385241
0.299088 0.728083 0.391016
0.414300 0.733858 0.396790
0.529512 0.739632 0.402565
0.644724 0.745407 0.408339
0.760399 0.751433 0.413942
0.877999 0.758504 0.418832
0.995598 0.765575 0.423722
0.080001 0.837308 0.390803
0.195213 0.843083 0.396578
0.310425 0.848857 0.402352
0.425637 0.854632 0.408127
0.541224 0.860610 0.413762
0.658823 0.867681 0.418652
0.776423 0.874752 0.423542
0.894022 0.881824 0.428432
1.000000 0.888895 0.433321
0.091337 0.958082 0.402140
0.206549 0.963857 0.407914
0.322049 0.969787 0.413582
0.439648 0.976859 0.418472
0.557248 0.983930 0.423362
0.674847 0.991001 0.428252
0.792447 0.998072 0.433142
0.910046 1.000000 0.438031
1.000000 1.000000 0.442921
0.000000 0.000000 0.444042
0.105787 0.000000 0.446593
0.223229 0.005419 0.449145
0.340672 0.011243 0.451696
0.458115 0.017067 0.454248
0.575557 0.022891 0.456799
0.693000 0.028714 0.459351
0.809331 0.034513 0.463508
0.924543 0.040288 0.469283
0.004060 0.114643 0.449051
0.121502 0.120466 0.451602
0.238945 0.126290 0.454154
0.356388 0.132114 0.456705
0.473830 0.137937 0.459257
0.590243 0.143738 0.463296
0.705455 0.149513 0.469070
0.820667 0.155287 0.474845
0.935879 0.161062 0.480619
0.019776 0.235513 0.454060
0.137218 0.241337 0.456612
0.254661 0.247161 0.459163
0.371156 0.252964 0.463084
0.486368 0.258738 0.468858
0.601580 0.264512 0.474632
0.716792 0.270287 0.480407
0.832004 0.276061 0.486181
0.947216 0.281836 0.491956
0.035491 0.356384 0.459069
0.152069 0.362189 0.462871
0.267281 0.367963 0.468646
0.382492 0.373737 0.474420
0.497704 0.379512 0.480194
0.612916 0.385286 0.485969
0.728128 0.391061 0.491743
0.843340 0.396835 0.497518
0.958552 0.402610 0.503292
0.048193 0.477188 0.468433
0.163405 0.482963 0.474208
0.278617 0.488737 0.479982
0.393829 0.494511 0.485756
0.509041 0.500286 0.491531
0.624253 0.506060 0.497305
0.739465 0.511835 0.503080
0.854677 0.517609 0.508854
0.969889 0.523384 0.514629
0.059530 0.597962 0.479770
0.174741 0.603736 0.485544
0.289953 0.609511 0.491318
0.405165 0.615285 0.497093
0.520377 0.621060 0.502867
0.635589 0.626834 0.508642
0.750801 0.632609 0.514416
0.866013 0.638383 0.520191
0.982686 0.644951 0.525424
0.070866 0.718736 0.491106
0.186078 0.724510 0.496880
0.301290 0.730285 0.502655
0.416502 0.736059 0.508429
0.531714 0.741834 0.514204
0.646926 0.747608 0.519978
0.763511 0.754129 0.525244
0.881111 0.761200 0.530134
0.998710 0.768271 0.535023
0.082202 0.839510 0.502442
0.197414 0.845284 0.508217
0.312626 0.851059 0.513991
0.427838 0.856833 0.519766
0.544336 0.863306 0.525064
0.661935 0.870377 0.529954
0.779535 0.877449 0.534844
0.897134 0.884520 0.539733
1.000000 0.891591 0.544623
0.093539 0.960284 0.513779
0.208751 0.966058 0.519553
0.325160 0.972483 0.524884
0.442760 0.979555 0.529774
0.560360 0.986626 0.534664
0.677959 0.993697 0.539554
0.795559 1.000000 0.544443
0.913158 1.000000 0.549333
1.000000 1.000000 0.554223
0.000000 0.000000 0.554452
0.108839 0.001816 0.557003
0.226281 0.007640 0.559555
0.343724 0.013464 0.562107
0.461167 0.019287 0.564658
0.578609 0.025111 0.567210
0.696052 0.030935 0.569761
0.811533 0.036715 0.575148
0.926744 0.042489 0.580922
0.007112 0.116863 0.559461
0.124554 0.122687 0.562013
0.241997 0.128510 0.564564
0.359440 0.134334 0.567116
0.476882 0.140158 0.569667
0.592445 0.145940 0.574935
0.707657 0.151715 0.580710
0.822869 0.157489 0.586484
0.938081 0.163263 0.592258
0.022828 0.237734 0.564470
0.140270 0.243557 0.567022
0.257713 0.249381 0.569573
0.373358 0.255165 0.574723
0.488570 0.260940 0.580497
0.603782 0.266714 0.586272
0.718993 0.272488 0.592046
0.834205 0.278263 0.597820
0.949417 0.284037 0.603595
0.038543 0.358604 0.569480
0.154270 0.364390 0.574510
0.269482 0.370165 0.580285
0.384694 0.375939 0.586059
0.499906 0.381714 0.591834
0.615118 0.387488 0.597608
0.730330 0.393262 0.603382
0.845542 0.399037 0.609157
0.960754 0.404811 0.614931
0.050395 0.479390 0.580072
0.165607 0.485164 0.585847
0.280819 0.490939 0.591621
0.396031 0.496713 0.597396
0.511242 0.502487 0.603170
0.626454 0.508262 0.608944
0.741666 0.514036 0.614719
0.856878 0.519811 0.620493
0.972090 0.525585 0.626268
0.061731 0.600164 0.591409
0.176943 0.605938 0.597183
0.292155 0.611713 0.602958
0.407367 0.617487 0.608732
0.522579 0.623261 0.614506
0.637791 0.629036 0.620281
0.753003 0.634810 0.626055
0.868215 0.640585 0.631830
0.985798 0.647647 0.636725
0.073068 0.720938 0.602745
0.188280 0.726712 0.608520
0.303491 0.732486 0.614294
0.418703 0.738261 0.620068
0.533915 0.744035 0.625843
0.649127 0.749810 0.631617
0.766623 0.756825 0.636546
0.884223 0.763896 0.641435
1.000000 0.770967 0.646325
0.084404 0.841712 0.614082
0.199616 0.847486 0.619856
0.314828 0.853260 0.625630
0.430040 0.859035 0.631405
0.547448 0.866002 0.636366
0.665047 0.873073 0.641256
0.782647 0.880145 0.646145
0.900246 0.887216 0.651035
1.000000 0.894287 0.655925
0.095740 0.962485 0.625418
0.210952 0.968260 0.631192
0.328272 0.975179 0.636186
0.445872 0.982251 0.641076
0.563472 0.989322 0.645966
0.681071 0.996393 0.650855
0.798671 1.000000 0.655745
0.916270 1.000000 0.660635
1.000000 1.000000 0.665525
0.000000 0.000000 0.664862
0.111891 0.004036 0.667414
0.229333 0.009860 0.669965
0.346776 0.015684 0.672517
0.464219 0.021508 0.675068
0.581661 0.027331 0.677620
0.698522 0.033142 0.681012
0.813734 0.038917 0.686787
0.928946 0.044691 0.692561
0.010164 0.119083 0.669871
0.127607 0.124907 0.672423
0.245049 0.130731 0.674975
0.362492 0.136555 0.677526
0.479435 0.142367 0.680800
0.594647 0.148142 0.686574
0.709859 0.153916 0.692349
0.825071 0.159691 0.698123
0.940283 0.165465 0.703898
0.025880 0.239954 0.674881
0.143322 0.245778 0.677432
0.260347 0.251592 0.680587
0.375559 0.257367 0.686362
0.490771 0.263141 0.692136
0.605983 0.268916 0.697911
0.721195 0.274690 0.703685
0.836407 0.280465 0.709460
0.951619 0.286239 0.715234
0.041260 0.360817 0.680375
0.156472 0.366592 0.686149
0.271684 0.372366 0.691924
0.386896 0.378141 0.697698
0.502108 0.383915 0.703473
0.617320 0.389690 0.709247
0.732532 0.395464 0.715022
0.847743 0.401238 0.720796
0.962955 0.407013 0.726570
0.052596 0.481591 0.691711
0.167808 0.487366 0.697486
0.283020 0.493140 0.703260
0.398232 0.498915 0.709035
0.513444 0.504689 0.714809
0.628656 0.510464 0.720584
0.743868 0.516238 0.726358
0.859080 0.522012 0.732132
0.974292 0.527787 0.737907
0.063933 0.602365 0.703048
0.179145 0.608140 0.708822
0.294357 0.613914 0.714597
0.409569 0.619689 0.720371
0.524781 0.625463 0.726146
0.639992 0.631237 0.731920
0.755204 0.637012 0.737694
0.871311 0.643272 0.743137
0.988910 0.650343 0.748027
0.075269 0.723139 0.714384
0.190481 0.728914 0.720159
0.305693 0.734688 0.725933
0.420905 0.740463 0.731708
0.536117 0.746237 0.737482
0.652135 0.752449 0.742958
0.769735 0.759521 0.747847
0.887334 0.766592 0.752737
1.000000 0.773663 0.757627
0.086606 0.843913 0.725721
0.201818 0.849688 0.731495
0.317030 0.855462 0.737270
0.432960 0.861627 0.742778
0.550560 0.868698 0.747668
0.668159 0.875769 0.752557
0.785759 0.882841 0.757447
0.903358 0.889912 0.762337
1.000000 0.896983 0.767227
0.097942 0.964687 0.737057
0.213785 0.970804 0.742598
0.331384 0.977875 0.747488
0.448984 0.984947 0.752378
0.566583 0.992018 0.757267
0.684183 0.999089 0.762157
0.801783 1.000000 0.767047
0.919382 1.000000 0.771937
1.000000 1.000000 0.776827
0.000000 0.000433 0.775273
0.114943 0.006257 0.777824
0.232386 0.012081 0.780376
0.349828 0.017904 0.782927
0.467271 0.023728 0.785479
0.584714 0.029552 0.788030
0.700724 0.035344 0.792651
0.815936 0.041118 0.798426
0.931148 0.046893 0.804200
0.013216 0.121304 0.780282
0.130659 0.127128 0.782833
0.248101 0.132951 0.785385
0.365544 0.138775 0.787936
0.481636 0.144569 0.792439
0.596848 0.150343 0.798213
0.712060 0.156118 0.803988
0.827272 0.161892 0.809762
0.942484 0.167667 0.815537
0.028932 0.242175 0.785291
0.146375 0.247998 0.787842
0.262549 0.253794 0.792226
0.377761 0.259568 0.798001
0.492973 0.265343 0.803775
0.608185 0.271117 0.809550
0.723397 0.276892 0.815324
0.838609 0.282666 0.821099
0.953821 0.288441 0.826873
0.043462 0.363019 0.792014
0.158673 0.368793 0.797788
0.273885 0.374568 0.803563
0.389097 0.380342 0.809337
0.504309 0.386117 0.815112
0.619521 0.391891 0.820886
0.734733 0.397666 0.826661
0.849945 0.403440 0.832435
0.965157 0.409215 0.838210
0.054798 0.483793 0.803350
0.170010 0.489567 0.809125
0.285222 0.495342 0.814899
0.400434 0.501116 0.820674
0.515646 0.506891 0.826448
0.630858 0.512665 0.832223
0.746070 0.518440 0.837997
0.861282 0.524214 0.843772
0.976493 0.529988 0.849546
0.066134 0.604567 0.814687
0.181346 0.610341 0.820461
0.296558 0.616116 0.826236
0.411770 0.621890 0.832010
0.526982 0.627665 0.837785
0.642194 0.633439 0.843559
0.757406 0.639214 0.849334
0.874423 0.645968 0.854439
0.992022 0.653040 0.859329
0.077471 0.725341 0.826023
0.192683 0.731115 0.831798
0.307895 0.736890 0.837572
0.423107 0.742664 0.843347
0.538319 0.748439 0.849121
0.655247 0.755146 0.854259
0.772847 0.762217 0.859149
0.890446 0.769288 0.864039
1.000000 0.776359 0.868929
0.088807 0.846115 0.837360
0.204019 0.851889 0.843134
0.319231 0.857664 0.848909
0.436072 0.864323 0.854080
0.553672 0.871394 0.858969
0.671271 0.878466 0.863859
0.788871 0.885537 0.868749
0.906470 0.892608 0.873639
1.000000 0.899679 0.878529
0.100144 0.966889 0.848696
0.216897 0.973500 0.853900
0.334496 0.980572 0.858790
0.452096 0.987643 0.863679
0.569695 0.994714 0.868569
0.687295 1.000000 0.873459
0.804894 1.000000 0.878349
0.922494 1.000000 0.883239
1.000000 1.000000 0.888129
0.000552 0.002654 0.885683
0.117995 0.008477 0.888234
0.235438 0.014301 0.890786
0.352880 0.020125 0.893337
0.470323 0.025948 0.895889
0.587714 0.031771 0.898516
0.702925 0.037545 0.904290
0.818137 0.043320 0.910065
0.933349 0.049094 0.915839
0.016268 0.123524 0.890692
0.133711 0.129348 0.893244
0.251154 0.135172 0.895795
0.368596 0.140995 0.898347
0.483838 0.146771 0.904078
0.599050 0.152545 0.909852
0.714262 0.158319 0.915627
0.829474 0.164094 0.921401
0.944686 0.169868 0.927176
0.031984 0.244395 0.895701
0.149427 0.250219 0.898253
0.264751 0.255996 0.903866
0.379963 0.261770 0.909640
0.495174 0.267544 0.915414
0.610386 0.273319 0.921189
0.725598 0.279093 0.926963
0.840810 0.284868 0.932738
0.956022 0.290642 0.938512
0.045663 0.365221 0.903653
0.160875 0.370995 0.909428
0.276087 0.376770 0.915202
0.391299 0.382544 0.920976
0.506511 0.388318 0.926751
0.621723 0.394093 0.932525
0.736935 0.399867 0.938300
0.852147 0.405642 0.944074
0.967359 0.411416 0.949849
0.057000 0.485995 0.914990
0.172212 0.491769 0.920764
0.287423 0.497543 0.926538
0.402635 0.503318 0.932313
0.517847 0.509092 0.938087
0.633059 0.514867 0.943862
0.748271 0.520641 0.949636
0.863483 0.526416 0.955411
0.979110 0.532416 0.961031
0.068336 0.606769 0.926326
0.183548 0.612543 0.932100
0.298760 0.618317 0.937875
0.413972 0.624092 0.943649
0.529184 0.629866 0.949424
0.644396 0.635641 0.955198
0.759935 0.641593 0.960851
0.877535 0.648664 0.965741
0.995134 0.655736 0.970631
0.079672 0.727542 0.937662
0.194884 0.733317 0.943437
0.310096 0.739091 0.949211
0.425308 0.744866 0.954986
0.540760 0.750770 0.960671
0.658359 0.757842 0.965561
0.775959 0.764913 0.970451
0.893558 0.771984 0.975341
1.000000 0.779056 0.980231
0.091009 0.848316 0.948999
0.206221 0.854091 0.954773
0.321584 0.859948 0.960492
0.439184 0.867019 0.965381
0.556784 0.874090 0.970271
0.674383 0.881162 0.975161
0.791983 0.888233 0.980051
0.909582 0.895304 0.984941
1.000000 0.902376 0.989831
0.102409 0.969125 0.960312
0.220009 0.976196 0.965202
0.337608 0.983268 0.970091
0.455208 0.990339 0.974981
0.572807 0.997410 0.979871
0.690407 1.000000 0.984761
0.808006 1.000000 0.989651
0.925606 1.000000 0.994541
1.000000 1.000000 0.999431
