tools/fandomforge/assets/color_luts/leon-all-eras-badass.cube
TITLE "leon-all-eras-badass"
LUT_3D_SIZE 17
0.117776 0.161322 0.098725
0.195896 0.164837 0.107920
0.274016 0.168352 0.117114
0.352136 0.171867 0.126308
0.430255 0.175382 0.135503
0.508375 0.178897 0.144697
0.586495 0.182412 0.153892
0.664615 0.185927 0.163086
0.742735 0.189442 0.172280
0.820854 0.192957 0.181475
0.898974 0.196472 0.190669
0.977094 0.199987 0.199864
1.000000 0.203503 0.209058
1.000000 0.207018 0.218252
1.000000 0.210533 0.227447
1.000000 0.214048 0.236641
1.000000 0.217563 0.245836
0.131999 0.239098 0.116776
0.210119 0.242613 0.125970
0.288239 0.246128 0.135165
0.366359 0.249643 0.144359
0.444479 0.253158 0.153553
0.522598 0.256673 0.162748
0.600718 0.260188 0.171942
0.678838 0.263703 0.181137
0.756958 0.267218 0.190331
0.835077 0.270733 0.199525
0.913197 0.274248 0.208720
0.991317 0.277763 0.217914
1.000000 0.281278 0.227109
1.000000 0.284793 0.236303
1.000000 0.288308 0.245497
1.000000 0.287198 0.244900
1.000000 0.285628 0.243330
0.146222 0.316874 0.134826
0.224342 0.320389 0.144021
0.302462 0.323904 0.153215
0.380582 0.327419 0.162409
0.458702 0.330934 0.171604
0.536821 0.334449 0.180798
0.614941 0.337964 0.189993
0.693061 0.341479 0.199187
0.771181 0.344994 0.208381
0.849300 0.348509 0.217576
0.927420 0.352024 0.226770
1.000000 0.355539 0.235965
1.000000 0.359054 0.245159
1.000000 0.358131 0.244957
1.000000 0.356561 0.243388
1.000000 0.354991 0.241818
1.000000 0.353421 0.240248
0.160445 0.394649 0.152877
0.238565 0.398164 0.162071
0.316685 0.401679 0.171266
0.394805 0.405194 0.180460
0.472925 0.408710 0.189654
0.551044 0.412225 0.198849
0.629164 0.415740 0.208043
0.707284 0.419255 0.217238
0.785404 0.422770 0.226432
0.863523 0.426285 0.235626
0.941643 0.429800 0.244821
1.000000 0.429063 0.245015
1.000000 0.427494 0.243445
1.000000 0.425924 0.241876
1.000000 0.424354 0.240306
1.000000 0.422784 0.238736
1.000000 0.421215 0.237166
0.174668 0.472425 0.170927
0.252788 0.475940 0.180122
0.330908 0.479455 0.189316
0.409028 0.482970 0.198511
0.487148 0.486485 0.207705
0.565267 0.490000 0.216899
0.643387 0.493515 0.226094
0.721507 0.497030 0.235288
0.799627 0.500545 0.244483
0.870701 0.499996 0.245073
0.940006 0.498426 0.243503
1.000000 0.496857 0.241933
1.000000 0.495287 0.240364
1.000000 0.493717 0.238794
1.000000 0.492147 0.237224
1.000000 0.490578 0.235654
1.000000 0.489008 0.234085
0.188891 0.550201 0.188978
0.267011 0.553716 0.198172
0.345131 0.557231 0.207367
0.423251 0.560746 0.216561
0.501371 0.564261 0.225756
0.579490 0.567776 0.234950
0.657610 0.571291 0.244144
0.729008 0.570929 0.245131
0.798314 0.569359 0.243561
0.867619 0.567789 0.241991
0.936924 0.566220 0.240421
1.000000 0.564650 0.238852
1.000000 0.563080 0.237282
1.000000 0.561510 0.235712
1.000000 0.559941 0.234142
1.000000 0.558371 0.232573
1.000000 0.556801 0.231003
0.203114 0.627977 0.207028
0.281234 0.631492 0.216223
0.359354 0.635007 0.225417
0.437474 0.638522 0.234612
0.515594 0.642037 0.243806
0.587316 0.641862 0.245188
0.656621 0.640292 0.243619
0.725927 0.638722 0.242049
0.795232 0.637152 0.240479
0.864537 0.635583 0.238909
0.933842 0.634013 0.237340
1.000000 0.632443 0.235770
1.000000 0.630873 0.234200
1.000000 0.629304 0.232630
1.000000 0.627734 0.231061
1.000000 0.626164 0.229491
1.000000 0.624594 0.227921
0.217337 0.705752 0.225079
0.295457 0.709267 0.234273
0.373577 0.712782 0.243468
0.445624 0.712794 0.245246
0.514929 0.711225 0.243676
0.584234 0.709655 0.242107
0.653540 0.708085 0.240537
0.722845 0.706515 0.238967
0.792150 0.704946 0.237397
0.861455 0.703376 0.235828
0.930761 0.701806 0.234258
1.000000 0.700236 0.232688
1.000000 0.698667 0.231118
1.000000 0.697097 0.229549
1.000000 0.695527 0.227979
1.000000 0.693957 0.226409
1.000000 0.692388 0.224839
0.231560 0.783528 0.243130
0.303932 0.783727 0.245304
0.373237 0.782157 0.243734
0.442542 0.780588 0.242164
0.511847 0.779018 0.240595
0.581153 0.777448 0.239025
0.650458 0.775878 0.237455
0.719763 0.774309 0.235885
0.789068 0.772739 0.234316
0.858374 0.771169 0.232746
0.927679 0.769599 0.231176
0.996984 0.768030 0.229606
1.000000 0.766460 0.228037
1.000000 0.764890 0.226467
1.000000 0.763320 0.224897
1.000000 0.761751 0.223327
1.000000 0.760181 0.221758
0.231545 0.853090 0.243792
0.300850 0.851520 0.242222
0.370155 0.849951 0.240652
0.439460 0.848381 0.239083
0.508766 0.846811 0.237513
0.578071 0.845241 0.235943
0.647376 0.843672 0.234373
0.716681 0.842102 0.232804
0.785987 0.840532 0.231234
0.855292 0.838962 0.229664
0.924597 0.837393 0.228094
0.993902 0.835823 0.226525
1.000000 0.834253 0.224955
1.000000 0.832683 0.223385
1.000000 0.831114 0.221815
1.000000 0.829544 0.220246
1.000000 0.827974 0.218676
0.228463 0.920883 0.240710
0.297768 0.919314 0.239140
0.367073 0.917744 0.237571
0.436379 0.916174 0.236001
0.505684 0.914604 0.234431
0.574989 0.913035 0.232861
0.644294 0.911465 0.231292
0.713600 0.909895 0.229722
0.782905 0.908325 0.228152
0.852210 0.906756 0.226582
0.921515 0.905186 0.225013
0.990821 0.903616 0.223443
1.000000 0.902046 0.221873
1.000000 0.900477 0.220303
1.000000 0.898907 0.218734
1.000000 0.897337 0.217164
1.000000 0.895767 0.215594
0.225381 0.988677 0.237628
0.294686 0.987107 0.236059
0.363992 0.985537 0.234489
0.433297 0.983967 0.232919
0.502602 0.982398 0.231349
0.571907 0.980828 0.229780
0.641213 0.979258 0.228210
0.710518 0.977688 0.226640
0.779823 0.976119 0.225070
0.849128 0.974549 0.223501
0.918434 0.972979 0.221931
0.987739 0.971409 0.220361
1.000000 0.969840 0.218791
1.000000 0.968270 0.217222
1.000000 0.966700 0.215652
1.000000 0.965130 0.214082
1.000000 0.964452 0.214020
0.222299 1.000000 0.234547
0.291605 1.000000 0.232977
0.360910 1.000000 0.231407
0.430215 1.000000 0.229837
0.499520 1.000000 0.228268
0.568826 1.000000 0.226698
0.638131 1.000000 0.225128
0.707436 1.000000 0.223558
0.776741 1.000000 0.221989
0.846047 1.000000 0.220419
0.915352 1.000000 0.218849
0.984657 1.000000 0.217279
1.000000 1.000000 0.215710
1.000000 1.000000 0.214140
1.000000 1.000000 0.213673
1.000000 1.000000 0.223098
1.000000 1.000000 0.232523
0.219218 1.000000 0.231465
0.288523 1.000000 0.229895
0.357828 1.000000 0.228325
0.427133 1.000000 0.226756
0.496439 1.000000 0.225186
0.565744 1.000000 0.223616
0.635049 1.000000 0.222046
0.704354 1.000000 0.220477
0.773660 1.000000 0.218907
0.842965 1.000000 0.217337
0.912270 1.000000 0.215767
0.981575 1.000000 0.214198
1.000000 1.000000 0.213327
1.000000 1.000000 0.222752
1.000000 1.000000 0.232177
1.000000 1.000000 0.241602
1.000000 1.000000 0.251027
0.216136 1.000000 0.228383
0.285441 1.000000 0.226813
0.354746 1.000000 0.225244
0.424052 1.000000 0.223674
0.493357 1.000000 0.222104
0.562662 1.000000 0.220534
0.631967 1.000000 0.218965
0.701273 1.000000 0.217395
0.770578 1.000000 0.215825
0.839883 1.000000 0.214255
0.909433 1.000000 0.212980
0.987868 1.000000 0.222405
1.000000 1.000000 0.231830
1.000000 1.000000 0.241255
1.000000 1.000000 0.250680
1.000000 1.000000 0.260105
1.000000 1.000000 0.269530
0.213054 1.000000 0.225301
0.282359 1.000000 0.223732
0.351665 1.000000 0.222162
0.420970 1.000000 0.220592
0.490275 1.000000 0.219022
0.559580 1.000000 0.217453
0.628886 1.000000 0.215883
0.698191 1.000000 0.214313
0.767496 1.000000 0.212743
0.845840 1.000000 0.222058
0.924275 1.000000 0.231483
1.000000 1.000000 0.240908
1.000000 1.000000 0.250333
1.000000 1.000000 0.259759
1.000000 1.000000 0.269184
1.000000 1.000000 0.278609
1.000000 1.000000 0.288034
0.209972 1.000000 0.222220
0.279278 1.000000 0.220650
0.348583 1.000000 0.219080
0.417888 1.000000 0.217510
0.487193 1.000000 0.215941
0.556499 1.000000 0.214371
0.625804 1.000000 0.212801
0.703812 1.000000 0.221711
0.782247 1.000000 0.231136
0.860682 1.000000 0.240562
0.939117 1.000000 0.249987
1.000000 1.000000 0.259412
1.000000 1.000000 0.268837
1.000000 1.000000 0.278262
1.000000 1.000000 0.287687
1.000000 1.000000 0.297112
1.000000 1.000000 0.306537
0.120539 0.162662 0.173106
0.198658 0.166177 0.182300
0.276778 0.169692 0.191495
0.354898 0.173207 0.200689
0.433018 0.176722 0.209883
0.511137 0.180237 0.219078
0.589257 0.183752 0.228272
0.667377 0.187268 0.237467
0.745497 0.190783 0.246661
0.823617 0.194298 0.255855
0.901736 0.197813 0.265050
0.979856 0.201328 0.274244
1.000000 0.204843 0.283439
1.000000 0.208358 0.292633
1.000000 0.211873 0.301827
1.000000 0.215388 0.311022
1.000000 0.217236 0.316688
0.134762 0.240438 0.191156
0.212881 0.243953 0.200351
0.291001 0.247468 0.209545
0.369121 0.250983 0.218740
0.447241 0.254498 0.227934
0.525360 0.258013 0.237128
0.603480 0.261528 0.246323
0.681600 0.265043 0.255517
0.759720 0.268558 0.264712
0.837840 0.272073 0.273906
0.915959 0.275588 0.283100
0.994079 0.279103 0.292295
1.000000 0.282618 0.301489
1.000000 0.286134 0.310684
1.000000 0.288169 0.316746
1.000000 0.286599 0.315176
1.000000 0.285030 0.313606
0.148985 0.318214 0.209207
0.227104 0.321729 0.218401
0.305224 0.325244 0.227596
0.383344 0.328759 0.236790
0.461464 0.332274 0.245984
0.539584 0.335789 0.255179
0.617703 0.339304 0.264373
0.695823 0.342819 0.273568
0.773943 0.346334 0.282762
0.852063 0.349849 0.291956
0.930182 0.353364 0.301151
1.000000 0.356879 0.310345
1.000000 0.359102 0.316804
1.000000 0.357532 0.315234
1.000000 0.355962 0.313664
1.000000 0.354393 0.312094
1.000000 0.352823 0.310525
0.163208 0.395990 0.227257
0.241327 0.399505 0.236452
0.319447 0.403020 0.245646
0.397567 0.406535 0.254841
0.475687 0.410050 0.264035
0.553807 0.413565 0.273229
0.631926 0.417080 0.282424
0.710046 0.420595 0.291618
0.788166 0.424110 0.300813
0.866286 0.427625 0.310007
0.942489 0.430035 0.316861
1.000000 0.428465 0.315292
1.000000 0.426895 0.313722
1.000000 0.425325 0.312152
1.000000 0.423756 0.310582
1.000000 0.422186 0.309013
1.000000 0.420616 0.307443
0.177431 0.473765 0.245308
0.255550 0.477280 0.254502
0.333670 0.480795 0.263697
0.411790 0.484310 0.272891
0.489910 0.487825 0.282086
0.568030 0.491341 0.291280
0.646149 0.494856 0.300474
0.724269 0.498371 0.309669
0.800797 0.500967 0.316919
0.870102 0.499398 0.315349
0.939407 0.497828 0.313780
1.000000 0.496258 0.312210
1.000000 0.494688 0.310640
1.000000 0.493119 0.309070
1.000000 0.491549 0.307501
1.000000 0.489979 0.305931
1.000000 0.488409 0.304361
0.191654 0.551541 0.263358
0.269773 0.555056 0.272553
0.347893 0.558571 0.281747
0.426013 0.562086 0.290942
0.504133 0.565601 0.300136
0.582253 0.569116 0.309330
0.659105 0.571900 0.316977
0.728410 0.570330 0.315407
0.797715 0.568761 0.313837
0.867020 0.567191 0.312268
0.936326 0.565621 0.310698
1.000000 0.564051 0.309128
1.000000 0.562482 0.307558
1.000000 0.560912 0.305989
1.000000 0.559342 0.304419
1.000000 0.557772 0.302849
1.000000 0.556203 0.301279
0.205877 0.629317 0.281409
0.283996 0.632832 0.290603
0.362116 0.636347 0.299798
0.440236 0.639862 0.308992
0.517412 0.642833 0.317035
0.586718 0.641263 0.315465
0.656023 0.639693 0.313895
0.725328 0.638124 0.312325
0.794633 0.636554 0.310756
0.863939 0.634984 0.309186
0.933244 0.633414 0.307616
1.000000 0.631845 0.306046
1.000000 0.630275 0.304477
1.000000 0.628705 0.302907
1.000000 0.627135 0.301337
1.000000 0.625566 0.299767
1.000000 0.623996 0.298198
0.220100 0.707093 0.299460
0.298219 0.710608 0.308654
0.375720 0.713766 0.317092
0.445025 0.712196 0.315523
0.514331 0.710626 0.313953
0.583636 0.709056 0.312383
0.652941 0.707487 0.310813
0.722246 0.705917 0.309244
0.791552 0.704347 0.307674
0.860857 0.702777 0.306104
0.930162 0.701208 0.304534
0.999467 0.699638 0.302965
1.000000 0.698068 0.301395
1.000000 0.696498 0.299825
1.000000 0.694929 0.298255
1.000000 0.693359 0.296686
1.000000 0.691789 0.295116
0.234028 0.784698 0.317150
0.303333 0.783129 0.315580
0.372638 0.781559 0.314011
0.441944 0.779989 0.312441
0.511249 0.778419 0.310871
0.580554 0.776850 0.309301
0.649859 0.775280 0.307732
0.719165 0.773710 0.306162
0.788470 0.772140 0.304592
0.857775 0.770571 0.303022
0.927080 0.769001 0.301453
0.996386 0.767431 0.299883
1.000000 0.765861 0.298313
1.000000 0.764292 0.296743
1.000000 0.762722 0.295174
1.000000 0.761152 0.293604
1.000000 0.759582 0.292034
0.230946 0.852492 0.314068
0.300251 0.850922 0.312499
0.369557 0.849352 0.310929
0.438862 0.847782 0.309359
0.508167 0.846213 0.307789
0.577472 0.844643 0.306220
0.646778 0.843073 0.304650
0.716083 0.841503 0.303080
0.785388 0.839934 0.301510
0.854693 0.838364 0.299941
0.923999 0.836794 0.298371
0.993304 0.835224 0.296801
1.000000 0.833655 0.295231
1.000000 0.832085 0.293662
1.000000 0.830515 0.292092
1.000000 0.828945 0.290522
1.000000 0.827376 0.288952
0.227864 0.920285 0.310987
0.297170 0.918715 0.309417
0.366475 0.917145 0.307847
0.435780 0.915576 0.306277
0.505085 0.914006 0.304708
0.574391 0.912436 0.303138
0.643696 0.910866 0.301568
0.713001 0.909297 0.299998
0.782306 0.907727 0.298429
0.851612 0.906157 0.296859
0.920917 0.904587 0.295289
0.990222 0.903018 0.293719
1.000000 0.901448 0.292150
1.000000 0.899878 0.290580
1.000000 0.898308 0.289010
1.000000 0.896739 0.287440
1.000000 0.895169 0.285871
0.224783 0.988078 0.307905
0.294088 0.986508 0.306335
0.363393 0.984939 0.304765
0.432698 0.983369 0.303196
0.502004 0.981799 0.301626
0.571309 0.980229 0.300056
0.640614 0.978660 0.298486
0.709919 0.977090 0.296917
0.779225 0.975520 0.295347
0.848530 0.973950 0.293777
0.917835 0.972381 0.292207
0.987140 0.970811 0.290638
1.000000 0.969241 0.289068
1.000000 0.967671 0.287498
1.000000 0.966102 0.285928
1.000000 0.964532 0.284359
1.000000 0.966333 0.288489
0.221701 1.000000 0.304823
0.291006 1.000000 0.303253
0.360311 1.000000 0.301684
0.429617 1.000000 0.300114
0.498922 1.000000 0.298544
0.568227 1.000000 0.296974
0.637532 1.000000 0.295405
0.706838 1.000000 0.293835
0.776143 1.000000 0.292265
0.845448 1.000000 0.290695
0.914753 1.000000 0.289126
0.984059 1.000000 0.287556
1.000000 1.000000 0.285986
1.000000 1.000000 0.284416
1.000000 1.000000 0.288142
1.000000 1.000000 0.297567
1.000000 1.000000 0.306992
0.218619 1.000000 0.301741
0.287924 1.000000 0.300172
0.357230 1.000000 0.298602
0.426535 1.000000 0.297032
0.495840 1.000000 0.295462
0.565145 1.000000 0.293893
0.634451 1.000000 0.292323
0.703756 1.000000 0.290753
0.773061 1.000000 0.289183
0.842366 1.000000 0.287614
0.911672 1.000000 0.286044
0.980977 1.000000 0.284474
1.000000 1.000000 0.287795
1.000000 1.000000 0.297220
1.000000 1.000000 0.306645
1.000000 1.000000 0.316070
1.000000 1.000000 0.325495
0.215537 1.000000 0.298660
0.284843 1.000000 0.297090
0.354148 1.000000 0.295520
0.423453 1.000000 0.293950
0.492758 1.000000 0.292381
0.562064 1.000000 0.290811
0.631369 1.000000 0.289241
0.700674 1.000000 0.287671
0.769979 1.000000 0.286102
0.839285 1.000000 0.284532
0.912315 1.000000 0.287448
0.990750 1.000000 0.296873
1.000000 1.000000 0.306298
1.000000 1.000000 0.315724
1.000000 1.000000 0.325149
1.000000 1.000000 0.334574
1.000000 1.000000 0.343999
0.212456 1.000000 0.295578
0.281761 1.000000 0.294008
0.351066 1.000000 0.292438
0.420371 1.000000 0.290869
0.489677 1.000000 0.289299
0.558982 1.000000 0.287729
0.628287 1.000000 0.286159
0.697592 1.000000 0.284590
0.770287 1.000000 0.287102
0.848722 1.000000 0.296527
0.927158 1.000000 0.305952
1.000000 1.000000 0.315377
1.000000 1.000000 0.324802
1.000000 1.000000 0.334227
1.000000 1.000000 0.343652
1.000000 1.000000 0.353077
1.000000 1.000000 0.362502
0.209374 1.000000 0.292496
0.278679 1.000000 0.290926
0.347984 1.000000 0.289357
0.417290 1.000000 0.287787
0.486595 1.000000 0.286217
0.555900 1.000000 0.284647
0.628259 1.000000 0.286755
0.706694 1.000000 0.296180
0.785129 1.000000 0.305605
0.863565 1.000000 0.315030
0.942000 1.000000 0.324455
1.000000 1.000000 0.333880
1.000000 1.000000 0.343305
1.000000 1.000000 0.352731
1.000000 1.000000 0.362156
1.000000 1.000000 0.371581
1.000000 1.000000 0.381006
0.123301 0.164002 0.247486
0.201421 0.167517 0.256681
0.279540 0.171032 0.265875
0.357660 0.174548 0.275070
0.435780 0.178063 0.284264
0.513900 0.181578 0.293458
0.592019 0.185093 0.302653
0.670139 0.188608 0.311847
0.748259 0.192123 0.321042
0.826379 0.195638 0.330236
0.904499 0.199153 0.339430
0.982618 0.202668 0.348625
1.000000 0.206183 0.357819
1.000000 0.209698 0.367014
1.000000 0.213213 0.376208
1.000000 0.216728 0.385402
1.000000 0.216638 0.386965
0.137524 0.241778 0.265537
0.215644 0.245293 0.274731
0.293763 0.248808 0.283926
0.371883 0.252323 0.293120
0.450003 0.255838 0.302314
0.528123 0.259353 0.311509
0.606242 0.262868 0.320703
0.684362 0.266383 0.329898
0.762482 0.269899 0.339092
0.840602 0.273414 0.348286
0.918722 0.276929 0.357481
0.996841 0.280444 0.366675
1.000000 0.283959 0.375870
1.000000 0.287474 0.385064
1.000000 0.287571 0.387022
1.000000 0.286001 0.385453
1.000000 0.284431 0.383883
0.151747 0.319554 0.283587
0.229867 0.323069 0.292782
0.307986 0.326584 0.301976
0.386106 0.330099 0.311171
0.464226 0.333614 0.320365
0.542346 0.337129 0.329559
0.620465 0.340644 0.338754
0.698585 0.344159 0.347948
0.776705 0.347674 0.357143
0.854825 0.351189 0.366337
0.932945 0.354704 0.375531
1.000000 0.358219 0.384726
1.000000 0.358503 0.387080
1.000000 0.356934 0.385510
1.000000 0.355364 0.383941
1.000000 0.353794 0.382371
1.000000 0.352224 0.380801
0.165970 0.397330 0.301638
0.244090 0.400845 0.310832
0.322209 0.404360 0.320027
0.400329 0.407875 0.329221
0.478449 0.411390 0.338416
0.556569 0.414905 0.347610
0.634688 0.418420 0.356804
0.712808 0.421935 0.365999
0.790928 0.425450 0.375193
0.869048 0.428965 0.384388
0.941891 0.429436 0.387138
1.000000 0.427866 0.385568
1.000000 0.426297 0.383998
1.000000 0.424727 0.382429
1.000000 0.423157 0.380859
1.000000 0.421587 0.379289
1.000000 0.420018 0.377719
0.180193 0.475105 0.319688
0.258313 0.478621 0.328883
0.336432 0.482136 0.338077
0.414552 0.485651 0.347272
0.492672 0.489166 0.356466
0.570792 0.492681 0.365660
0.648912 0.496196 0.374855
0.727031 0.499711 0.384049
0.800198 0.500369 0.387196
0.869504 0.498799 0.385626
0.938809 0.497229 0.384056
1.000000 0.495660 0.382486
1.000000 0.494090 0.380917
1.000000 0.492520 0.379347
1.000000 0.490950 0.377777
1.000000 0.489381 0.376207
1.000000 0.487811 0.374638
0.194416 0.552881 0.337739
0.272536 0.556396 0.346933
0.350655 0.559911 0.356128
0.428775 0.563426 0.365322
0.506895 0.566941 0.374517
0.585015 0.570456 0.383711
0.658506 0.571302 0.387253
0.727811 0.569732 0.385684
0.797117 0.568162 0.384114
0.866422 0.566592 0.382544
0.935727 0.565023 0.380974
1.000000 0.563453 0.379405
1.000000 0.561883 0.377835
1.000000 0.560313 0.376265
1.000000 0.558744 0.374695
1.000000 0.557174 0.373126
1.000000 0.555604 0.371556
0.208639 0.630657 0.355790
0.286759 0.634172 0.364984
0.364878 0.637687 0.374178
0.442998 0.641202 0.383373
0.516814 0.642234 0.387311
0.586119 0.640665 0.385741
0.655424 0.639095 0.384172
0.724730 0.637525 0.382602
0.794035 0.635955 0.381032
0.863340 0.634386 0.379462
0.932645 0.632816 0.377893
1.000000 0.631246 0.376323
1.000000 0.629676 0.374753
1.000000 0.628107 0.373183
1.000000 0.626537 0.371614
1.000000 0.624967 0.370044
1.000000 0.623397 0.368474
0.222862 0.708433 0.373840
0.300982 0.711948 0.383035
0.375122 0.713167 0.387369
0.444427 0.711597 0.385799
0.513732 0.710028 0.384229
0.583037 0.708458 0.382660
0.652343 0.706888 0.381090
0.721648 0.705318 0.379520
0.790953 0.703749 0.377950
0.860258 0.702179 0.376381
0.929564 0.700609 0.374811
0.998869 0.699039 0.373241
1.000000 0.697470 0.371671
1.000000 0.695900 0.370102
1.000000 0.694330 0.368532
1.000000 0.692760 0.366962
1.000000 0.691191 0.365392
0.233429 0.784100 0.387427
0.302735 0.782530 0.385857
0.372040 0.780960 0.384287
0.441345 0.779391 0.382717
0.510650 0.777821 0.381148
0.579956 0.776251 0.379578
0.649261 0.774681 0.378008
0.718566 0.773112 0.376438
0.787871 0.771542 0.374869
0.857177 0.769972 0.373299
0.926482 0.768402 0.371729
0.995787 0.766833 0.370159
1.000000 0.765263 0.368590
1.000000 0.763693 0.367020
1.000000 0.762123 0.365450
1.000000 0.760554 0.363880
1.000000 0.758984 0.362311
0.230348 0.851893 0.384345
0.299653 0.850323 0.382775
0.368958 0.848754 0.381205
0.438263 0.847184 0.379636
0.507569 0.845614 0.378066
0.576874 0.844044 0.376496
0.646179 0.842475 0.374926
0.715484 0.840905 0.373357
0.784790 0.839335 0.371787
0.854095 0.837765 0.370217
0.923400 0.836196 0.368647
0.992705 0.834626 0.367078
1.000000 0.833056 0.365508
1.000000 0.831486 0.363938
1.000000 0.829917 0.362368
1.000000 0.828347 0.360799
1.000000 0.826777 0.359229
0.227266 0.919686 0.381263
0.296571 0.918117 0.379693
0.365876 0.916547 0.378124
0.435182 0.914977 0.376554
0.504487 0.913407 0.374984
0.573792 0.911838 0.373414
0.643097 0.910268 0.371845
0.712403 0.908698 0.370275
0.781708 0.907128 0.368705
0.851013 0.905559 0.367135
0.920318 0.903989 0.365566
0.989624 0.902419 0.363996
1.000000 0.900849 0.362426
1.000000 0.899280 0.360856
1.000000 0.897710 0.359287
1.000000 0.896140 0.357717
1.000000 0.894570 0.356147
0.224184 0.987480 0.378181
0.293489 0.985910 0.376612
0.362795 0.984340 0.375042
0.432100 0.982770 0.373472
0.501405 0.981201 0.371902
0.570710 0.979631 0.370333
0.640016 0.978061 0.368763
0.709321 0.976491 0.367193
0.778626 0.974922 0.365623
0.847931 0.973352 0.364054
0.917237 0.971782 0.362484
0.986542 0.970212 0.360914
1.000000 0.968643 0.359344
1.000000 0.967073 0.357775
1.000000 0.965503 0.356205
1.000000 0.963933 0.354635
1.000000 0.968213 0.362957
0.221102 1.000000 0.375100
0.290408 1.000000 0.373530
0.359713 1.000000 0.371960
0.429018 1.000000 0.370390
0.498323 1.000000 0.368821
0.567629 1.000000 0.367251
0.636934 1.000000 0.365681
0.706239 1.000000 0.364111
0.775544 1.000000 0.362542
0.844850 1.000000 0.360972
0.914155 1.000000 0.359402
0.983460 1.000000 0.357832
1.000000 1.000000 0.356263
1.000000 1.000000 0.354693
1.000000 1.000000 0.362610
1.000000 1.000000 0.372035
1.000000 1.000000 0.381461
0.218021 1.000000 0.372018
0.287326 1.000000 0.370448
0.356631 1.000000 0.368878
0.425936 1.000000 0.367309
0.495242 1.000000 0.365739
0.564547 1.000000 0.364169
0.633852 1.000000 0.362599
0.703157 1.000000 0.361030
0.772463 1.000000 0.359460
0.841768 1.000000 0.357890
0.911073 1.000000 0.356320
0.980378 1.000000 0.354751
1.000000 1.000000 0.362264
1.000000 1.000000 0.371689
1.000000 1.000000 0.381114
1.000000 1.000000 0.390539
1.000000 1.000000 0.399964
0.214939 1.000000 0.368936
0.284244 1.000000 0.367366
0.353549 1.000000 0.365797
0.422855 1.000000 0.364227
0.492160 1.000000 0.362657
0.561465 1.000000 0.361087
0.630770 1.000000 0.359518
0.700076 1.000000 0.357948
0.769381 1.000000 0.356378
0.838686 1.000000 0.354808
0.915198 1.000000 0.361917
0.993633 1.000000 0.371342
1.000000 1.000000 0.380767
1.000000 1.000000 0.390192
1.000000 1.000000 0.399617
1.000000 1.000000 0.409042
1.000000 1.000000 0.418467
0.211857 1.000000 0.365854
0.281162 1.000000 0.364285
0.350468 1.000000 0.362715
0.419773 1.000000 0.361145
0.489078 1.000000 0.359575
0.558383 1.000000 0.358006
0.627689 1.000000 0.356436
0.696994 1.000000 0.354866
0.773170 1.000000 0.361570
0.851605 1.000000 0.370995
0.930040 1.000000 0.380420
1.000000 1.000000 0.389845
1.000000 1.000000 0.399270
1.000000 1.000000 0.408696
1.000000 1.000000 0.418121
1.000000 1.000000 0.427546
1.000000 1.000000 0.436971
0.208775 1.000000 0.362773
0.278081 1.000000 0.361203
0.347386 1.000000 0.359633
0.416691 1.000000 0.358063
0.485996 1.000000 0.356494
0.555302 1.000000 0.354924
0.631141 1.000000 0.361223
0.709577 1.000000 0.370648
0.788012 1.000000 0.380074
0.866447 1.000000 0.389499
0.944882 1.000000 0.398924
1.000000 1.000000 0.408349
1.000000 1.000000 0.417774
1.000000 1.000000 0.427199
1.000000 1.000000 0.436624
1.000000 1.000000 0.446049
1.000000 1.000000 0.455474
0.126063 0.165343 0.321867
0.204183 0.168858 0.331061
0.282303 0.172373 0.340256
0.360422 0.175888 0.349450
0.438542 0.179403 0.358644
0.516662 0.182918 0.367839
0.594782 0.186433 0.377033
0.672901 0.189948 0.386228
0.751021 0.193463 0.395422
0.829141 0.196978 0.404616
0.907261 0.200493 0.413811
0.985381 0.204008 0.423005
1.000000 0.207523 0.432200
1.000000 0.211038 0.441394
1.000000 0.214553 0.450588
1.000000 0.217609 0.458811
1.000000 0.216039 0.457241
0.140286 0.243118 0.339917
0.218406 0.246633 0.349112
0.296526 0.250148 0.358306
