tools/fandomforge/assets/color_luts/leon-re4r-cutscenes.cube
TITLE "leon-re4r-cutscenes-RE4R"
LUT_3D_SIZE 5
0.000000 0.000000 0.030248
0.216694 0.000000 0.017514
0.473755 0.000000 0.004781
0.730817 0.000000 0.000000
0.987878 0.000000 0.000000
0.000000 0.231464 0.005249
0.226238 0.236326 0.000000
0.483299 0.241187 0.000000
0.737958 0.243646 0.000000
0.992491 0.245979 0.000000
0.000000 0.493208 0.000000
0.233473 0.495761 0.000000
0.488005 0.498093 0.000000
0.742537 0.500425 0.000000
0.997069 0.502757 0.000000
0.000000 0.750207 0.000000
0.238051 0.752539 0.000000
0.492583 0.754871 0.000000
0.747116 0.757204 0.000000
1.000000 0.760902 0.000000
0.000000 1.000000 0.000000
0.242630 1.000000 0.000000
0.500887 1.000000 0.000000
0.763049 1.000000 0.000000
1.000000 1.000000 0.000000
0.000000 0.000000 0.277593
0.218547 0.000000 0.264859
0.475609 0.000000 0.252126
0.732670 0.000000 0.239392
0.988801 0.000000 0.232201
0.000000 0.233318 0.252594
0.228091 0.238179 0.239861
0.484315 0.242203 0.232115
0.738848 0.244536 0.234448
0.993380 0.246868 0.236780
0.000000 0.494318 0.232030
0.234362 0.496650 0.234362
0.488894 0.498982 0.236694
0.743426 0.501314 0.239026
0.997958 0.503646 0.241358
0.000000 0.751096 0.236608
0.238940 0.753428 0.238940
0.493473 0.755761 0.241273
0.748005 0.758093 0.243605
1.000000 0.762784 0.239183
0.000000 1.000000 0.241187
0.243519 1.000000 0.243519
0.504686 1.000000 0.239371
0.766847 1.000000 0.234251
1.000000 1.000000 0.229132
0.000000 0.000000 0.524938
0.220401 0.000000 0.512205
0.477462 0.000000 0.499471
0.734524 0.000000 0.486737
0.989690 0.000000 0.485290
0.000000 0.235171 0.499939
0.229945 0.240033 0.487206
0.485205 0.243093 0.485205
0.739737 0.245425 0.487537
0.994269 0.247757 0.489869
0.000000 0.495207 0.485119
0.235251 0.497539 0.487451
0.489783 0.499871 0.489783
0.744315 0.502203 0.492115
0.998848 0.504536 0.494448
0.000000 0.751985 0.489697
0.239830 0.754318 0.492030
0.494362 0.756650 0.494362
0.751088 0.759730 0.494551
1.000000 0.764665 0.489431
0.000000 1.000000 0.494276
0.246322 1.000000 0.494739
0.508484 1.000000 0.489619
0.770645 1.000000 0.484499
1.000000 1.000000 0.479380
0.000000 0.000000 0.772283
0.222254 0.000000 0.759550
0.479316 0.000000 0.746816
0.736047 0.000000 0.736047
0.990580 0.000000 0.738380
0.000000 0.237025 0.747284
0.231562 0.241650 0.735962
0.486094 0.243982 0.738294
0.740626 0.246314 0.740626
0.995158 0.248646 0.742958
0.000000 0.496096 0.738208
0.236140 0.498428 0.740540
0.490672 0.500760 0.742872
0.745205 0.503093 0.745205
0.999737 0.505425 0.747537
0.000000 0.752875 0.742787
0.240719 0.755207 0.745119
0.495251 0.757539 0.747451
0.754887 0.761612 0.744799
1.000000 0.766546 0.739679
0.000000 1.000000 0.747365
0.250120 1.000000 0.744987
0.512282 1.000000 0.739867
0.774444 1.000000 0.734747
1.000000 1.000000 0.729627
0.000000 0.000000 1.000000
0.224108 0.000000 1.000000
0.481169 0.000000 0.994161
0.736937 0.000000 0.989137
0.991469 0.000000 0.991469
0.000000 0.238878 0.994629
0.232451 0.242539 0.989051
0.486983 0.244871 0.991383
0.741515 0.247203 0.993715
0.996047 0.249535 0.996047
0.000000 0.496985 0.991297
0.237029 0.499317 0.993629
0.491562 0.501650 0.995962
0.746094 0.503982 0.998294
1.000000 0.506540 0.999978
0.000000 0.753764 0.995876
0.241608 0.756096 0.998208
0.496523 0.758559 1.000000
0.758685 0.763493 0.995046
1.000000 0.768428 0.989927
0.000000 1.000000 1.000000
0.253918 1.000000 0.995235
0.516080 1.000000 0.990115
0.778242 1.000000 0.984995
1.000000 1.000000 0.979875
