tools/fandomforge/assets/color_luts/leon-re4r-cutscenes.cube
TITLE "leon-re4r-cutscenes-RE4R"
LUT_3D_SIZE 9
0.000000 0.000000 0.030248
0.088163 0.000000 0.023881
0.216694 0.000000 0.017514
0.345224 0.000000 0.011148
0.473755 0.000000 0.004781
0.602286 0.000000 0.000000
0.730817 0.000000 0.000000
0.859347 0.000000 0.000000
0.987878 0.000000 0.000000
0.000000 0.100592 0.017749
0.092935 0.103023 0.011382
0.221466 0.105454 0.005015
0.349996 0.107884 0.000000
0.478527 0.110315 0.000000
0.607058 0.112746 0.000000
0.735589 0.115177 0.000000
0.862935 0.116423 0.000000
0.990201 0.117589 0.000000
0.000000 0.231464 0.005249
0.097707 0.233895 0.000000
0.226238 0.236326 0.000000
0.354769 0.238757 0.000000
0.483299 0.241187 0.000000
0.610692 0.242480 0.000000
0.737958 0.243646 0.000000
0.865224 0.244812 0.000000
0.992491 0.245979 0.000000
0.000000 0.362336 0.000000
0.102479 0.364767 0.000000
0.231010 0.367198 0.000000
0.358449 0.368537 0.000000
0.485715 0.369703 0.000000
0.612982 0.370870 0.000000
0.740248 0.372036 0.000000
0.867514 0.373202 0.000000
0.994780 0.374368 0.000000
0.000000 0.493208 0.000000
0.106206 0.494594 0.000000
0.233473 0.495761 0.000000
0.360739 0.496927 0.000000
0.488005 0.498093 0.000000
0.615271 0.499259 0.000000
0.742537 0.500425 0.000000
0.869803 0.501591 0.000000
0.997069 0.502757 0.000000
0.000000 0.621818 0.000000
0.108496 0.622984 0.000000
0.235762 0.624150 0.000000
0.363028 0.625316 0.000000
0.490294 0.626482 0.000000
0.617560 0.627648 0.000000
0.744826 0.628814 0.000000
0.872092 0.629980 0.000000
0.999358 0.631146 0.000000
0.000000 0.750207 0.000000
0.110785 0.751373 0.000000
0.238051 0.752539 0.000000
0.365317 0.753705 0.000000
0.492583 0.754871 0.000000
0.619849 0.756037 0.000000
0.747116 0.757204 0.000000
0.874573 0.758435 0.000000
1.000000 0.760902 0.000000
0.000000 0.878596 0.000000
0.113074 0.879762 0.000000
0.240340 0.880928 0.000000
0.367607 0.882095 0.000000
0.494873 0.883261 0.000000
0.622190 0.884444 0.000000
0.753271 0.886911 0.000000
0.884352 0.889379 0.000000
1.000000 0.891846 0.000000
0.000000 1.000000 0.000000
0.115364 1.000000 0.000000
0.242630 1.000000 0.000000
0.369896 1.000000 0.000000
0.500887 1.000000 0.000000
0.631968 1.000000 0.000000
0.763049 1.000000 0.000000
0.894130 1.000000 0.000000
1.000000 1.000000 0.000000
0.000000 0.000000 0.153921
0.089090 0.000000 0.147554
0.217620 0.000000 0.141187
0.346151 0.000000 0.134820
0.474682 0.000000 0.128453
0.603213 0.000000 0.122086
0.731743 0.000000 0.115720
0.860274 0.000000 0.109353
0.988357 0.000000 0.105657
0.000000 0.101519 0.141421
0.093862 0.103950 0.135054
0.222392 0.106380 0.128688
0.350923 0.108811 0.122321
0.479454 0.111242 0.115954
0.607985 0.113673 0.109587
0.736114 0.115702 0.105614
0.863380 0.116868 0.106780
0.990646 0.118034 0.107946
0.000000 0.232391 0.128922
0.098634 0.234822 0.122555
0.227165 0.237253 0.116188
0.355695 0.239683 0.109821
0.483871 0.241759 0.105571
0.611137 0.242925 0.106737
0.738403 0.244091 0.107903
0.865669 0.245257 0.109069
0.992935 0.246423 0.110235
0.000000 0.363263 0.116422
0.103406 0.365694 0.110056
0.231628 0.367816 0.105528
0.358894 0.368982 0.106694
0.486160 0.370148 0.107860
0.613426 0.371314 0.109026
0.740692 0.372480 0.110192
0.867958 0.373646 0.111358
0.995224 0.374812 0.112524
0.000000 0.493873 0.105485
0.106651 0.495039 0.106651
0.233917 0.496205 0.107817
0.361183 0.497371 0.108983
0.488449 0.498537 0.110149
0.615715 0.499703 0.111315
0.742982 0.500870 0.112482
0.870248 0.502036 0.113648
0.997514 0.503202 0.114814
0.000000 0.622262 0.107774
0.108940 0.623428 0.108940
0.236206 0.624594 0.110106
0.363473 0.625761 0.111273
0.490739 0.626927 0.112439
0.618005 0.628093 0.113605
0.745271 0.629259 0.114771
0.872537 0.630425 0.115937
0.999803 0.631591 0.117103
0.000000 0.750652 0.110064
0.111230 0.751818 0.111230
0.238496 0.752984 0.112396
0.365762 0.754150 0.113562
0.493028 0.755316 0.114728
0.620294 0.756482 0.115894
0.747560 0.757648 0.117060
0.876472 0.759376 0.116619
1.000000 0.761843 0.114059
0.000000 0.879041 0.112353
0.113519 0.880207 0.113519
0.240785 0.881373 0.114685
0.368051 0.882539 0.115851
0.495317 0.883705 0.117017
0.624089 0.885385 0.116713
0.755170 0.887852 0.114153
0.886251 0.890319 0.111593
1.000000 0.892787 0.109033
0.000000 1.000000 0.114642
0.115808 1.000000 0.115808
0.243074 1.000000 0.116974
0.371706 1.000000 0.116807
0.502786 1.000000 0.114247
0.633867 1.000000 0.111687
0.764948 1.000000 0.109127
0.896029 1.000000 0.106567
1.000000 1.000000 0.104008
0.000000 0.000000 0.277593
0.090016 0.000000 0.271226
0.218547 0.000000 0.264859
0.347078 0.000000 0.258493
0.475609 0.000000 0.252126
0.604139 0.000000 0.245759
0.732670 0.000000 0.239392
0.861201 0.000000 0.233025
0.988801 0.000000 0.232201
0.000000 0.102446 0.265094
0.094788 0.104876 0.258727
0.223319 0.107307 0.252360
0.351850 0.109738 0.245993
0.480381 0.112169 0.239626
0.608911 0.114599 0.233260
0.736558 0.116146 0.232158
0.863824 0.117312 0.233324
0.991090 0.118478 0.234490
0.000000 0.233318 0.252594
0.099561 0.235749 0.246227
0.228091 0.238179 0.239861
0.356622 0.240610 0.233494
0.484315 0.242203 0.232115
0.611581 0.243369 0.233281
0.738848 0.244536 0.234448
0.866114 0.245702 0.235614
0.993380 0.246868 0.236780
0.000000 0.364190 0.240095
0.104333 0.366621 0.233728
0.232072 0.368260 0.232072
0.359339 0.369427 0.233239
0.486605 0.370593 0.234405
0.613871 0.371759 0.235571
0.741137 0.372925 0.236737
0.868403 0.374091 0.237903
0.995669 0.375257 0.239069
0.000000 0.494318 0.232030
0.107096 0.495484 0.233196
0.234362 0.496650 0.234362
0.361628 0.497816 0.235528
0.488894 0.498982 0.236694
0.616160 0.500148 0.237860
0.743426 0.501314 0.239026
0.870692 0.502480 0.240192
0.997958 0.503646 0.241358
0.000000 0.622707 0.234319
0.109385 0.623873 0.235485
0.236651 0.625039 0.236651
0.363917 0.626205 0.237817
0.491183 0.627371 0.238983
0.618449 0.628537 0.240149
0.745715 0.629703 0.241315
0.872982 0.630870 0.242482
1.000000 0.632036 0.243648
0.000000 0.751096 0.236608
0.111674 0.752262 0.237774
0.238940 0.753428 0.238940
0.366206 0.754594 0.240106
0.493473 0.755761 0.241273
0.620739 0.756927 0.242439
0.748005 0.758093 0.243605
0.878371 0.760316 0.241743
1.000000 0.762784 0.239183
0.000000 0.879485 0.238897
0.113964 0.880652 0.240064
0.241230 0.881818 0.241230
0.368496 0.882984 0.242396
0.495762 0.884150 0.243562
0.625988 0.886326 0.241837
0.757069 0.888793 0.239277
0.888150 0.891260 0.236717
1.000000 0.893727 0.234157
0.000000 1.000000 0.241187
0.116253 1.000000 0.242353
0.243519 1.000000 0.243519
0.373605 1.000000 0.241931
0.504686 1.000000 0.239371
0.635766 1.000000 0.236811
0.766847 1.000000 0.234251
0.897928 1.000000 0.231691
1.000000 1.000000 0.229132
0.000000 0.000000 0.401266
0.090943 0.000000 0.394899
0.219474 0.000000 0.388532
0.348005 0.000000 0.382165
0.476535 0.000000 0.375798
0.605066 0.000000 0.369432
0.733597 0.000000 0.363065
0.861980 0.000000 0.357580
0.989246 0.000000 0.358746
0.000000 0.103373 0.388766
0.095715 0.105803 0.382399
0.224246 0.108234 0.376033
0.352777 0.110665 0.369666
0.481308 0.113096 0.363299
0.609737 0.115425 0.357537
0.737003 0.116591 0.358703
0.864269 0.117757 0.359869
0.991535 0.118923 0.361035
0.000000 0.234245 0.376267
0.100487 0.236675 0.369900
0.229018 0.239106 0.363533
0.357494 0.241482 0.357494
0.484760 0.242648 0.358660
0.612026 0.243814 0.359826
0.739292 0.244980 0.360992
0.866558 0.246146 0.362158
0.993824 0.247312 0.363324
0.000000 0.365117 0.363767
0.105251 0.367539 0.357451
0.232517 0.368705 0.358617
0.359783 0.369871 0.359783
0.487049 0.371037 0.360949
0.614315 0.372203 0.362115
0.741581 0.373369 0.363281
0.868848 0.374536 0.364448
0.996114 0.375702 0.365614
0.000000 0.494762 0.358574
0.107540 0.495928 0.359740
0.234806 0.497094 0.360906
0.362072 0.498260 0.362072
0.489339 0.499427 0.363239
0.616605 0.500593 0.364405
0.743871 0.501759 0.365571
0.871137 0.502925 0.366737
0.998403 0.504091 0.367903
0.000000 0.623151 0.360863
0.109830 0.624318 0.362030
0.237096 0.625484 0.363196
0.364362 0.626650 0.364362
0.491628 0.627816 0.365528
0.618894 0.628982 0.366694
0.746160 0.630148 0.367860
0.873426 0.631314 0.369026
1.000000 0.632781 0.369332
0.000000 0.751541 0.363153
0.112119 0.752707 0.364319
0.239385 0.753873 0.365485
0.366651 0.755039 0.366651
0.493917 0.756205 0.367817
0.621183 0.757371 0.368983
0.749189 0.758790 0.369427
0.880270 0.761257 0.366867
1.000000 0.763724 0.364307
0.000000 0.879930 0.365442
0.114408 0.881096 0.366608
0.241674 0.882262 0.367774
0.368940 0.883428 0.368940
0.496806 0.884799 0.369521
0.627887 0.887266 0.366961
0.758968 0.889734 0.364401
0.890049 0.892201 0.361841
1.000000 0.894668 0.359281
0.000000 1.000000 0.367731
0.116697 1.000000 0.368897
0.244423 1.000000 0.369615
0.375504 1.000000 0.367055
0.506585 1.000000 0.364495
0.637665 1.000000 0.361935
0.768746 1.000000 0.359375
0.899827 1.000000 0.356815
1.000000 1.000000 0.354256
0.000000 0.000000 0.524938
0.091870 0.000000 0.518571
0.220401 0.000000 0.512205
0.348931 0.000000 0.505838
0.477462 0.000000 0.499471
0.605993 0.000000 0.493104
0.734524 0.000000 0.486737
0.862424 0.000000 0.484124
0.989690 0.000000 0.485290
0.000000 0.104299 0.512439
0.096642 0.106730 0.506072
0.225173 0.109161 0.499705
0.353704 0.111592 0.493338
0.482234 0.114022 0.486971
0.610181 0.115869 0.484081
0.737447 0.117035 0.485247
0.864714 0.118202 0.486414
0.991980 0.119368 0.487580
0.000000 0.235171 0.499939
0.101414 0.237602 0.493572
0.229945 0.240033 0.487206
0.357938 0.241926 0.484038
0.485205 0.243093 0.485205
0.612471 0.244259 0.486371
0.739737 0.245425 0.487537
0.867003 0.246591 0.488703
0.994269 0.247757 0.489869
0.000000 0.366043 0.487440
0.105696 0.367984 0.483996
0.232962 0.369150 0.485162
0.360228 0.370316 0.486328
0.487494 0.371482 0.487494
0.614760 0.372648 0.488660
0.742026 0.373814 0.489826
0.869292 0.374980 0.490992
0.996558 0.376146 0.492158
0.000000 0.495207 0.485119
0.107985 0.496373 0.486285
0.235251 0.497539 0.487451
0.362517 0.498705 0.488617
0.489783 0.499871 0.489783
0.617049 0.501037 0.490949
0.744315 0.502203 0.492115
0.871581 0.503369 0.493281
0.998848 0.504536 0.494448
0.000000 0.623596 0.487408
0.110274 0.624762 0.488574
0.237540 0.625928 0.489740
0.364806 0.627094 0.490906
0.492072 0.628260 0.492072
0.619339 0.629427 0.493239
0.746605 0.630593 0.494405
0.873871 0.631759 0.495571
1.000000 0.633721 0.494456
0.000000 0.751985 0.489697
0.112563 0.753151 0.490863
0.239830 0.754318 0.492030
0.367096 0.755484 0.493196
0.494362 0.756650 0.494362
0.621628 0.757816 0.495528
0.751088 0.759730 0.494551
0.882169 0.762198 0.491991
1.000000 0.764665 0.489431
0.000000 0.880375 0.491987
0.114853 0.881541 0.493153
0.242119 0.882707 0.494319
0.369385 0.883873 0.495485
0.498705 0.885740 0.494645
0.629786 0.888207 0.492085
0.760867 0.890674 0.489525
0.891948 0.893142 0.486965
1.000000 0.895609 0.484405
0.000000 1.000000 0.494276
0.117142 1.000000 0.495442
0.246322 1.000000 0.494739
0.377403 1.000000 0.492179
0.508484 1.000000 0.489619
0.639565 1.000000 0.487059
0.770645 1.000000 0.484499
0.901726 1.000000 0.481939
1.000000 1.000000 0.479380
0.000000 0.000000 0.648611
0.092797 0.000000 0.642244
0.221327 0.000000 0.635877
0.349858 0.000000 0.629510
0.478389 0.000000 0.623143
0.606920 0.000000 0.616777
0.735450 0.000000 0.610410
0.862869 0.000000 0.610669
0.990135 0.000000 0.611835
0.000000 0.105226 0.636111
0.097569 0.107657 0.629744
0.226100 0.110088 0.623378
0.354630 0.112518 0.617011
0.483161 0.114949 0.610644
0.610626 0.116314 0.610626
0.737892 0.117480 0.611792
0.865158 0.118646 0.612958
0.992424 0.119812 0.614124
0.000000 0.236098 0.623612
0.102341 0.238529 0.617245
0.230872 0.240960 0.610878
0.358383 0.242371 0.610583
0.485649 0.243537 0.611749
0.612915 0.244703 0.612915
0.740181 0.245869 0.614081
0.867447 0.247035 0.615247
0.994714 0.248202 0.616414
0.000000 0.366970 0.611112
0.106140 0.368428 0.610540
0.233406 0.369594 0.611706
0.360672 0.370760 0.612872
0.487938 0.371926 0.614038
0.615205 0.373093 0.615205
0.742471 0.374259 0.616371
0.869737 0.375425 0.617537
0.997003 0.376591 0.618703
0.000000 0.495651 0.611663
0.108429 0.496817 0.612829
0.235696 0.497984 0.613996
0.362962 0.499150 0.615162
0.490228 0.500316 0.616328
0.617494 0.501482 0.617494
0.744760 0.502648 0.618660
0.872026 0.503814 0.619826
0.999292 0.504980 0.620992
0.000000 0.624041 0.613953
0.110719 0.625207 0.615119
0.237985 0.626373 0.616285
0.365251 0.627539 0.617451
0.492517 0.628705 0.618617
0.619783 0.629871 0.619783
0.747049 0.631037 0.620949
0.874315 0.632203 0.622115
1.000000 0.634662 0.619580
0.000000 0.752430 0.616242
0.113008 0.753596 0.617408
0.240274 0.754762 0.618574
0.367540 0.755928 0.619740
0.494806 0.757094 0.620906
0.622072 0.758260 0.622072
0.752987 0.760671 0.619675
0.884068 0.763138 0.617115
1.000000 0.765606 0.614555
0.000000 0.880819 0.618531
0.115297 0.881985 0.619697
0.242563 0.883151 0.620863
0.369830 0.884318 0.622030
0.500604 0.886680 0.619769
0.631685 0.889148 0.617209
0.762766 0.891615 0.614649
0.893847 0.894082 0.612089
1.000000 0.896550 0.609529
0.000000 1.000000 0.620821
0.117587 1.000000 0.621987
0.248221 1.000000 0.619863
0.379302 1.000000 0.617303
0.510383 1.000000 0.614743
0.641464 1.000000 0.612183
0.772544 1.000000 0.609623
0.903625 1.000000 0.607063
1.000000 1.000000 0.604503
0.000000 0.000000 0.772283
0.093724 0.000000 0.765916
0.222254 0.000000 0.759550
0.350785 0.000000 0.753183
0.479316 0.000000 0.746816
0.607847 0.000000 0.740449
0.736047 0.000000 0.736047
0.863313 0.000000 0.737213
0.990580 0.000000 0.738380
0.000000 0.106153 0.759784
0.098496 0.108584 0.753417
0.227026 0.111014 0.747050
0.355557 0.113445 0.740683
0.483804 0.115592 0.736004
0.611071 0.116759 0.737171
0.738337 0.117925 0.738337
0.865603 0.119091 0.739503
0.992869 0.120257 0.740669
0.000000 0.237025 0.747284
0.103268 0.239456 0.740918
0.231562 0.241650 0.735962
0.358828 0.242816 0.737128
0.486094 0.243982 0.738294
0.613360 0.245148 0.739460
0.740626 0.246314 0.740626
0.867892 0.247480 0.741792
0.995158 0.248646 0.742958
0.000000 0.367707 0.735919
0.106585 0.368873 0.737085
0.233851 0.370039 0.738251
0.361117 0.371205 0.739417
0.488383 0.372371 0.740583
0.615649 0.373537 0.741749
0.742915 0.374703 0.742915
0.870181 0.375869 0.744081
0.997447 0.377035 0.745247
0.000000 0.496096 0.738208
0.108874 0.497262 0.739374
0.236140 0.498428 0.740540
0.363406 0.499594 0.741706
0.490672 0.500760 0.742872
0.617938 0.501926 0.744038
0.745205 0.503093 0.745205
0.872471 0.504259 0.746371
0.999737 0.505425 0.747537
0.000000 0.624485 0.740497
0.111163 0.625651 0.741663
0.238429 0.626817 0.742829
0.365696 0.627984 0.743996
0.492962 0.629150 0.745162
0.620228 0.630316 0.746328
0.747494 0.631482 0.747494
0.876189 0.633135 0.747264
1.000000 0.635603 0.744704
0.000000 0.752875 0.742787
0.113453 0.754041 0.743953
0.240719 0.755207 0.745119
0.367985 0.756373 0.746285
0.495251 0.757539 0.747451
0.623806 0.759145 0.747358
0.754887 0.761612 0.744799
0.885967 0.764079 0.742239
1.000000 0.766546 0.739679
0.000000 0.881264 0.745076
0.115742 0.882430 0.746242
0.243008 0.883596 0.747408
0.371422 0.885154 0.747453
0.502503 0.887621 0.744893
0.633584 0.890088 0.742333
0.764665 0.892556 0.739773
0.895746 0.895023 0.737213
1.000000 0.897490 0.734653
0.000000 1.000000 0.747365
0.119039 1.000000 0.747547
0.250120 1.000000 0.744987
0.381201 1.000000 0.742427
0.512282 1.000000 0.739867
0.643363 1.000000 0.737307
0.774444 1.000000 0.734747
0.905524 1.000000 0.732187
1.000000 1.000000 0.729627
0.000000 0.000000 0.895956
0.094650 0.000000 0.889589
0.223181 0.000000 0.883222
0.351712 0.000000 0.876855
0.480243 0.000000 0.870488
0.608773 0.000000 0.864122
0.736492 0.000000 0.862592
0.863758 0.000000 0.863758
0.991024 0.000000 0.864924
0.000000 0.107080 0.883456
0.099422 0.109510 0.877089
0.227953 0.111941 0.870723
0.356484 0.114372 0.864356
0.484249 0.116037 0.862549
0.611515 0.117203 0.863715
0.738781 0.118369 0.864881
0.866047 0.119535 0.866047
0.993313 0.120701 0.867213
0.000000 0.237952 0.870957
0.104194 0.240382 0.864590
0.232006 0.242094 0.862506
0.359272 0.243260 0.863672
0.486538 0.244426 0.864838
0.613804 0.245592 0.866004
0.741071 0.246759 0.867171
0.868337 0.247925 0.868337
0.995603 0.249091 0.869503
0.000000 0.368151 0.862463
0.107029 0.369317 0.863629
0.234295 0.370483 0.864795
0.361562 0.371650 0.865962
0.488828 0.372816 0.867128
0.616094 0.373982 0.868294
0.743360 0.375148 0.869460
0.870626 0.376314 0.870626
0.997892 0.377480 0.871792
0.000000 0.496541 0.864753
0.109319 0.497707 0.865919
0.236585 0.498873 0.867085
0.363851 0.500039 0.868251
0.491117 0.501205 0.869417
0.618383 0.502371 0.870583
0.745649 0.503537 0.871749
0.872915 0.504703 0.872915
1.000000 0.505869 0.874081
0.000000 0.624930 0.867042
0.111608 0.626096 0.868208
0.238874 0.627262 0.869374
0.366140 0.628428 0.870540
0.493406 0.629594 0.871706
0.620672 0.630760 0.872872
0.747938 0.631926 0.874038
0.878088 0.634076 0.872388
1.000000 0.636543 0.869828
0.000000 0.753319 0.869331
0.113897 0.754485 0.870497
0.241163 0.755651 0.871663
0.368429 0.756817 0.872829
0.495696 0.757984 0.873996
0.625705 0.760085 0.872482
0.756786 0.762553 0.869923
0.887866 0.765020 0.867363
1.000000 0.767487 0.864803
0.000000 0.881708 0.871620
0.116187 0.882875 0.872787
0.243453 0.884041 0.873953
0.373321 0.886095 0.872577
0.504402 0.888562 0.870017
0.635483 0.891029 0.867457
0.766564 0.893496 0.864897
0.897645 0.895964 0.862337
1.000000 0.898431 0.859777
0.000000 1.000000 0.873910
0.120938 1.000000 0.872671
0.252019 1.000000 0.870111
0.383100 1.000000 0.867551
0.514181 1.000000 0.864991
0.645262 1.000000 0.862431
0.776343 1.000000 0.859871
0.907424 1.000000 0.857311
1.000000 1.000000 0.854751
0.000000 0.000000 1.000000
0.095577 0.000000 1.000000
0.224108 0.000000 1.000000
0.352639 0.000000 1.000000
0.481169 0.000000 0.994161
0.609670 0.000000 0.987970
0.736937 0.000000 0.989137
0.864203 0.000000 0.990303
0.991469 0.000000 0.991469
0.000000 0.108006 1.000000
0.100349 0.110437 1.000000
0.228880 0.112868 0.994395
0.357411 0.115299 0.988028
0.484694 0.116482 0.989094
0.611960 0.117648 0.990260
0.739226 0.118814 0.991426
0.866492 0.119980 0.992592
0.993758 0.121146 0.993758
0.000000 0.238878 0.994629
0.105121 0.241309 0.988263
0.232451 0.242539 0.989051
0.359717 0.243705 0.990217
0.486983 0.244871 0.991383
0.614249 0.246037 0.992549
0.741515 0.247203 0.993715
0.868781 0.248369 0.994881
0.996047 0.249535 0.996047
0.000000 0.368596 0.989008
0.107474 0.369762 0.990174
0.234740 0.370928 0.991340
0.362006 0.372094 0.992506
0.489272 0.373260 0.993672
0.616538 0.374426 0.994838
0.743804 0.375592 0.996004
0.871071 0.376759 0.997171
0.998337 0.377925 0.998337
0.000000 0.496985 0.991297
0.109763 0.498151 0.992463
0.237029 0.499317 0.993629
0.364295 0.500483 0.994795
0.491562 0.501650 0.995962
0.618828 0.502816 0.997128
0.746094 0.503982 0.998294
0.873360 0.505148 0.999460
1.000000 0.506540 0.999978
0.000000 0.625374 0.993586
0.112053 0.626541 0.994753
0.239319 0.627707 0.995919
0.366585 0.628873 0.997085
0.493851 0.630039 0.998251
0.621117 0.631205 0.999417
0.748906 0.632549 1.000000
0.879987 0.635017 0.997512
1.000000 0.637484 0.994952
0.000000 0.753764 0.995876
0.114342 0.754930 0.997042
0.241608 0.756096 0.998208
0.368874 0.757262 0.999374
0.496523 0.758559 1.000000
0.627604 0.761026 0.997606
0.758685 0.763493 0.995046
0.889766 0.765961 0.992487
1.000000 0.768428 0.989927
0.000000 0.882153 0.998165
0.116631 0.883319 0.999331
0.244140 0.884568 1.000000
0.375221 0.887035 0.997701
0.506301 0.889503 0.995141
0.637382 0.891970 0.992581
0.768463 0.894437 0.990021
0.899544 0.896904 0.987461
1.000000 0.899372 0.984901
0.000000 1.000000 1.000000
0.122837 1.000000 0.997795
0.253918 1.000000 0.995235
0.384999 1.000000 0.992675
0.516080 1.000000 0.990115
0.647161 1.000000 0.987555
0.778242 1.000000 0.984995
0.909323 1.000000 0.982435
1.000000 1.000000 0.979875
