tools/fandomforge/assets/color_luts/re9-good-ending.cube
TITLE "re9-good-ending-RE9"
LUT_3D_SIZE 17
0.000000 0.000000 0.005100
0.048654 0.000000 0.004471
0.112408 0.000000 0.003842
0.176162 0.000000 0.003213
0.239917 0.000000 0.002583
0.303671 0.000000 0.001954
0.367425 0.000000 0.001325
0.431179 0.000000 0.000696
0.494933 0.000000 0.000067
0.558687 0.000000 0.000000
0.622441 0.000000 0.000000
0.686196 0.000000 0.000000
0.749950 0.000000 0.000000
0.813704 0.000000 0.000000
0.877458 0.000000 0.000000
0.941212 0.000000 0.000000
1.000000 0.000000 0.000000
0.000000 0.058125 0.003865
0.049889 0.058125 0.003236
0.113643 0.058125 0.002607
0.177398 0.058125 0.001977
0.241152 0.058125 0.001348
0.304906 0.058125 0.000719
0.368660 0.058125 0.000090
0.432414 0.058125 0.000000
0.496168 0.058125 0.000000
0.559922 0.058125 0.000000
0.623677 0.058125 0.000000
0.687431 0.058125 0.000000
0.751185 0.058125 0.000000
0.814939 0.058125 0.000000
0.878693 0.058125 0.000000
0.941875 0.058125 0.000000
1.000000 0.058125 0.000000
0.000000 0.121250 0.002630
0.051124 0.121250 0.002001
0.114879 0.121250 0.001371
0.178633 0.121250 0.000742
0.242387 0.121250 0.000113
0.306141 0.121250 0.000000
0.369895 0.121250 0.000000
0.433649 0.121250 0.000000
0.497403 0.121250 0.000000
0.561158 0.121250 0.000000
0.624912 0.121250 0.000000
0.688666 0.121250 0.000000
0.752420 0.121250 0.000000
0.815625 0.121250 0.000000
0.878750 0.121250 0.000000
0.941875 0.121250 0.000000
1.000000 0.121250 0.000000
0.000000 0.184375 0.001395
0.052360 0.184375 0.000765
0.116114 0.184375 0.000136
0.179868 0.184375 0.000000
0.243622 0.184375 0.000000
0.307376 0.184375 0.000000
0.371130 0.184375 0.000000
0.434884 0.184375 0.000000
0.498639 0.184375 0.000000
0.562393 0.184375 0.000000
0.626147 0.184375 0.000000
0.689375 0.184375 0.000000
0.752500 0.184375 0.000000
0.815625 0.184375 0.000000
0.878750 0.184375 0.000000
0.941875 0.184375 0.000000
1.000000 0.184375 0.000000
0.000000 0.247500 0.000159
0.053595 0.247500 0.000000
0.117349 0.247500 0.000000
0.181103 0.247500 0.000000
0.244857 0.247500 0.000000
0.308611 0.247500 0.000000
0.372365 0.247500 0.000000
0.436120 0.247500 0.000000
0.499874 0.247500 0.000000
0.563125 0.247500 0.000000
0.626250 0.247500 0.000000
0.689375 0.247500 0.000000
0.752500 0.247500 0.000000
0.815625 0.247500 0.000000
0.878750 0.247500 0.000000
0.941875 0.247500 0.000000
1.000000 0.247500 0.000000
0.000000 0.310625 0.000000
0.054830 0.310625 0.000000
0.118584 0.310625 0.000000
0.182338 0.310625 0.000000
0.246092 0.310625 0.000000
0.309846 0.310625 0.000000
0.373601 0.310625 0.000000
0.436875 0.310625 0.000000
0.500000 0.310625 0.000000
0.563125 0.310625 0.000000
0.626250 0.310625 0.000000
0.689375 0.310625 0.000000
0.752500 0.310625 0.000000
0.815625 0.310625 0.000000
0.878750 0.310625 0.000000
0.941875 0.310625 0.000000
1.000000 0.310625 0.000000
0.000000 0.373750 0.000000
0.056065 0.373750 0.000000
0.119819 0.373750 0.000000
0.183573 0.373750 0.000000
0.247327 0.373750 0.000000
0.310625 0.373750 0.000000
0.373750 0.373750 0.000000
0.436875 0.373750 0.000000
0.500000 0.373750 0.000000
0.563125 0.373750 0.000000
0.626250 0.373750 0.000000
0.689375 0.373750 0.000000
0.752500 0.373750 0.000000
0.815625 0.373750 0.000000
0.878750 0.373750 0.000000
0.941875 0.373750 0.000000
1.000000 0.373750 0.000000
0.000000 0.436875 0.000000
0.057300 0.436875 0.000000
0.121054 0.436875 0.000000
0.184375 0.436875 0.000000
0.247500 0.436875 0.000000
0.310625 0.436875 0.000000
0.373750 0.436875 0.000000
0.436875 0.436875 0.000000
0.500000 0.436875 0.000000
0.563125 0.436875 0.000000
0.626250 0.436875 0.000000
0.689375 0.436875 0.000000
0.752500 0.436875 0.000000
0.815625 0.436875 0.000000
0.878750 0.436875 0.000000
0.941875 0.436875 0.000000
1.000000 0.436875 0.000000
0.000000 0.500000 0.000000
0.058125 0.500000 0.000000
0.121250 0.500000 0.000000
0.184375 0.500000 0.000000
0.247500 0.500000 0.000000
0.310625 0.500000 0.000000
0.373750 0.500000 0.000000
0.436875 0.500000 0.000000
0.500000 0.500000 0.000000
0.563125 0.500000 0.000000
0.626250 0.500000 0.000000
0.689375 0.500000 0.000000
0.752500 0.500000 0.000000
0.815625 0.500000 0.000000
0.878750 0.500000 0.000000
0.941875 0.500000 0.000000
1.000000 0.500000 0.000000
0.000000 0.563125 0.000000
0.058125 0.563125 0.000000
0.121250 0.563125 0.000000
0.184375 0.563125 0.000000
0.247500 0.563125 0.000000
0.310625 0.563125 0.000000
0.373750 0.563125 0.000000
0.436875 0.563125 0.000000
0.500000 0.563125 0.000000
0.563125 0.563125 0.000000
0.626250 0.563125 0.000000
0.689375 0.563125 0.000000
0.752500 0.563125 0.000000
0.815625 0.563125 0.000000
0.878750 0.563125 0.000000
0.941875 0.563125 0.000000
1.000000 0.563125 0.000000
0.000000 0.626250 0.000000
0.058125 0.626250 0.000000
0.121250 0.626250 0.000000
0.184375 0.626250 0.000000
0.247500 0.626250 0.000000
0.310625 0.626250 0.000000
0.373750 0.626250 0.000000
0.436875 0.626250 0.000000
0.500000 0.626250 0.000000
0.563125 0.626250 0.000000
0.626250 0.626250 0.000000
0.689375 0.626250 0.000000
0.752500 0.626250 0.000000
0.815625 0.626250 0.000000
0.878750 0.626250 0.000000
0.941875 0.626250 0.000000
1.000000 0.626250 0.000000
0.000000 0.689375 0.000000
0.058125 0.689375 0.000000
0.121250 0.689375 0.000000
0.184375 0.689375 0.000000
0.247500 0.689375 0.000000
0.310625 0.689375 0.000000
0.373750 0.689375 0.000000
0.436875 0.689375 0.000000
0.500000 0.689375 0.000000
0.563125 0.689375 0.000000
0.626250 0.689375 0.000000
0.689375 0.689375 0.000000
0.752500 0.689375 0.000000
0.815625 0.689375 0.000000
0.878750 0.689375 0.000000
0.941875 0.689375 0.000000
1.000000 0.689375 0.000000
0.000000 0.752500 0.000000
0.058125 0.752500 0.000000
0.121250 0.752500 0.000000
0.184375 0.752500 0.000000
0.247500 0.752500 0.000000
0.310625 0.752500 0.000000
0.373750 0.752500 0.000000
0.436875 0.752500 0.000000
0.500000 0.752500 0.000000
0.563125 0.752500 0.000000
0.626250 0.752500 0.000000
0.689375 0.752500 0.000000
0.752500 0.752500 0.000000
0.815625 0.752500 0.000000
0.878813 0.752500 0.000000
0.942567 0.752500 0.000000
1.000000 0.752500 0.000000
0.000000 0.815625 0.000000
0.058125 0.815625 0.000000
0.121250 0.815625 0.000000
0.184375 0.815625 0.000000
0.247500 0.815625 0.000000
0.310625 0.815625 0.000000
0.373750 0.815625 0.000000
0.436875 0.815625 0.000000
0.500000 0.815625 0.000000
0.563125 0.815625 0.000000
0.626250 0.815625 0.000000
0.689375 0.815625 0.000000
0.752540 0.815625 0.000000
0.816294 0.815625 0.000000
0.880048 0.815625 0.000000
0.943802 0.815625 0.000000
1.000000 0.815625 0.000000
0.000000 0.878750 0.000000
0.058125 0.878750 0.000000
0.121250 0.878750 0.000000
0.184375 0.878750 0.000000
0.247500 0.878750 0.000000
0.310625 0.878750 0.000000
0.373750 0.878750 0.000000
0.436875 0.878750 0.000000
0.500000 0.878750 0.000000
0.563125 0.878750 0.000000
0.626267 0.878750 0.000000
0.690021 0.878750 0.000000
0.753775 0.878750 0.000000
0.817529 0.878750 0.000000
0.881283 0.878750 0.000000
0.945038 0.878750 0.000000
1.000000 0.878750 0.000000
0.000000 0.941875 0.000000
0.058125 0.941875 0.000000
0.121250 0.941875 0.000000
0.184375 0.941875 0.000000
0.247500 0.941875 0.000000
0.310625 0.941875 0.000000
0.373750 0.941875 0.000000
0.436875 0.941875 0.000000
0.500000 0.941875 0.000000
0.563748 0.941875 0.000000
0.627502 0.941875 0.000000
0.691256 0.941875 0.000000
0.755010 0.941875 0.000000
0.818764 0.941875 0.000000
0.882519 0.941875 0.000000
0.946273 0.941875 0.000000
1.000000 0.941875 0.000000
0.000000 1.000000 0.000000
0.058125 1.000000 0.000000
0.121250 1.000000 0.000000
0.184375 1.000000 0.000000
0.247500 1.000000 0.000000
0.310625 1.000000 0.000000
0.373750 1.000000 0.000000
0.437475 1.000000 0.000000
0.501229 1.000000 0.000000
0.564983 1.000000 0.000000
0.628737 1.000000 0.000000
0.692491 1.000000 0.000000
0.756245 1.000000 0.000000
0.820000 1.000000 0.000000
0.883754 1.000000 0.000000
0.947508 1.000000 0.000000
1.000000 1.000000 0.000000
0.000000 0.000000 0.067985
0.048894 0.000000 0.067356
0.112648 0.000000 0.066727
0.176402 0.000000 0.066098
0.240156 0.000000 0.065469
0.303911 0.000000 0.064839
0.367665 0.000000 0.064210
0.431419 0.000000 0.063581
0.495173 0.000000 0.062952
0.558927 0.000000 0.062323
0.622681 0.000000 0.061694
0.686435 0.000000 0.061065
0.750190 0.000000 0.060435
0.813944 0.000000 0.059806
0.877698 0.000000 0.059177
0.941452 0.000000 0.058548
1.000000 0.000000 0.058125
0.000000 0.058125 0.066750
0.050129 0.058125 0.066121
0.113883 0.058125 0.065492
0.177637 0.058125 0.064863
0.241392 0.058125 0.064233
0.305146 0.058125 0.063604
0.368900 0.058125 0.062975
0.432654 0.058125 0.062346
0.496408 0.058125 0.061717
0.560162 0.058125 0.061088
0.623916 0.058125 0.060459
0.687671 0.058125 0.059829
0.751425 0.058125 0.059200
0.815179 0.058125 0.058571
0.878750 0.058125 0.058125
0.941875 0.058125 0.058125
1.000000 0.058125 0.058125
0.000000 0.121250 0.065515
0.051364 0.121250 0.064886
0.115118 0.121250 0.064257
0.178873 0.121250 0.063627
0.242627 0.121250 0.062998
0.306381 0.121250 0.062369
0.370135 0.121250 0.061740
0.433889 0.121250 0.061111
0.497643 0.121250 0.060482
0.561397 0.121250 0.059853
0.625152 0.121250 0.059223
0.688906 0.121250 0.058594
0.752500 0.121250 0.058125
0.815625 0.121250 0.058125
0.878750 0.121250 0.058125
0.941875 0.121250 0.058125
1.000000 0.121250 0.058125
0.000000 0.184375 0.064280
0.052599 0.184375 0.063651
0.116354 0.184375 0.063021
0.180108 0.184375 0.062392
0.243862 0.184375 0.061763
0.307616 0.184375 0.061134
0.371370 0.184375 0.060505
0.435124 0.184375 0.059876
0.498878 0.184375 0.059247
0.562633 0.184375 0.058617
0.626250 0.184375 0.058125
0.689375 0.184375 0.058125
0.752500 0.184375 0.058125
0.815625 0.184375 0.058125
0.878750 0.184375 0.058125
0.941875 0.184375 0.058125
1.000000 0.184375 0.058125
0.000000 0.247500 0.063045
0.053835 0.247500 0.062415
0.117589 0.247500 0.061786
0.181343 0.247500 0.061157
0.245097 0.247500 0.060528
0.308851 0.247500 0.059899
0.372605 0.247500 0.059270
0.436359 0.247500 0.058641
0.500000 0.247500 0.058125
0.563125 0.247500 0.058125
0.626250 0.247500 0.058125
0.689375 0.247500 0.058125
0.752500 0.247500 0.058125
0.815625 0.247500 0.058125
0.878750 0.247500 0.058125
0.941875 0.247500 0.058125
1.000000 0.247500 0.058125
0.000000 0.310625 0.061809
0.055070 0.310625 0.061180
0.118824 0.310625 0.060551
0.182578 0.310625 0.059922
0.246332 0.310625 0.059293
0.310086 0.310625 0.058664
0.373750 0.310625 0.058125
0.436875 0.310625 0.058125
0.500000 0.310625 0.058125
0.563125 0.310625 0.058125
0.626250 0.310625 0.058125
0.689375 0.310625 0.058125
0.752500 0.310625 0.058125
0.815625 0.310625 0.058125
0.878750 0.310625 0.058125
0.941875 0.310625 0.058125
1.000000 0.310625 0.058125
0.000000 0.373750 0.060574
0.056305 0.373750 0.059945
0.120059 0.373750 0.059316
0.183813 0.373750 0.058687
0.247500 0.373750 0.058125
0.310625 0.373750 0.058125
0.373750 0.373750 0.058125
0.436875 0.373750 0.058125
0.500000 0.373750 0.058125
0.563125 0.373750 0.058125
0.626250 0.373750 0.058125
0.689375 0.373750 0.058125
0.752500 0.373750 0.058125
0.815625 0.373750 0.058125
0.878750 0.373750 0.058125
0.941875 0.373750 0.058125
1.000000 0.373750 0.058125
0.000000 0.436875 0.059339
0.057540 0.436875 0.058710
0.121250 0.436875 0.058125
0.184375 0.436875 0.058125
0.247500 0.436875 0.058125
0.310625 0.436875 0.058125
0.373750 0.436875 0.058125
0.436875 0.436875 0.058125
0.500000 0.436875 0.058125
0.563125 0.436875 0.058125
0.626250 0.436875 0.058125
0.689375 0.436875 0.058125
0.752500 0.436875 0.058125
0.815625 0.436875 0.058125
0.878750 0.436875 0.058125
0.941875 0.436875 0.058125
1.000000 0.436875 0.058125
0.000000 0.500000 0.058125
0.058125 0.500000 0.058125
0.121250 0.500000 0.058125
0.184375 0.500000 0.058125
0.247500 0.500000 0.058125
0.310625 0.500000 0.058125
0.373750 0.500000 0.058125
0.436875 0.500000 0.058125
0.500000 0.500000 0.058125
0.563125 0.500000 0.058125
0.626250 0.500000 0.058125
0.689375 0.500000 0.058125
0.752500 0.500000 0.058125
0.815625 0.500000 0.058125
0.878750 0.500000 0.058125
0.941875 0.500000 0.058125
1.000000 0.500000 0.058125
0.000000 0.563125 0.058125
0.058125 0.563125 0.058125
0.121250 0.563125 0.058125
0.184375 0.563125 0.058125
0.247500 0.563125 0.058125
0.310625 0.563125 0.058125
0.373750 0.563125 0.058125
0.436875 0.563125 0.058125
0.500000 0.563125 0.058125
0.563125 0.563125 0.058125
0.626250 0.563125 0.058125
0.689375 0.563125 0.058125
0.752500 0.563125 0.058125
0.815625 0.563125 0.058125
0.878750 0.563125 0.058125
0.941875 0.563125 0.058125
1.000000 0.563125 0.058125
0.000000 0.626250 0.058125
0.058125 0.626250 0.058125
0.121250 0.626250 0.058125
0.184375 0.626250 0.058125
0.247500 0.626250 0.058125
0.310625 0.626250 0.058125
0.373750 0.626250 0.058125
0.436875 0.626250 0.058125
0.500000 0.626250 0.058125
0.563125 0.626250 0.058125
0.626250 0.626250 0.058125
0.689375 0.626250 0.058125
0.752500 0.626250 0.058125
0.815625 0.626250 0.058125
0.878750 0.626250 0.058125
0.941875 0.626250 0.058125
1.000000 0.626250 0.058125
0.000000 0.689375 0.058125
0.058125 0.689375 0.058125
0.121250 0.689375 0.058125
0.184375 0.689375 0.058125
0.247500 0.689375 0.058125
0.310625 0.689375 0.058125
0.373750 0.689375 0.058125
0.436875 0.689375 0.058125
0.500000 0.689375 0.058125
0.563125 0.689375 0.058125
0.626250 0.689375 0.058125
0.689375 0.689375 0.058125
0.752500 0.689375 0.058125
0.815625 0.689375 0.058125
0.878750 0.689375 0.058125
0.941875 0.689375 0.058125
1.000000 0.689375 0.057799
0.000000 0.752500 0.058125
0.058125 0.752500 0.058125
0.121250 0.752500 0.058125
0.184375 0.752500 0.058125
0.247500 0.752500 0.058125
0.310625 0.752500 0.058125
0.373750 0.752500 0.058125
0.436875 0.752500 0.058125
0.500000 0.752500 0.058125
0.563125 0.752500 0.058125
0.626250 0.752500 0.058125
0.689375 0.752500 0.058125
0.752500 0.752500 0.058125
0.815625 0.752500 0.058125
0.879053 0.752500 0.057822
0.942807 0.752500 0.057193
1.000000 0.752500 0.056564
0.000000 0.815625 0.058125
0.058125 0.815625 0.058125
0.121250 0.815625 0.058125
0.184375 0.815625 0.058125
0.247500 0.815625 0.058125
0.310625 0.815625 0.058125
0.373750 0.815625 0.058125
0.436875 0.815625 0.058125
0.500000 0.815625 0.058125
0.563125 0.815625 0.058125
0.626250 0.815625 0.058125
0.689375 0.815625 0.058125
0.752780 0.815625 0.057845
0.816534 0.815625 0.057216
0.880288 0.815625 0.056587
0.944042 0.815625 0.055958
1.000000 0.815625 0.055329
0.000000 0.878750 0.058125
0.058125 0.878750 0.058125
0.121250 0.878750 0.058125
0.184375 0.878750 0.058125
0.247500 0.878750 0.058125
0.310625 0.878750 0.058125
0.373750 0.878750 0.058125
0.436875 0.878750 0.058125
0.500000 0.878750 0.058125
0.563125 0.878750 0.058125
0.626507 0.878750 0.057868
0.690261 0.878750 0.057239
0.754015 0.878750 0.056610
0.817769 0.878750 0.055981
0.881523 0.878750 0.055352
0.945277 0.878750 0.054723
1.000000 0.878750 0.054093
0.000000 0.941875 0.058125
0.058125 0.941875 0.058125
0.121250 0.941875 0.058125
0.184375 0.941875 0.058125
0.247500 0.941875 0.058125
0.310625 0.941875 0.058125
0.373750 0.941875 0.058125
0.436875 0.941875 0.058125
0.500234 0.941875 0.057891
0.563988 0.941875 0.057262
0.627742 0.941875 0.056633
0.691496 0.941875 0.056004
0.755250 0.941875 0.055375
0.819004 0.941875 0.054746
0.882758 0.941875 0.054117
0.946513 0.941875 0.053487
1.000000 0.941875 0.052858
0.000000 1.000000 0.058125
0.058125 1.000000 0.058125
0.121250 1.000000 0.058125
0.184375 1.000000 0.058125
0.247500 1.000000 0.058125
0.310625 1.000000 0.058125
0.373960 1.000000 0.057915
0.437715 1.000000 0.057285
0.501469 1.000000 0.056656
0.565223 1.000000 0.056027
0.628977 1.000000 0.055398
0.692731 1.000000 0.054769
0.756485 1.000000 0.054140
0.820239 1.000000 0.053511
0.883994 1.000000 0.052881
0.947748 1.000000 0.052252
1.000000 1.000000 0.051623
0.000000 0.000000 0.130870
0.049134 0.000000 0.130241
0.112888 0.000000 0.129612
0.176642 0.000000 0.128983
0.240396 0.000000 0.128354
0.304150 0.000000 0.127725
0.367905 0.000000 0.127095
0.431659 0.000000 0.126466
0.495413 0.000000 0.125837
0.559167 0.000000 0.125208
0.622921 0.000000 0.124579
0.686675 0.000000 0.123950
0.750430 0.000000 0.123320
0.814184 0.000000 0.122691
0.877938 0.000000 0.122062
0.941692 0.000000 0.121433
1.000000 0.000000 0.121250
0.000000 0.058125 0.129635
0.050369 0.058125 0.129006
0.114123 0.058125 0.128377
0.177877 0.058125 0.127748
0.241631 0.058125 0.127119
0.305386 0.058125 0.126489
0.369140 0.058125 0.125860
0.432894 0.058125 0.125231
0.496648 0.058125 0.124602
0.560402 0.058125 0.123973
0.624156 0.058125 0.123344
0.687911 0.058125 0.122715
0.751665 0.058125 0.122085
0.815419 0.058125 0.121456
0.878750 0.058125 0.121250
0.941875 0.058125 0.121250
1.000000 0.058125 0.121250
0.000000 0.121250 0.128400
0.051604 0.121250 0.127771
0.115358 0.121250 0.127142
0.179112 0.121250 0.126513
0.242867 0.121250 0.125883
0.306621 0.121250 0.125254
0.370375 0.121250 0.124625
0.434129 0.121250 0.123996
0.497883 0.121250 0.123367
0.561637 0.121250 0.122738
0.625391 0.121250 0.122109
0.689146 0.121250 0.121479
0.752500 0.121250 0.121250
0.815625 0.121250 0.121250
0.878750 0.121250 0.121250
0.941875 0.121250 0.121250
1.000000 0.121250 0.121250
0.000000 0.184375 0.127165
0.052839 0.184375 0.126536
0.116593 0.184375 0.125907
0.180348 0.184375 0.125277
0.244102 0.184375 0.124648
0.307856 0.184375 0.124019
0.371610 0.184375 0.123390
0.435364 0.184375 0.122761
0.499118 0.184375 0.122132
0.562872 0.184375 0.121502
0.626250 0.184375 0.121250
0.689375 0.184375 0.121250
0.752500 0.184375 0.121250
0.815625 0.184375 0.121250
0.878750 0.184375 0.121250
0.941875 0.184375 0.121250
1.000000 0.184375 0.121250
0.000000 0.247500 0.125930
0.054074 0.247500 0.125301
0.117829 0.247500 0.124671
0.181583 0.247500 0.124042
0.245337 0.247500 0.123413
0.309091 0.247500 0.122784
0.372845 0.247500 0.122155
0.436599 0.247500 0.121526
0.500000 0.247500 0.121250
0.563125 0.247500 0.121250
0.626250 0.247500 0.121250
0.689375 0.247500 0.121250
0.752500 0.247500 0.121250
0.815625 0.247500 0.121250
0.878750 0.247500 0.121250
0.941875 0.247500 0.121250
1.000000 0.247500 0.121250
0.000000 0.310625 0.124695
0.055310 0.310625 0.124065
0.119064 0.310625 0.123436
0.182818 0.310625 0.122807
0.246572 0.310625 0.122178
0.310326 0.310625 0.121549
0.373750 0.310625 0.121250
0.436875 0.310625 0.121250
0.500000 0.310625 0.121250
0.563125 0.310625 0.121250
0.626250 0.310625 0.121250
0.689375 0.310625 0.121250
0.752500 0.310625 0.121250
0.815625 0.310625 0.121250
0.878750 0.310625 0.121250
0.941875 0.310625 0.121250
1.000000 0.310625 0.121250
0.000000 0.373750 0.123459
0.056545 0.373750 0.122830
0.120299 0.373750 0.122201
0.184053 0.373750 0.121572
0.247500 0.373750 0.121250
0.310625 0.373750 0.121250
0.373750 0.373750 0.121250
0.436875 0.373750 0.121250
0.500000 0.373750 0.121250
0.563125 0.373750 0.121250
0.626250 0.373750 0.121250
0.689375 0.373750 0.121250
0.752500 0.373750 0.121250
0.815625 0.373750 0.121250
0.878750 0.373750 0.121250
0.941875 0.373750 0.121250
1.000000 0.373750 0.121250
0.000000 0.436875 0.122224
0.057780 0.436875 0.121595
0.121250 0.436875 0.121250
0.184375 0.436875 0.121250
0.247500 0.436875 0.121250
0.310625 0.436875 0.121250
0.373750 0.436875 0.121250
0.436875 0.436875 0.121250
0.500000 0.436875 0.121250
0.563125 0.436875 0.121250
0.626250 0.436875 0.121250
0.689375 0.436875 0.121250
0.752500 0.436875 0.121250
0.815625 0.436875 0.121250
0.878750 0.436875 0.121250
0.941875 0.436875 0.121250
1.000000 0.436875 0.121250
0.000000 0.500000 0.121250
0.058125 0.500000 0.121250
0.121250 0.500000 0.121250
0.184375 0.500000 0.121250
0.247500 0.500000 0.121250
0.310625 0.500000 0.121250
0.373750 0.500000 0.121250
0.436875 0.500000 0.121250
0.500000 0.500000 0.121250
0.563125 0.500000 0.121250
0.626250 0.500000 0.121250
0.689375 0.500000 0.121250
0.752500 0.500000 0.121250
0.815625 0.500000 0.121250
0.878750 0.500000 0.121250
0.941875 0.500000 0.121250
1.000000 0.500000 0.121250
0.000000 0.563125 0.121250
0.058125 0.563125 0.121250
0.121250 0.563125 0.121250
0.184375 0.563125 0.121250
0.247500 0.563125 0.121250
0.310625 0.563125 0.121250
0.373750 0.563125 0.121250
0.436875 0.563125 0.121250
0.500000 0.563125 0.121250
0.563125 0.563125 0.121250
0.626250 0.563125 0.121250
0.689375 0.563125 0.121250
0.752500 0.563125 0.121250
0.815625 0.563125 0.121250
0.878750 0.563125 0.121250
0.941875 0.563125 0.121250
1.000000 0.563125 0.121250
0.000000 0.626250 0.121250
0.058125 0.626250 0.121250
0.121250 0.626250 0.121250
0.184375 0.626250 0.121250
0.247500 0.626250 0.121250
0.310625 0.626250 0.121250
0.373750 0.626250 0.121250
0.436875 0.626250 0.121250
0.500000 0.626250 0.121250
0.563125 0.626250 0.121250
0.626250 0.626250 0.121250
0.689375 0.626250 0.121250
0.752500 0.626250 0.121250
0.815625 0.626250 0.121250
0.878750 0.626250 0.121250
0.941875 0.626250 0.121250
1.000000 0.626250 0.121250
0.000000 0.689375 0.121250
0.058125 0.689375 0.121250
0.121250 0.689375 0.121250
0.184375 0.689375 0.121250
0.247500 0.689375 0.121250
0.310625 0.689375 0.121250
0.373750 0.689375 0.121250
0.436875 0.689375 0.121250
0.500000 0.689375 0.121250
0.563125 0.689375 0.121250
0.626250 0.689375 0.121250
0.689375 0.689375 0.121250
0.752500 0.689375 0.121250
0.815625 0.689375 0.121250
0.878750 0.689375 0.121250
0.941875 0.689375 0.121250
1.000000 0.689375 0.120684
0.000000 0.752500 0.121250
0.058125 0.752500 0.121250
0.121250 0.752500 0.121250
0.184375 0.752500 0.121250
0.247500 0.752500 0.121250
0.310625 0.752500 0.121250
0.373750 0.752500 0.121250
0.436875 0.752500 0.121250
0.500000 0.752500 0.121250
0.563125 0.752500 0.121250
0.626250 0.752500 0.121250
0.689375 0.752500 0.121250
0.752500 0.752500 0.121250
0.815625 0.752500 0.121250
0.879293 0.752500 0.120707
0.943047 0.752500 0.120078
1.000000 0.752500 0.119449
0.000000 0.815625 0.121250
0.058125 0.815625 0.121250
0.121250 0.815625 0.121250
0.184375 0.815625 0.121250
0.247500 0.815625 0.121250
0.310625 0.815625 0.121250
0.373750 0.815625 0.121250
0.436875 0.815625 0.121250
0.500000 0.815625 0.121250
0.563125 0.815625 0.121250
0.626250 0.815625 0.121250
0.689375 0.815625 0.121250
0.753020 0.815625 0.120730
0.816774 0.815625 0.120101
0.880528 0.815625 0.119472
0.944282 0.815625 0.118843
1.000000 0.815625 0.118214
0.000000 0.878750 0.121250
0.058125 0.878750 0.121250
0.121250 0.878750 0.121250
0.184375 0.878750 0.121250
0.247500 0.878750 0.121250
0.310625 0.878750 0.121250
0.373750 0.878750 0.121250
0.436875 0.878750 0.121250
0.500000 0.878750 0.121250
0.563125 0.878750 0.121250
0.626747 0.878750 0.120753
0.690501 0.878750 0.120124
0.754255 0.878750 0.119495
0.818009 0.878750 0.118866
0.881763 0.878750 0.118237
0.945517 0.878750 0.117608
1.000000 0.878750 0.116979
0.000000 0.941875 0.121250
0.058125 0.941875 0.121250
0.121250 0.941875 0.121250
0.184375 0.941875 0.121250
0.247500 0.941875 0.121250
0.310625 0.941875 0.121250
0.373750 0.941875 0.121250
0.436875 0.941875 0.121250
0.500473 0.941875 0.120777
0.564228 0.941875 0.120147
0.627982 0.941875 0.119518
0.691736 0.941875 0.118889
0.755490 0.941875 0.118260
0.819244 0.941875 0.117631
0.882998 0.941875 0.117002
0.946752 0.941875 0.116373
1.000000 0.941875 0.115743
0.000000 1.000000 0.121250
0.058125 1.000000 0.121250
0.121250 1.000000 0.121250
0.184375 1.000000 0.121250
0.247500 1.000000 0.121250
0.310625 1.000000 0.121250
0.374200 1.000000 0.120800
0.437954 1.000000 0.120171
0.501709 1.000000 0.119541
0.565463 1.000000 0.118912
0.629217 1.000000 0.118283
0.692971 1.000000 0.117654
0.756725 1.000000 0.117025
0.820479 1.000000 0.116396
0.884233 1.000000 0.115767
0.947988 1.000000 0.115137
1.000000 1.000000 0.114508
0.000000 0.000000 0.193755
0.049374 0.000000 0.193126
0.113128 0.000000 0.192497
0.176882 0.000000 0.191868
0.240636 0.000000 0.191239
0.304390 0.000000 0.190610
0.368144 0.000000 0.189980
0.431899 0.000000 0.189351
0.495653 0.000000 0.188722
0.559407 0.000000 0.188093
0.623161 0.000000 0.187464
0.686915 0.000000 0.186835
0.750669 0.000000 0.186206
0.814424 0.000000 0.185576
0.878178 0.000000 0.184947
0.941875 0.000000 0.184375
1.000000 0.000000 0.184375
0.000000 0.058125 0.192520
0.050609 0.058125 0.191891
0.114363 0.058125 0.191262
