tools/fandomforge/assets/color_luts/re9-good-ending.cube
TITLE "re9-good-ending-RE9"
LUT_3D_SIZE 5
0.000000 0.000000 0.005100
0.239917 0.000000 0.002583
0.494933 0.000000 0.000067
0.749950 0.000000 0.000000
1.000000 0.000000 0.000000
0.000000 0.247500 0.000159
0.244857 0.247500 0.000000
0.499874 0.247500 0.000000
0.752500 0.247500 0.000000
1.000000 0.247500 0.000000
0.000000 0.500000 0.000000
0.247500 0.500000 0.000000
0.500000 0.500000 0.000000
0.752500 0.500000 0.000000
1.000000 0.500000 0.000000
0.000000 0.752500 0.000000
0.247500 0.752500 0.000000
0.500000 0.752500 0.000000
0.752500 0.752500 0.000000
1.000000 0.752500 0.000000
0.000000 1.000000 0.000000
0.247500 1.000000 0.000000
0.501229 1.000000 0.000000
0.756245 1.000000 0.000000
1.000000 1.000000 0.000000
0.000000 0.000000 0.256640
0.240876 0.000000 0.254124
0.495893 0.000000 0.251607
0.750909 0.000000 0.249091
1.000000 0.000000 0.247500
0.000000 0.247500 0.251700
0.245817 0.247500 0.249183
0.500000 0.247500 0.247500
0.752500 0.247500 0.247500
1.000000 0.247500 0.247500
0.000000 0.500000 0.247500
0.247500 0.500000 0.247500
0.500000 0.500000 0.247500
0.752500 0.500000 0.247500
1.000000 0.500000 0.247500
0.000000 0.752500 0.247500
0.247500 0.752500 0.247500
0.500000 0.752500 0.247500
0.752500 0.752500 0.247500
1.000000 0.752500 0.245219
0.000000 1.000000 0.247500
0.247500 1.000000 0.247500
0.502188 1.000000 0.245312
0.757205 1.000000 0.242795
1.000000 1.000000 0.240279
0.000000 0.000000 0.508181
0.241836 0.000000 0.505664
0.496852 0.000000 0.503148
0.751869 0.000000 0.500631
1.000000 0.000000 0.500000
0.000000 0.247500 0.503240
0.246776 0.247500 0.500724
0.500000 0.247500 0.500000
0.752500 0.247500 0.500000
1.000000 0.247500 0.500000
0.000000 0.500000 0.500000
0.247500 0.500000 0.500000
0.500000 0.500000 0.500000
0.752500 0.500000 0.500000
1.000000 0.500000 0.500000
0.000000 0.752500 0.500000
0.247500 0.752500 0.500000
0.500000 0.752500 0.500000
0.753224 0.752500 0.499276
1.000000 0.752500 0.496760
0.000000 1.000000 0.500000
0.248131 1.000000 0.499369
0.503148 1.000000 0.496852
0.758164 1.000000 0.494336
1.000000 1.000000 0.491819
0.000000 0.000000 0.759721
0.242795 0.000000 0.757205
0.497812 0.000000 0.754688
0.752500 0.000000 0.752500
1.000000 0.000000 0.752500
0.000000 0.247500 0.754781
0.247500 0.247500 0.752500
0.500000 0.247500 0.752500
0.752500 0.247500 0.752500
1.000000 0.247500 0.752500
0.000000 0.500000 0.752500
0.247500 0.500000 0.752500
0.500000 0.500000 0.752500
0.752500 0.500000 0.752500
1.000000 0.500000 0.752500
0.000000 0.752500 0.752500
0.247500 0.752500 0.752500
0.500000 0.752500 0.752500
0.754183 0.752500 0.750817
1.000000 0.752500 0.748300
0.000000 1.000000 0.752500
0.249091 1.000000 0.750909
0.504107 1.000000 0.748393
0.759124 1.000000 0.745876
1.000000 1.000000 0.743359
0.000000 0.000000 1.000000
0.243755 0.000000 1.000000
0.498771 0.000000 1.000000
0.752500 0.000000 1.000000
1.000000 0.000000 1.000000
0.000000 0.247500 1.000000
0.247500 0.247500 1.000000
0.500000 0.247500 1.000000
0.752500 0.247500 1.000000
1.000000 0.247500 1.000000
0.000000 0.500000 1.000000
0.247500 0.500000 1.000000
0.500000 0.500000 1.000000
0.752500 0.500000 1.000000
1.000000 0.500000 1.000000
0.000000 0.752500 1.000000
0.247500 0.752500 1.000000
0.500126 0.752500 1.000000
0.755143 0.752500 1.000000
1.000000 0.752500 0.999841
0.000000 1.000000 1.000000
0.250050 1.000000 1.000000
0.505067 1.000000 0.999933
0.760083 1.000000 0.997417
1.000000 1.000000 0.994900
