tools/fandomforge/assets/color_luts/re9-good-ending.cube
TITLE "re9-good-ending-RE9"
LUT_3D_SIZE 9
0.000000 0.000000 0.005100
0.112408 0.000000 0.003842
0.239917 0.000000 0.002583
0.367425 0.000000 0.001325
0.494933 0.000000 0.000067
0.622441 0.000000 0.000000
0.749950 0.000000 0.000000
0.877458 0.000000 0.000000
1.000000 0.000000 0.000000
0.000000 0.121250 0.002630
0.114879 0.121250 0.001371
0.242387 0.121250 0.000113
0.369895 0.121250 0.000000
0.497403 0.121250 0.000000
0.624912 0.121250 0.000000
0.752420 0.121250 0.000000
0.878750 0.121250 0.000000
1.000000 0.121250 0.000000
0.000000 0.247500 0.000159
0.117349 0.247500 0.000000
0.244857 0.247500 0.000000
0.372365 0.247500 0.000000
0.499874 0.247500 0.000000
0.626250 0.247500 0.000000
0.752500 0.247500 0.000000
0.878750 0.247500 0.000000
1.000000 0.247500 0.000000
0.000000 0.373750 0.000000
0.119819 0.373750 0.000000
0.247327 0.373750 0.000000
0.373750 0.373750 0.000000
0.500000 0.373750 0.000000
0.626250 0.373750 0.000000
0.752500 0.373750 0.000000
0.878750 0.373750 0.000000
1.000000 0.373750 0.000000
0.000000 0.500000 0.000000
0.121250 0.500000 0.000000
0.247500 0.500000 0.000000
0.373750 0.500000 0.000000
0.500000 0.500000 0.000000
0.626250 0.500000 0.000000
0.752500 0.500000 0.000000
0.878750 0.500000 0.000000
1.000000 0.500000 0.000000
0.000000 0.626250 0.000000
0.121250 0.626250 0.000000
0.247500 0.626250 0.000000
0.373750 0.626250 0.000000
0.500000 0.626250 0.000000
0.626250 0.626250 0.000000
0.752500 0.626250 0.000000
0.878750 0.626250 0.000000
1.000000 0.626250 0.000000
0.000000 0.752500 0.000000
0.121250 0.752500 0.000000
0.247500 0.752500 0.000000
0.373750 0.752500 0.000000
0.500000 0.752500 0.000000
0.626250 0.752500 0.000000
0.752500 0.752500 0.000000
0.878813 0.752500 0.000000
1.000000 0.752500 0.000000
0.000000 0.878750 0.000000
0.121250 0.878750 0.000000
0.247500 0.878750 0.000000
0.373750 0.878750 0.000000
0.500000 0.878750 0.000000
0.626267 0.878750 0.000000
0.753775 0.878750 0.000000
0.881283 0.878750 0.000000
1.000000 0.878750 0.000000
0.000000 1.000000 0.000000
0.121250 1.000000 0.000000
0.247500 1.000000 0.000000
0.373750 1.000000 0.000000
0.501229 1.000000 0.000000
0.628737 1.000000 0.000000
0.756245 1.000000 0.000000
0.883754 1.000000 0.000000
1.000000 1.000000 0.000000
0.000000 0.000000 0.130870
0.112888 0.000000 0.129612
0.240396 0.000000 0.128354
0.367905 0.000000 0.127095
0.495413 0.000000 0.125837
0.622921 0.000000 0.124579
0.750430 0.000000 0.123320
0.877938 0.000000 0.122062
1.000000 0.000000 0.121250
0.000000 0.121250 0.128400
0.115358 0.121250 0.127142
0.242867 0.121250 0.125883
0.370375 0.121250 0.124625
0.497883 0.121250 0.123367
0.625391 0.121250 0.122109
0.752500 0.121250 0.121250
0.878750 0.121250 0.121250
1.000000 0.121250 0.121250
0.000000 0.247500 0.125930
0.117829 0.247500 0.124671
0.245337 0.247500 0.123413
0.372845 0.247500 0.122155
0.500000 0.247500 0.121250
0.626250 0.247500 0.121250
0.752500 0.247500 0.121250
0.878750 0.247500 0.121250
1.000000 0.247500 0.121250
0.000000 0.373750 0.123459
0.120299 0.373750 0.122201
0.247500 0.373750 0.121250
0.373750 0.373750 0.121250
0.500000 0.373750 0.121250
0.626250 0.373750 0.121250
0.752500 0.373750 0.121250
0.878750 0.373750 0.121250
1.000000 0.373750 0.121250
0.000000 0.500000 0.121250
0.121250 0.500000 0.121250
0.247500 0.500000 0.121250
0.373750 0.500000 0.121250
0.500000 0.500000 0.121250
0.626250 0.500000 0.121250
0.752500 0.500000 0.121250
0.878750 0.500000 0.121250
1.000000 0.500000 0.121250
0.000000 0.626250 0.121250
0.121250 0.626250 0.121250
0.247500 0.626250 0.121250
0.373750 0.626250 0.121250
0.500000 0.626250 0.121250
0.626250 0.626250 0.121250
0.752500 0.626250 0.121250
0.878750 0.626250 0.121250
1.000000 0.626250 0.121250
0.000000 0.752500 0.121250
0.121250 0.752500 0.121250
0.247500 0.752500 0.121250
0.373750 0.752500 0.121250
0.500000 0.752500 0.121250
0.626250 0.752500 0.121250
0.752500 0.752500 0.121250
0.879293 0.752500 0.120707
1.000000 0.752500 0.119449
0.000000 0.878750 0.121250
0.121250 0.878750 0.121250
0.247500 0.878750 0.121250
0.373750 0.878750 0.121250
0.500000 0.878750 0.121250
0.626747 0.878750 0.120753
0.754255 0.878750 0.119495
0.881763 0.878750 0.118237
1.000000 0.878750 0.116979
0.000000 1.000000 0.121250
0.121250 1.000000 0.121250
0.247500 1.000000 0.121250
0.374200 1.000000 0.120800
0.501709 1.000000 0.119541
0.629217 1.000000 0.118283
0.756725 1.000000 0.117025
0.884233 1.000000 0.115767
1.000000 1.000000 0.114508
0.000000 0.000000 0.256640
0.113368 0.000000 0.255382
0.240876 0.000000 0.254124
0.368384 0.000000 0.252866
0.495893 0.000000 0.251607
0.623401 0.000000 0.250349
0.750909 0.000000 0.249091
0.878418 0.000000 0.247832
1.000000 0.000000 0.247500
0.000000 0.121250 0.254170
0.115838 0.121250 0.252912
0.243346 0.121250 0.251654
0.370855 0.121250 0.250395
0.498363 0.121250 0.249137
0.625871 0.121250 0.247879
0.752500 0.121250 0.247500
0.878750 0.121250 0.247500
1.000000 0.121250 0.247500
0.000000 0.247500 0.251700
0.118308 0.247500 0.250442
0.245817 0.247500 0.249183
0.373325 0.247500 0.247925
0.500000 0.247500 0.247500
0.626250 0.247500 0.247500
0.752500 0.247500 0.247500
0.878750 0.247500 0.247500
1.000000 0.247500 0.247500
0.000000 0.373750 0.249230
0.120779 0.373750 0.247971
0.247500 0.373750 0.247500
0.373750 0.373750 0.247500
0.500000 0.373750 0.247500
0.626250 0.373750 0.247500
0.752500 0.373750 0.247500
0.878750 0.373750 0.247500
1.000000 0.373750 0.247500
0.000000 0.500000 0.247500
0.121250 0.500000 0.247500
0.247500 0.500000 0.247500
0.373750 0.500000 0.247500
0.500000 0.500000 0.247500
0.626250 0.500000 0.247500
0.752500 0.500000 0.247500
0.878750 0.500000 0.247500
1.000000 0.500000 0.247500
0.000000 0.626250 0.247500
0.121250 0.626250 0.247500
0.247500 0.626250 0.247500
0.373750 0.626250 0.247500
0.500000 0.626250 0.247500
0.626250 0.626250 0.247500
0.752500 0.626250 0.247500
0.878750 0.626250 0.247500
1.000000 0.626250 0.247500
0.000000 0.752500 0.247500
0.121250 0.752500 0.247500
0.247500 0.752500 0.247500
0.373750 0.752500 0.247500
0.500000 0.752500 0.247500
0.626250 0.752500 0.247500
0.752500 0.752500 0.247500
0.879773 0.752500 0.246477
1.000000 0.752500 0.245219
0.000000 0.878750 0.247500
0.121250 0.878750 0.247500
0.247500 0.878750 0.247500
0.373750 0.878750 0.247500
0.500000 0.878750 0.247500
0.627226 0.878750 0.246524
0.754735 0.878750 0.245265
0.882243 0.878750 0.244007
1.000000 0.878750 0.242749
0.000000 1.000000 0.247500
0.121250 1.000000 0.247500
0.247500 1.000000 0.247500
0.374680 1.000000 0.246570
0.502188 1.000000 0.245312
0.629697 1.000000 0.244053
0.757205 1.000000 0.242795
0.884713 1.000000 0.241537
1.000000 1.000000 0.240279
0.000000 0.000000 0.382411
0.113848 0.000000 0.381152
0.241356 0.000000 0.379894
0.368864 0.000000 0.378636
0.496372 0.000000 0.377378
0.623881 0.000000 0.376119
0.751389 0.000000 0.374861
0.878750 0.000000 0.373750
1.000000 0.000000 0.373750
0.000000 0.121250 0.379940
0.116318 0.121250 0.378682
0.243826 0.121250 0.377424
0.371334 0.121250 0.376166
0.498843 0.121250 0.374907
0.626250 0.121250 0.373750
0.752500 0.121250 0.373750
0.878750 0.121250 0.373750
1.000000 0.121250 0.373750
0.000000 0.247500 0.377470
0.118788 0.247500 0.376212
0.246296 0.247500 0.374954
0.373750 0.247500 0.373750
0.500000 0.247500 0.373750
0.626250 0.247500 0.373750
0.752500 0.247500 0.373750
0.878750 0.247500 0.373750
1.000000 0.247500 0.373750
0.000000 0.373750 0.375000
0.121250 0.373750 0.373750
0.247500 0.373750 0.373750
0.373750 0.373750 0.373750
0.500000 0.373750 0.373750
0.626250 0.373750 0.373750
0.752500 0.373750 0.373750
0.878750 0.373750 0.373750
1.000000 0.373750 0.373750
0.000000 0.500000 0.373750
0.121250 0.500000 0.373750
0.247500 0.500000 0.373750
0.373750 0.500000 0.373750
0.500000 0.500000 0.373750
0.626250 0.500000 0.373750
0.752500 0.500000 0.373750
0.878750 0.500000 0.373750
1.000000 0.500000 0.373750
0.000000 0.626250 0.373750
0.121250 0.626250 0.373750
0.247500 0.626250 0.373750
0.373750 0.626250 0.373750
0.500000 0.626250 0.373750
0.626250 0.626250 0.373750
0.752500 0.626250 0.373750
0.878750 0.626250 0.373750
1.000000 0.626250 0.373460
0.000000 0.752500 0.373750
0.121250 0.752500 0.373750
0.247500 0.752500 0.373750
0.373750 0.752500 0.373750
0.500000 0.752500 0.373750
0.626250 0.752500 0.373750
0.752744 0.752500 0.373506
0.880252 0.752500 0.372248
1.000000 0.752500 0.370989
0.000000 0.878750 0.373750
0.121250 0.878750 0.373750
0.247500 0.878750 0.373750
0.373750 0.878750 0.373750
0.500198 0.878750 0.373552
0.627706 0.878750 0.372294
0.755214 0.878750 0.371036
0.882723 0.878750 0.369777
1.000000 0.878750 0.368519
0.000000 1.000000 0.373750
0.121250 1.000000 0.373750
0.247651 1.000000 0.373599
0.375160 1.000000 0.372340
0.502668 1.000000 0.371082
0.630176 1.000000 0.369824
0.757685 1.000000 0.368565
0.885193 1.000000 0.367307
1.000000 1.000000 0.366049
0.000000 0.000000 0.508181
0.114327 0.000000 0.506923
0.241836 0.000000 0.505664
0.369344 0.000000 0.504406
0.496852 0.000000 0.503148
0.624360 0.000000 0.501890
0.751869 0.000000 0.500631
0.878750 0.000000 0.500000
1.000000 0.000000 0.500000
0.000000 0.121250 0.505711
0.116798 0.121250 0.504452
0.244306 0.121250 0.503194
0.371814 0.121250 0.501936
0.499322 0.121250 0.500678
0.626250 0.121250 0.500000
0.752500 0.121250 0.500000
0.878750 0.121250 0.500000
1.000000 0.121250 0.500000
0.000000 0.247500 0.503240
0.119268 0.247500 0.501982
0.246776 0.247500 0.500724
0.373750 0.247500 0.500000
0.500000 0.247500 0.500000
0.626250 0.247500 0.500000
0.752500 0.247500 0.500000
0.878750 0.247500 0.500000
1.000000 0.247500 0.500000
0.000000 0.373750 0.500770
0.121250 0.373750 0.500000
0.247500 0.373750 0.500000
0.373750 0.373750 0.500000
0.500000 0.373750 0.500000
0.626250 0.373750 0.500000
0.752500 0.373750 0.500000
0.878750 0.373750 0.500000
1.000000 0.373750 0.500000
0.000000 0.500000 0.500000
0.121250 0.500000 0.500000
0.247500 0.500000 0.500000
0.373750 0.500000 0.500000
0.500000 0.500000 0.500000
0.626250 0.500000 0.500000
0.752500 0.500000 0.500000
0.878750 0.500000 0.500000
1.000000 0.500000 0.500000
0.000000 0.626250 0.500000
0.121250 0.626250 0.500000
0.247500 0.626250 0.500000
0.373750 0.626250 0.500000
0.500000 0.626250 0.500000
0.626250 0.626250 0.500000
0.752500 0.626250 0.500000
0.878750 0.626250 0.500000
1.000000 0.626250 0.499230
0.000000 0.752500 0.500000
0.121250 0.752500 0.500000
0.247500 0.752500 0.500000
0.373750 0.752500 0.500000
0.500000 0.752500 0.500000
0.626250 0.752500 0.500000
0.753224 0.752500 0.499276
0.880732 0.752500 0.498018
1.000000 0.752500 0.496760
0.000000 0.878750 0.500000
0.121250 0.878750 0.500000
0.247500 0.878750 0.500000
0.373750 0.878750 0.500000
0.500678 0.878750 0.499322
0.628186 0.878750 0.498064
0.755694 0.878750 0.496806
0.883202 0.878750 0.495548
1.000000 0.878750 0.494289
0.000000 1.000000 0.500000
0.121250 1.000000 0.500000
0.248131 1.000000 0.499369
0.375640 1.000000 0.498110
0.503148 1.000000 0.496852
0.630656 1.000000 0.495594
0.758164 1.000000 0.494336
0.885673 1.000000 0.493077
1.000000 1.000000 0.491819
0.000000 0.000000 0.633951
0.114807 0.000000 0.632693
0.242315 0.000000 0.631435
0.369824 0.000000 0.630176
0.497332 0.000000 0.628918
0.624840 0.000000 0.627660
0.752349 0.000000 0.626401
0.878750 0.000000 0.626250
1.000000 0.000000 0.626250
0.000000 0.121250 0.631481
0.117277 0.121250 0.630223
0.244786 0.121250 0.628964
0.372294 0.121250 0.627706
0.499802 0.121250 0.626448
0.626250 0.121250 0.626250
0.752500 0.121250 0.626250
0.878750 0.121250 0.626250
1.000000 0.121250 0.626250
0.000000 0.247500 0.629011
0.119748 0.247500 0.627752
0.247256 0.247500 0.626494
0.373750 0.247500 0.626250
0.500000 0.247500 0.626250
0.626250 0.247500 0.626250
0.752500 0.247500 0.626250
0.878750 0.247500 0.626250
1.000000 0.247500 0.626250
0.000000 0.373750 0.626540
0.121250 0.373750 0.626250
0.247500 0.373750 0.626250
0.373750 0.373750 0.626250
0.500000 0.373750 0.626250
0.626250 0.373750 0.626250
0.752500 0.373750 0.626250
0.878750 0.373750 0.626250
1.000000 0.373750 0.626250
0.000000 0.500000 0.626250
0.121250 0.500000 0.626250
0.247500 0.500000 0.626250
0.373750 0.500000 0.626250
0.500000 0.500000 0.626250
0.626250 0.500000 0.626250
0.752500 0.500000 0.626250
0.878750 0.500000 0.626250
1.000000 0.500000 0.626250
0.000000 0.626250 0.626250
0.121250 0.626250 0.626250
0.247500 0.626250 0.626250
0.373750 0.626250 0.626250
0.500000 0.626250 0.626250
0.626250 0.626250 0.626250
0.752500 0.626250 0.626250
0.878750 0.626250 0.626250
1.000000 0.626250 0.625000
0.000000 0.752500 0.626250
0.121250 0.752500 0.626250
0.247500 0.752500 0.626250
0.373750 0.752500 0.626250
0.500000 0.752500 0.626250
0.626250 0.752500 0.626250
0.753704 0.752500 0.625046
0.881212 0.752500 0.623788
1.000000 0.752500 0.622530
0.000000 0.878750 0.626250
0.121250 0.878750 0.626250
0.247500 0.878750 0.626250
0.373750 0.878750 0.626250
0.501157 0.878750 0.625093
0.628666 0.878750 0.623834
0.756174 0.878750 0.622576
0.883682 0.878750 0.621318
1.000000 0.878750 0.620060
0.000000 1.000000 0.626250
0.121250 1.000000 0.626250
0.248611 1.000000 0.625139
0.376119 1.000000 0.623881
0.503628 1.000000 0.622622
0.631136 1.000000 0.621364
0.758644 1.000000 0.620106
0.886152 1.000000 0.618848
1.000000 1.000000 0.617589
0.000000 0.000000 0.759721
0.115287 0.000000 0.758463
0.242795 0.000000 0.757205
0.370303 0.000000 0.755947
0.497812 0.000000 0.754688
0.625320 0.000000 0.753430
0.752500 0.000000 0.752500
0.878750 0.000000 0.752500
1.000000 0.000000 0.752500
0.000000 0.121250 0.757251
0.117757 0.121250 0.755993
0.245265 0.121250 0.754735
0.372774 0.121250 0.753476
0.500000 0.121250 0.752500
0.626250 0.121250 0.752500
0.752500 0.121250 0.752500
0.878750 0.121250 0.752500
1.000000 0.121250 0.752500
0.000000 0.247500 0.754781
0.120227 0.247500 0.753523
0.247500 0.247500 0.752500
0.373750 0.247500 0.752500
0.500000 0.247500 0.752500
0.626250 0.247500 0.752500
0.752500 0.247500 0.752500
0.878750 0.247500 0.752500
1.000000 0.247500 0.752500
0.000000 0.373750 0.752500
0.121250 0.373750 0.752500
0.247500 0.373750 0.752500
0.373750 0.373750 0.752500
0.500000 0.373750 0.752500
0.626250 0.373750 0.752500
0.752500 0.373750 0.752500
0.878750 0.373750 0.752500
1.000000 0.373750 0.752500
0.000000 0.500000 0.752500
0.121250 0.500000 0.752500
0.247500 0.500000 0.752500
0.373750 0.500000 0.752500
0.500000 0.500000 0.752500
0.626250 0.500000 0.752500
0.752500 0.500000 0.752500
0.878750 0.500000 0.752500
1.000000 0.500000 0.752500
0.000000 0.626250 0.752500
0.121250 0.626250 0.752500
0.247500 0.626250 0.752500
0.373750 0.626250 0.752500
0.500000 0.626250 0.752500
0.626250 0.626250 0.752500
0.752500 0.626250 0.752500
0.879221 0.626250 0.752029
1.000000 0.626250 0.750770
0.000000 0.752500 0.752500
0.121250 0.752500 0.752500
0.247500 0.752500 0.752500
0.373750 0.752500 0.752500
0.500000 0.752500 0.752500
0.626675 0.752500 0.752075
0.754183 0.752500 0.750817
0.881692 0.752500 0.749558
1.000000 0.752500 0.748300
0.000000 0.878750 0.752500
0.121250 0.878750 0.752500
0.247500 0.878750 0.752500
0.374129 0.878750 0.752121
0.501637 0.878750 0.750863
0.629145 0.878750 0.749605
0.756654 0.878750 0.748346
0.884162 0.878750 0.747088
1.000000 0.878750 0.745830
0.000000 1.000000 0.752500
0.121582 1.000000 0.752168
0.249091 1.000000 0.750909
0.376599 1.000000 0.749651
0.504107 1.000000 0.748393
0.631616 1.000000 0.747134
0.759124 1.000000 0.745876
0.886632 1.000000 0.744618
1.000000 1.000000 0.743359
0.000000 0.000000 0.885492
0.115767 0.000000 0.884233
0.243275 0.000000 0.882975
0.370783 0.000000 0.881717
0.498291 0.000000 0.880459
0.625800 0.000000 0.879200
0.752500 0.000000 0.878750
0.878750 0.000000 0.878750
1.000000 0.000000 0.878750
0.000000 0.121250 0.883021
0.118237 0.121250 0.881763
0.245745 0.121250 0.880505
0.373253 0.121250 0.879247
0.500000 0.121250 0.878750
0.626250 0.121250 0.878750
0.752500 0.121250 0.878750
0.878750 0.121250 0.878750
1.000000 0.121250 0.878750
0.000000 0.247500 0.880551
0.120707 0.247500 0.879293
0.247500 0.247500 0.878750
0.373750 0.247500 0.878750
0.500000 0.247500 0.878750
0.626250 0.247500 0.878750
0.752500 0.247500 0.878750
0.878750 0.247500 0.878750
1.000000 0.247500 0.878750
0.000000 0.373750 0.878750
0.121250 0.373750 0.878750
0.247500 0.373750 0.878750
0.373750 0.373750 0.878750
0.500000 0.373750 0.878750
0.626250 0.373750 0.878750
0.752500 0.373750 0.878750
0.878750 0.373750 0.878750
1.000000 0.373750 0.878750
0.000000 0.500000 0.878750
0.121250 0.500000 0.878750
0.247500 0.500000 0.878750
0.373750 0.500000 0.878750
0.500000 0.500000 0.878750
0.626250 0.500000 0.878750
0.752500 0.500000 0.878750
0.878750 0.500000 0.878750
1.000000 0.500000 0.878750
0.000000 0.626250 0.878750
0.121250 0.626250 0.878750
0.247500 0.626250 0.878750
0.373750 0.626250 0.878750
0.500000 0.626250 0.878750
0.626250 0.626250 0.878750
0.752500 0.626250 0.878750
0.879701 0.626250 0.877799
1.000000 0.626250 0.876541
0.000000 0.752500 0.878750
0.121250 0.752500 0.878750
0.247500 0.752500 0.878750
0.373750 0.752500 0.878750
0.500000 0.752500 0.878750
0.627155 0.752500 0.877845
0.754663 0.752500 0.876587
0.882171 0.752500 0.875329
1.000000 0.752500 0.874070
0.000000 0.878750 0.878750
0.121250 0.878750 0.878750
0.247500 0.878750 0.878750
0.374609 0.878750 0.877892
0.502117 0.878750 0.876633
0.629625 0.878750 0.875375
0.757133 0.878750 0.874117
0.884642 0.878750 0.872858
1.000000 0.878750 0.871600
0.000000 1.000000 0.878750
0.122062 1.000000 0.877938
0.249570 1.000000 0.876680
0.377079 1.000000 0.875421
0.504587 1.000000 0.874163
0.632095 1.000000 0.872905
0.759604 1.000000 0.871646
0.887112 1.000000 0.870388
1.000000 1.000000 0.869130
0.000000 0.000000 1.000000
0.116246 0.000000 1.000000
0.243755 0.000000 1.000000
0.371263 0.000000 1.000000
0.498771 0.000000 1.000000
0.626250 0.000000 1.000000
0.752500 0.000000 1.000000
0.878750 0.000000 1.000000
1.000000 0.000000 1.000000
0.000000 0.121250 1.000000
0.118717 0.121250 1.000000
0.246225 0.121250 1.000000
0.373733 0.121250 1.000000
0.500000 0.121250 1.000000
0.626250 0.121250 1.000000
0.752500 0.121250 1.000000
0.878750 0.121250 1.000000
1.000000 0.121250 1.000000
0.000000 0.247500 1.000000
0.121187 0.247500 1.000000
0.247500 0.247500 1.000000
0.373750 0.247500 1.000000
0.500000 0.247500 1.000000
0.626250 0.247500 1.000000
0.752500 0.247500 1.000000
0.878750 0.247500 1.000000
1.000000 0.247500 1.000000
0.000000 0.373750 1.000000
0.121250 0.373750 1.000000
0.247500 0.373750 1.000000
0.373750 0.373750 1.000000
0.500000 0.373750 1.000000
0.626250 0.373750 1.000000
0.752500 0.373750 1.000000
0.878750 0.373750 1.000000
1.000000 0.373750 1.000000
0.000000 0.500000 1.000000
0.121250 0.500000 1.000000
0.247500 0.500000 1.000000
0.373750 0.500000 1.000000
0.500000 0.500000 1.000000
0.626250 0.500000 1.000000
0.752500 0.500000 1.000000
0.878750 0.500000 1.000000
1.000000 0.500000 1.000000
0.000000 0.626250 1.000000
0.121250 0.626250 1.000000
0.247500 0.626250 1.000000
0.373750 0.626250 1.000000
0.500000 0.626250 1.000000
0.626250 0.626250 1.000000
0.752673 0.626250 1.000000
0.880181 0.626250 1.000000
1.000000 0.626250 1.000000
0.000000 0.752500 1.000000
0.121250 0.752500 1.000000
0.247500 0.752500 1.000000
0.373750 0.752500 1.000000
0.500126 0.752500 1.000000
0.627635 0.752500 1.000000
0.755143 0.752500 1.000000
0.882651 0.752500 1.000000
1.000000 0.752500 0.999841
0.000000 0.878750 1.000000
0.121250 0.878750 1.000000
0.247580 0.878750 1.000000
0.375088 0.878750 1.000000
0.502597 0.878750 1.000000
0.630105 0.878750 1.000000
0.757613 0.878750 0.999887
0.885121 0.878750 0.998629
1.000000 0.878750 0.997370
0.000000 1.000000 1.000000
0.122542 1.000000 1.000000
0.250050 1.000000 1.000000
0.377559 1.000000 1.000000
0.505067 1.000000 0.999933
0.632575 1.000000 0.998675
0.760083 1.000000 0.997417
0.887592 1.000000 0.996158
1.000000 1.000000 0.994900
